prominentjohnson/z1_sdk/examples/nominal_trajectory.csv
t,q0,q1,q2,q3,q4,q5,qdot0,qdot1,qdot2,qdot3,qdot4,qdot5,tau0,tau1,tau2,tau3,tau4,tau5
0.000000000000000000e+00,1.168251025037239143e-08,2.062630960228924337e+00,-1.286620325453555314e+00,-7.760106225370887456e-01,-1.099681652913384732e-08,1.570799990142405678e+00,0.000000000000000000e+00,-2.967442907007443497e-31,8.192541654735283515e-31,9.244717509969665676e-30,0.000000000000000000e+00,0.000000000000000000e+00,3.141649429340231059e+00,-3.299999577909737525e+01,-1.963714517120613223e+01,-7.315571096583459720e+00,9.090172345602247350e-02,1.067591209745101348e-02
2.000000000000000042e-03,-9.866996874530383768e-05,2.062835177911970241e+00,-1.286246304747661773e+00,-7.768902455959433295e-01,3.490899151186208191e-04,1.570748860749031639e+00,2.429868249208105152e-02,-4.953214721983925650e-02,-9.289528020318713053e-02,2.124978017154891818e-01,-8.598456880895502530e-02,1.226046213981715240e-02,3.086592830970592782e+00,-3.299521446291841187e+01,-1.977108858487174103e+01,-7.398508305957334663e+00,8.826329396707609243e-02,1.066028057311513288e-02
4.000000000000000083e-03,-1.472519828559004163e-04,2.062934367199399599e+00,-1.286060386790925048e+00,-7.773151595059505370e-01,5.210608382531308098e-04,1.570724338413882037e+00,4.821207007835306979e-02,-9.765168784694859550e-02,-1.852923072415518790e-01,4.175151871450210606e-01,-1.706797759349396870e-01,2.400023874859087691e-02,3.032432714961367015e+00,-3.299362055734542309e+01,-1.990016742882869138e+01,-7.480117365439257426e+00,8.586589577131051310e-02,1.063990868398140624e-02
6.000000000000000125e-03,-1.464932317448529981e-04,2.062931447768064697e+00,-1.286061478955213166e+00,-7.773002624114199177e-01,5.184815192904576380e-04,1.570725380745203292e+00,7.174215330876775043e-02,-1.443425750779155081e-01,-2.771747526397696504e-01,6.150628053162716657e-01,-2.540854475407926527e-01,3.521915643870862644e-02,2.979111139034683831e+00,-3.299441720522172261e+01,-2.002436264705285751e+01,-7.560331760018568659e+00,8.369489583842176783e-02,1.061525614803596196e-02
8.000000000000000167e-03,-9.715258733547538791e-05,2.062829339294820041e+00,-1.286248488612393048e+00,-7.768604524566617986e-01,3.439317049340583489e-04,1.570750945351242267e+00,9.489092273327676130e-02,-1.895887621093272912e-01,-3.685262879225156829e-01,8.051513052569171380e-01,-3.362014097893525899e-01,4.591704182255784000e-02,2.926570160912675966e+00,-3.299680754939062410e+01,-2.014365518352012430e+01,-7.639084974684617002e+00,8.173566113810602773e-02,1.058678268326494060e-02
1.000000000000000021e-02,1.107844891875837262e-08,2.062630961456519696e+00,-1.286620323134332722e+00,-7.760106277859859514e-01,-8.858112609904083418e-09,1.570799989840245825e+00,1.176603689018318327e-01,-2.333742021377716025e-01,-4.593305846144655202e-01,9.877913359946335348e-01,-4.170274888434582494e-01,5.609372151252599303e-02,2.874751838317475272e+00,-3.299999473269544836e+01,-2.025802598220637307e+01,-7.716310494426749322e+00,7.997355864005936676e-02,1.055494800765447577e-02
1.200000000000000025e-02,1.442388936850155952e-04,2.062339233930015947e+00,-1.287175889892899328e+00,-7.747656865437021478e-01,-5.107604231460898588e-04,1.570871471820460163e+00,1.400524823643846117e-01,-2.756828483598357526e-01,-5.495713142402944840e-01,1.162993546557097080e+00,-4.965635108659483543e-01,6.574902212100053323e-02,2.823598228971213597e+00,-3.300318189797950907e+01,-2.036745598708749583e+01,-7.791941804234308933e+00,7.839395531397791439e-02,1.052021183919070110e-02
1.400000000000000029e-02,3.347719864495014939e-04,2.061957076392164190e+00,-1.287914096259960228e+00,-7.731405268741208259e-01,-1.185743243462924687e-03,1.570964348900133478e+00,1.620692536708868425e-01,-3.164986539721073022e-01,-6.392321483246781177e-01,1.330768585971983997e+00,-5.748093020196616276e-01,7.488277026036893602e-02,2.773051390596024124e+00,-3.300557218808613413e+01,-2.047192614213938100e+01,-7.865912389096642698e+00,7.698221812955778620e-02,1.048303389585975194e-02
1.600000000000000033e-02,5.708514848190628663e-04,2.061487408519815823e+00,-1.288833849607383231e+00,-7.711500469215514242e-01,-2.022377572359657615e-03,1.571077578687511300e+00,1.837126733712901583e-01,-3.558055721711735897e-01,-7.282967583922916877e-01,1.491127103266969955e+00,-6.517646884674368479e-01,8.349479254301861442e-02,2.723053380914036925e+00,-3.300636874585862302e+01,-2.057141739133789571e+01,-7.938155734003094821e+00,7.572371405649508391e-02,1.044387389564775843e-02
1.800000000000000211e-02,8.517185168703860160e-04,2.060933149989826241e+00,-1.289934057307035697e+00,-7.688091448303040476e-01,-3.018083663132832464e-03,1.571210118790840715e+00,2.049847320155462893e-01,-3.935875561536221756e-01,-8.167488159678106818e-01,1.644079747469731512e+00,-7.274294963721125162e-01,9.158491558133706467e-02,2.673546257647384738e+00,-3.300477471414030362e+01,-2.066591067865893905e+01,-8.008605323943013943e+00,7.460381006448592311e-02,1.040319155654086114e-02
2.000000000000000042e-02,1.176614210680156352e-03,2.060297220479047731e+00,-1.291213626730784991e+00,-7.661327187446886899e-01,-4.170281769078988503e-03,1.571360926818368586e+00,2.258874201536068826e-01,-4.298285591160403429e-01,-9.045719925759101443e-01,1.789637167607944335e+00,-8.018035518965273001e-01,9.915296598771169978e-02,2.624472078518199414e+00,-3.299999323577448251e+01,-2.075538694807838169e+01,-8.077194643905741600e+00,7.360787312322640552e-02,1.036144659652519368e-02
2.199999999999999872e-02,1.544783900730088699e-03,2.059582573574237241e+00,-1.292671430745370831e+00,-7.631356443056244165e-01,-5.476391776144176431e-03,1.571528960011940868e+00,2.464224548017548144e-01,-4.645123941750171626e-01,-9.917469056978199804e-01,1.927803515183925676e+00,-8.748867301549874131e-01,1.061985396693260475e-01,2.575773366137703135e+00,-3.299202428244812779e+01,-2.084009280390472796e+01,-8.143968822169679100e+00,7.271811008554035505e-02,1.031922897720628438e-02
2.400000000000000050e-02,1.955489747626747328e-03,2.058792298505829788e+00,-1.294306204192881005e+00,-7.598327071377667385e-01,-6.933832100828390792e-03,1.571713174147758796e+00,2.665904588087762428e-01,-4.976223141103390257e-01,-1.078241956274527347e+00,2.058556950818907882e+00,-9.466791020735424445e-01,1.127203096848652247e-01,2.527394502729265469e+00,-3.298405523683560148e+01,-2.092133752365392851e+01,-8.209419573565737593e+00,7.190408695757444235e-02,1.027764965029542323e-02
2.600000000000000228e-02,2.407998118634090134e-03,2.057929518416194981e+00,-1.296116647408204869e+00,-7.562386703610300964e-01,-8.540020792259085322e-03,1.571912524635598718e+00,2.863917814733769607e-01,-5.291414316133891127e-01,-1.164022491020340500e+00,2.181869137218932053e+00,-1.017180787532645514e+00,1.187167183739686743e-01,2.479280335433234672e+00,-3.298007035826204714e+01,-2.100069606111330600e+01,-8.274150262912101539e+00,7.113220943900622206e-02,1.023794981893748346e-02
2.800000000000000058e-02,2.901575381016078051e-03,2.056997356447705094e+00,-1.298101460726231782e+00,-7.523682970953291527e-01,-1.029237589956371463e-02,1.572125966885239645e+00,3.058267720942629553e-01,-5.590528593755509368e-01,-1.249053856649566807e+00,2.297711737090039730e+00,-1.086391906412750075e+00,1.241862080762759779e-01,2.431375711389961225e+00,-3.298405390605262255e+01,-2.107974337007017951e+01,-8.338764255026969607e+00,7.036888322951326269e-02,1.020137068627734699e-02
2.999999999999999889e-02,3.435487902036671141e-03,2.055998935742731071e+00,-1.300259344481850654e+00,-7.482363504605780147e-01,-1.218831547186973070e-02,1.572352456306458146e+00,3.248957799701402971e-01,-5.873397100882076227e-01,-1.333301399876515303e+00,2.406056413138273342e+00,-1.154312578594309358e+00,1.291272211314266338e-01,2.383625477739796494e+00,-3.299999013953249971e+01,-2.116005440431187878e+01,-8.403864914728536917e+00,6.958051402877310498e-02,1.016915345545988704e-02
3.200000000000000067e-02,4.009002392917450537e-03,2.054937405667824457e+00,-1.302588943210817307e+00,-7.438576420776573661e-01,-1.422525777889723127e-02,1.572590945733793433e+00,3.435990746601751966e-01,-6.139980020668229788e-01,-1.416732532400496458e+00,2.506897681595494642e+00,-1.220943016720826613e+00,1.335378210150158784e-01,2.335994394655159123e+00,-3.302867604261418677e+01,-2.124190368160741826e+01,-8.469539448092071154e+00,6.874534786380132045e-02,1.014182079937264204e-02
3.400000000000000244e-02,4.621386940772360952e-03,2.053816020490973671e+00,-1.305088678242303235e+00,-7.392471775800394385e-01,-1.640062197277651276e-02,1.572840377700362557e+00,3.619366067510219054e-01,-6.390753784460486697e-01,-1.499322926232499853e+00,2.600321476910217200e+00,-1.286283804504695816e+00,1.374145556782701283e-01,2.288526878020872513e+00,-3.305815892388550026e+01,-2.132036374158855452e+01,-8.533810333318291086e+00,6.788899420209276725e-02,1.011702114054632666e-02
3.600000000000000422e-02,5.271909976703921703e-03,2.052638060706706291e+00,-1.307756915101323969e+00,-7.344200111065271042e-01,-1.871182742625035131e-02,1.573099692163809626e+00,3.799082470826184998e-01,-6.626323891460772497e-01,-1.581050318554359402e+00,2.686436589113510909e+00,-1.350335618429707729e+00,1.407535941742750485e-01,2.241287258545930250e+00,-3.307329852967803419e+01,-2.138920657083407306e+01,-8.594183843412521284e+00,6.704890390406796630e-02,1.009168430658911701e-02
3.799999999999999906e-02,5.959839931814650375e-03,2.051406806809551231e+00,-1.310592019312894818e+00,-7.293911967959233467e-01,-2.115629351206151088e-02,1.573367829081780522e+00,3.975138664949028899e-01,-6.847295840871006067e-01,-1.661892446547907909e+00,2.765351808236444331e+00,-1.413099134979653115e+00,1.435511055561161653e-01,2.194339866939326811e+00,-3.305895460632341099e+01,-2.144220415592277007e+01,-8.648166251380082770e+00,6.626252783014735526e-02,1.006274012510918921e-02
4.000000000000000083e-02,6.684445237207071490e-03,2.050125539294037402e+00,-1.313592356402032202e+00,-7.241757887870310384e-01,-2.373143960295281268e-02,1.573643728411920906e+00,4.147533358278134852e-01,-7.054275131893117390e-01,-1.741827047394979733e+00,2.837175924310090469e+00,-1.474575030638324513e+00,1.458032588768792825e-01,2.147749033910056671e+00,-3.299998690015328151e+01,-2.147312848343344527e+01,-8.693263830226301891e+00,6.556731684075149669e-02,1.002711842371473150e-02
4.200000000000000261e-02,7.444994172549157171e-03,2.048797438258592951e+00,-1.316756254267731574e+00,-7.187886595712102977e-01,-2.643468619350004128e-02,1.573926323721782428e+00,4.316266765106015479e-01,-7.247501147624507700e-01,-1.820809994985679969e+00,2.901928818198644233e+00,-1.534764125791831413e+00,1.475056704533790064e-01,2.101484897175405653e+00,-3.289320722487757820e+01,-2.148049467607565788e+01,-8.728880776815890030e+00,6.495134811838935984e-02,9.984320325017675621e-03
4.399999999999999745e-02,8.240754411734350915e-03,2.047425282193154228e+00,-1.320081890295881744e+00,-7.132439550064557654e-01,-2.926345826588037241e-02,1.574214523017006817e+00,4.481345123659103979e-01,-7.425748718881437505e-01,-1.898709704796299524e+00,2.959274712761776449e+00,-1.593667816470093035e+00,1.486517455246968711e-01,2.055140799880747160e+00,-3.278323853205883154e+01,-2.148179153937244834e+01,-8.762013438927901632e+00,6.420519228488920371e-02,9.944132748722024975e-03
4.599999999999999922e-02,9.070993477203390803e-03,2.046011749179511785e+00,-1.323567404241838164e+00,-7.075556392815217643e-01,-3.221518192423866028e-02,1.574507227912376406e+00,4.642776178237673079e-01,-7.587426516442807856e-01,-1.975372726387872868e+00,3.008788911023448698e+00,-1.651287642622617069e+00,1.492343365273167410e-01,2.008215880876865533e+00,-3.272665727485063769e+01,-2.149925158413992321e+01,-8.801556315946026388e+00,6.307004035947263998e-02,9.918914218083326600e-03
4.800000000000000100e-02,9.934978891397010584e-03,2.044559517299455287e+00,-1.327210935860954955e+00,-7.017376765851632836e-01,-3.528728327271972443e-02,1.574803340022673082e+00,4.800567673141992731e-01,-7.730943211087515365e-01,-2.050645609321433582e+00,3.050046716007623004e+00,-1.707625144198909650e+00,1.492462958977224530e-01,1.960209279014546668e+00,-3.278003990640655729e+01,-2.155510732119419259e+01,-8.856403907253946883e+00,6.128708336136133583e-02,9.921023256357124065e-03
5.000000000000000278e-02,1.083197817675593359e-02,2.043071264634773954e+00,-1.331010624908586903e+00,-6.958040311061344241e-01,-3.847718841546838436e-02,1.575101760962678288e+00,4.954727352672332330e-01,-7.854707473594453315e-01,-2.124374903158014583e+00,3.082623430738259618e+00,-1.762681861148476914e+00,1.486804760723978436e-01,1.910620133144574240e+00,-3.299996287988014387e+01,-2.167159126135134528e+01,-8.935450712235349258e+00,5.859751230977689601e-02,9.962818386798959203e-03
5.200000000000000455e-02,1.176126012924197557e-02,2.041549934331318816e+00,-1.334964355548553083e+00,-6.897693749005924246e-01,-4.178232602451546068e-02,1.575401380436939780e+00,5.105255674352870976e-01,-7.958630680042486638e-01,-2.196471268890765050e+00,3.106423667000575151e+00,-1.816459979727679031e+00,1.475290914493125050e-01,1.859138069049587560e+00,-3.339836679333893699e+01,-2.184911808103500164e+01,-9.038069736325848424e+00,5.486482699072939284e-02,1.004505672221001414e-02
5.399999999999999939e-02,1.272209863928327502e-02,2.039999529870694772e+00,-1.339068989501855045e+00,-6.836512117066512184e-01,-4.520013504420600930e-02,1.575701040505490980e+00,5.252123946417477374e-01,-8.048635478500466567e-01,-2.267101832473810141e+00,3.122669370412722856e+00,-1.868964271614168116e+00,1.457818040809762405e-01,1.806214717382993218e+00,-3.380863543438755414e+01,-2.200082457406024616e+01,-9.125545152856640030e+00,5.044179894826483074e-02,1.012208625331664433e-02
5.600000000000000117e-02,1.371376887102008710e-02,2.038424319838326504e+00,-1.343321132859620626e+00,-6.774677532360066090e-01,-4.872805698715623052e-02,1.575999571316344827e+00,5.395296189230927020e-01,-8.132147447740718516e-01,-2.336497840910007895e+00,3.132911844749926011e+00,-1.920200154889394772e+00,1.434276378856797207e-01,1.752492224302801160e+00,-3.401951004023419500e+01,-2.201802642720769043e+01,-9.149638213001228593e+00,4.580352683934663105e-02,1.013665182019689477e-02
5.800000000000000294e-02,1.473554598859266179e-02,2.036828572819637806e+00,-1.347717391712977664e+00,-6.712372112003541780e-01,-5.236353336598237318e-02,1.576295803017514707e+00,5.534736423157993190e-01,-8.216592166535575670e-01,-2.404890541202216347e+00,3.138702393787405676e+00,-1.970173047634810493e+00,1.404556167817136436e-01,1.698612735967022447e+00,-3.381973184808703081e+01,-2.179203932725794957e+01,-9.062110167933122185e+00,4.142510932093833309e-02,1.003149826292883649e-02
5.999999999999999778e-02,1.578670515614124387e-02,2.035216557400054249e+00,-1.352254372153053996e+00,-6.649777973113899510e-01,-5.610400569330063758e-02,1.576588565757013338e+00,5.670408668563449162e-01,-8.309395213657363444e-01,-2.472511180353293092e+00,3.141592321300384683e+00,-2.018888367931865435e+00,1.368547646873687629e-01,1.645218398533667914e+00,-3.299804209515426834e+01,-2.121417896099162093e+01,-8.814722268825827101e+00,3.778164505000342760e-02,9.749370421590517963e-03
6.199999999999999956e-02,1.686651554631574818e-02,2.033591304715607784e+00,-1.356929065610765983e+00,-6.587051379800885620e-01,-5.994692451065926353e-02,1.576876671390613271e+00,5.802290145283507394e-01,-8.414366585092957207e-01,-2.539416730545076550e+00,3.142931059184964404e+00,-2.066351473769599600e+00,1.326131957642837089e-01,1.592803263303177674e+00,-3.141698864106379219e+01,-2.021516467357382041e+01,-8.376939913194197729e+00,3.522047483178228355e-02,9.253032346821010723e-03
6.400000000000000133e-02,1.797422236364788761e-02,2.031950895659301093e+00,-1.361740005014899557e+00,-6.524245174838719796e-01,-6.388977647858484765e-02,1.577158858598538105e+00,5.930410875791739533e-01,-8.520852644130445519e-01,-2.604967001938936377e+00,3.143260479149831976e+00,-2.112567482745777880e+00,1.277153848199897024e-01,1.541268948833728780e+00,-2.923437240442815721e+01,-1.888334462844897033e+01,-7.789051457152504021e+00,3.357786207366290909e-02,8.585332138126743756e-03
6.600000000000000311e-02,1.910906482010058666e-02,2.030292173452003635e+00,-1.366686108703392355e+00,-6.461386343340859151e-01,-6.793005728816121913e-02,1.577433847765480124e+00,6.054814084409074759e-01,-8.614583520464689226e-01,-2.668347498505618365e+00,3.142920544687455742e+00,-2.157541452354938993e+00,1.221448967416091103e-01,1.490368952168737104e+00,-2.668181421153029120e+01,-1.734647774013577859e+01,-7.109052589916767140e+00,3.256228933479549115e-02,7.809140709048962778e-03
6.800000000000000488e-02,2.027028212763674203e-02,2.028611981314583090e+00,-1.371766295014179793e+00,-6.398501870420753024e-01,-7.206526263047220715e-02,1.577700359276130060e+00,6.175542995456443363e-01,-8.681289343790554724e-01,-2.728743724215866528e+00,3.142251219290304931e+00,-2.201278440091618993e+00,1.158852964162641469e-01,1.439856770351617410e+00,-2.399093488865308998e+01,-1.573232292315295844e+01,-6.394939000702998477e+00,3.188223917433018195e-02,6.987328973128905697e-03
7.000000000000000666e-02,2.145711349821926434e-02,2.026907162467908918e+00,-1.376979482285199063e+00,-6.335618741191855197e-01,-7.629288819660159926e-02,1.577957113515179310e+00,6.292640833254768973e-01,-8.706700243802900641e-01,-2.785341183040423996e+00,3.141592466450846111e+00,-2.243783503450355710e+00,1.089201487310770822e-01,1.389485900425785125e+00,-2.139335526207946714e+01,-1.416863909201922134e+01,-5.704706378727218308e+00,3.124619415141714762e-02,6.182767843907813893e-03
7.200000000000000844e-02,2.266880534588773533e-02,2.025176938187356779e+00,-1.382323231512238015e+00,-6.272758275364289648e-01,-8.061043810602155912e-02,1.578202803478419458e+00,6.406142044093173782e-01,-8.680026392283071157e-01,-2.837502041998724689e+00,3.141214146999205425e+00,-2.285062813007134430e+00,1.012320594426739662e-01,1.339053615389796281e+00,-1.906916276778236607e+01,-1.275409230847004949e+01,-5.083233566399698589e+00,3.040895170540069622e-02,5.443937632004232190e-03
7.399999999999999634e-02,2.390463289601310604e-02,2.023430042965072229e+00,-1.387789673752422903e+00,-6.209919128655471132e-01,-8.501545019529688219e-02,1.578436012594541582e+00,6.516045958446878839e-01,-8.604399590926963270e-01,-2.885295194500939076e+00,3.141105681673999950e+00,-2.325126992131200776e+00,9.279979738287423563e-02,1.288532310448051055e+00,-1.699228963719689744e+01,-1.147096500451965007e+01,-4.522926510016853641e+00,2.931058824799875895e-02,4.761750192495433145e-03
7.599999999999999811e-02,2.516387857755551100e-02,2.021677589847110212e+00,-1.393369582435685761e+00,-6.147094290189729637e-01,-8.950547073115082408e-02,1.578655296897585991e+00,6.622343126915887224e-01,-8.486432414339644126e-01,-2.928966234105871091e+00,3.141186373829666589e+00,-2.363987777506999954e+00,8.360117205157968634e-02,1.237938165953213820e+00,-1.508512388923114145e+01,-1.027244064978411942e+01,-4.003071554479318728e+00,2.793750479743252121e-02,4.112723755452096265e-03
7.799999999999999989e-02,2.644582481947501534e-02,2.019930691879524343e+00,-1.399053730991956179e+00,-6.084276749091394043e-01,-9.407804598030644616e-02,1.578859212421591440e+00,6.725024100100186475e-01,-8.332737437126178648e-01,-2.968760754372324673e+00,3.141375526820640918e+00,-2.401656905818976728e+00,7.361399294869225285e-02,1.187287362257950285e+00,-1.327005354279317473e+01,-9.111702713879560989e+00,-3.502955044687732222e+00,2.627610237192321008e-02,3.473376550944912329e-03
8.000000000000000167e-02,2.774975405073172585e-02,2.018200462108369120e+00,-1.404832892851165971e+00,-6.021459494484793229e-01,-9.873072220948692079e-02,1.579046315200598238e+00,6.824079428599776342e-01,-8.149927233891633982e-01,-3.004924348859101535e+00,3.141592444001360285e+00,-2.438146113751575861e+00,6.281606957411385583e-02,1.136596079714925267e+00,-1.146946661679108992e+01,-7.941934666422086231e+00,-3.001863325542733385e+00,2.431278198969203871e-02,2.820226809044567347e-03
8.200000000000000344e-02,2.907494712590209460e-02,2.016496911617714272e+00,-1.410698250714442104e+00,-5.958636860260722035e-01,-1.034610652441999151e-01,1.579215124288851690e+00,6.919502674452940871e-01,-7.943690784498962376e-01,-3.037589132686592919e+00,3.141767014559638138e+00,-2.473467281113281846e+00,5.118398952228073173e-02,1.085932660490817270e+00,-9.631503364518342991e+00,-6.734078334656058651e+00,-2.486603051059934621e+00,2.208339068216720949e-02,2.138546408430005812e-03
8.400000000000000522e-02,3.042067860127226769e-02,2.014825643114774412e+00,-1.416642624564142139e+00,-5.895808560021315037e-01,-1.082667191544792185e-01,1.579364010803666840e+00,7.011299446896595011e-01,-7.716022246528965178e-01,-3.066433252753336003e+00,3.141871476097867877e+00,-2.507632860277433817e+00,3.868945217926748198e-02,1.035574119045366892e+00,-7.807325337554715361e+00,-5.530117500124605456e+00,-1.974065721367538107e+00,1.982158326706202206e-02,1.448626023853138165e-03
8.600000000000000699e-02,3.178622145836684093e-02,2.013191157080298499e+00,-1.422659243752047775e+00,-5.832975652457922378e-01,-1.131453475738373043e-01,1.579491308873688826e+00,7.099478367328710959e-01,-7.467991961150164393e-01,-3.091021350283716274e+00,3.141888654592504437e+00,-2.540655446775758719e+00,2.530293473241591179e-02,9.858496441715811631e-01,-6.073852502608569459e+00,-4.389798564147659121e+00,-1.488664950643343587e+00,1.781047244273730248e-02,7.795120796201440282e-04
8.799999999999999489e-02,3.317084867871043785e-02,2.011597953995035937e+00,-1.428741337629941377e+00,-5.770139196261896419e-01,-1.180946141357866741e-01,1.579595352627562121e+00,7.184048057147256472e-01,-7.200670269531085355e-01,-3.110918066502120105e+00,3.141801376020002756e+00,-2.572547636139987048e+00,1.099491436906791658e-02,9.370884246624682223e-01,-4.508004826388282815e+00,-3.372867928045163666e+00,-1.054814353065156585e+00,1.633317090755389417e-02,1.602510000372091216e-04
8.999999999999999667e-02,3.457383324382770629e-02,2.010050534339737904e+00,-1.434882135549605531e+00,-5.707300250124593965e-01,-1.231121824738400095e-01,1.579674476193932531e+00,7.265017137750213738e-01,-6.915127512840253399e-01,-3.125688042632936980e+00,3.141592466356821323e+00,-2.603322023901848858e+00,-4.264131723434882310e-03,8.896196493110354320e-01,-3.186702275602204537e+00,-2.539071993137043570e+00,-6.969275428107738479e-01,1.567279135987261623e-02,-3.801107905894929783e-04
9.199999999999999845e-02,3.599444957186224286e-02,2.008553220228149527e+00,-1.441074141362802541e+00,-5.644460158937454342e-01,-1.281957372112576543e-01,1.579726964503357367e+00,7.342396448739294534e-01,-6.612612517802093359e-01,-3.135169434624262674e+00,3.141272508949059183e+00,-2.632991374438767629e+00,-2.050489477796765478e-02,8.437280133823813477e-01,-2.166607740905408974e+00,-1.931810120708806311e+00,-4.328573485936217935e-01,1.602702667754844074e-02,-8.200439115415843021e-04
9.400000000000000022e-02,3.743197782820941594e-02,2.007109620209683865e+00,-1.447306956529457844e+00,-5.581621412546822203e-01,-1.333430469416263253e-01,1.579750905667476557e+00,7.416205703729015219e-01,-6.295088149744976214e-01,-3.140294605014120499e+00,3.140963131610100323e+00,-2.661569127602125384e+00,-3.776274033920849760e-02,7.995202140039288086e-01,-1.423344870131780349e+00,-1.529084684678555739e+00,-2.542099145144774974e-01,1.725184433060836242e-02,-1.168091215576383792e-03
9.600000000000000200e-02,3.888569961527151009e-02,2.005723164418587778e+00,-1.453569456813583516e+00,-5.518786787076417344e-01,-1.385519012539480066e-01,1.579744338586560604e+00,7.486466835136579290e-01,-5.964695807746587253e-01,-3.142269504916766376e+00,3.140813727017826462e+00,-2.689068892134593991e+00,-5.607420268754118031e-02,7.570584427613633594e-01,-9.122747653887529617e-01,-1.292546605017226735e+00,-1.460288277126102763e-01,1.911776890411458901e-02,-1.440314628738238604e-03
9.800000000000000377e-02,4.035489653545079602e-02,2.004397282989109463e+00,-1.459850517979190965e+00,-5.455959058649951787e-01,-1.438200897372247655e-01,1.579705302160878233e+00,7.553201775379190241e-01,-5.623576890884610657e-01,-3.142300085446454894e+00,3.140973687850114882e+00,-2.715504276778841319e+00,-7.547581610334946900e-02,7.164048912403687686e-01,-5.887585287837570069e-01,-1.183846801695753514e+00,-9.335767532728835028e-02,2.139532498312930048e-02,-1.652776077071496002e-03
1.000000000000000056e-01,4.183885019114952364e-02,2.003135406055495782e+00,-1.466139015790292266e+00,-5.393141003391140886e-01,-1.491454019804586972e-01,1.579631835290698394e+00,7.616432456874050461e-01,-5.273872798236732828e-01,-3.141592297717441973e+00,3.141592406784847302e+00,-2.740888890277536571e+00,-9.600411486701712627e-02,6.776217510266292487e-01,-4.081572624242245095e-01,-1.164636194685068737e+00,-8.124004449778012005e-02,2.385503715271470107e-02,-1.821537486620504118e-03
1.020000000000000073e-01,4.333684583965193710e-02,2.001940606905509679e+00,-1.472425835629792346e+00,-5.330332907915417140e-01,-1.545256502505084895e-01,1.579521915994893222e+00,7.676187126427121976e-01,-4.917602617539727494e-01,-3.141131369070949475e+00,3.142697661903665729e+00,-2.765236283119907768e+00,-1.176963478389261158e-01,6.407897090509208082e-01,-3.357476953228832328e-01,-1.204939592422512140e+00,-9.806749953700533151e-02,2.630720761813677006e-02,-1.958529420424631393e-03
1.040000000000000091e-01,4.484818335996273303e-02,2.000814531226867476e+00,-1.478709902561923917e+00,-5.267525099311389791e-01,-1.599587375392657607e-01,1.579373278730213270e+00,7.732519292187974846e-01,-4.556296117780826993e-01,-3.141019499323450592e+00,3.143830699935408202e+00,-2.788559772746459053e+00,-1.405926226281936642e-01,6.060634447214490184e-01,-3.764750134156748529e-01,-1.308282381481530088e+00,-1.456255222137681493e-01,2.872127293175139387e-02,-2.059154510716406771e-03
1.059999999999999970e-01,4.637216628706508637e-02,1.999758467753739222e+00,-1.484992151872736033e+00,-5.204705414412490461e-01,-1.654425895232825572e-01,1.579183597053746890e+00,7.785488778589371162e-01,-4.191360719910656729e-01,-3.141138098297108439e+00,3.144411116526014016e+00,-2.810872618326773154e+00,-1.647337616383224290e-01,5.736161383404612124e-01,-5.452030044179386747e-01,-1.486566349225619366e+00,-2.290485759264883903e-01,3.110645920015058657e-02,-2.114682787236964092e-03
1.079999999999999988e-01,4.790809815594222754e-02,1.998773705220296737e+00,-1.491273518848277302e+00,-5.141861690052149658e-01,-1.709751318791109809e-01,1.578950544522581767e+00,7.835155410064070791e-01,-3.824203844879834335e-01,-3.141368575814091457e+00,3.143858507321424689e+00,-2.832188079030435013e+00,-1.901605872728155677e-01,5.436209702102046126e-01,-8.567954560450197210e-01,-1.751693283018282088e+00,-3.534711240735880500e-01,3.347199252992642121e-02,-2.116384279727443266e-03
1.100000000000000006e-01,4.945528250157735228e-02,1.997861532360710957e+00,-1.497554938774597888e+00,-5.078981763063796784e-01,-1.765542902833030781e-01,1.578671794693805808e+00,7.881579011044841376e-01,-3.456232913638987991e-01,-3.141592341696563651e+00,3.141592467967579516e+00,-2.852519414027029576e+00,-2.169139219351758630e-01,5.162511206329266633e-01,-1.326116156012259628e+00,-2.115564970223016594e+00,-5.240276300534878473e-01,3.582709902767091531e-02,-2.055529017928978564e-03
1.120000000000000023e-01,5.101303282805106504e-02,1.997023003377406347e+00,-1.503837149319912525e+00,-5.016063142100872785e-01,-1.821780125074039802e-01,1.578344953098324677e+00,7.924827843617576750e-01,-3.088830454487119237e-01,-3.141715862795005698e+00,3.136948081211796246e+00,-2.871879982642236318e+00,-2.450343087375704831e-01,4.916351820646083781e-01,-1.961548571451518841e+00,-2.584823343430758591e+00,-7.433904886405842127e-01,3.815122567375480583e-02,-1.926694242840856861e-03
1.140000000000000041e-01,5.258070252241346665e-02,1.996258234191037984e+00,-1.510120097550674556e+00,-4.953142029480235853e-01,-1.878443347175140221e-01,1.577967353117418536e+00,7.965003926049565308e-01,-2.723279408687692138e-01,-3.141745850610712321e+00,3.128922322428695946e+00,-2.890283544892227052e+00,-2.745611734424937000e-01,4.697233661483486422e-01,-2.745550610172413641e+00,-3.145067444656927780e+00,-1.004382195156726221e+00,4.030468328954732449e-02,-1.737688223242523245e-03
1.160000000000000059e-01,5.415765494410215708e-02,1.995567106113113054e+00,-1.516403532850284952e+00,-4.890264302530705764e-01,-1.935513151820184852e-01,1.577536260083735487e+00,8.002217717045863044e-01,-2.360837816637342546e-01,-3.141714081942750703e+00,3.116427626202872947e+00,-2.907743960982323905e+00,-3.055336624289310965e-01,4.504212819658574563e-01,-3.654097720730504317e+00,-3.776634725258554592e+00,-1.297362363754487102e+00,4.211799374232750443e-02,-1.499627530635384712e-03
1.180000000000000077e-01,5.574325345255469466e-02,1.994949500455138747e+00,-1.522687204602144018e+00,-4.827475838581093415e-01,-1.992970121693027619e-01,1.577048939329922739e+00,8.036579675311530391e-01,-2.002763718732705200e-01,-3.141652333590185364e+00,3.098376427118918919e+00,-2.924275091117847225e+00,-3.379909220758680055e-01,4.336345385988440437e-01,-4.663165351681346493e+00,-4.459862636592669460e+00,-1.612690608586438534e+00,4.342167889937440656e-02,-1.223628736520848042e-03
1.199999999999999956e-01,5.733686140720869323e-02,1.994405298528623138e+00,-1.528970862189652724e+00,-4.764822514960219135e-01,-2.050794839477521336e-01,1.576502656188629059e+00,8.068200259551626674e-01,-1.650315155370419284e-01,-3.141592382352083490e+00,3.073681159761430859e+00,-2.939890795504119581e+00,-3.719720987622898156e-01,4.192687451290185718e-01,-5.748728951580490687e+00,-5.175088630016299263e+00,-1.940726543805151305e+00,4.404626062796707098e-02,-9.208084124003243498e-04
1.219999999999999973e-01,5.893786057399286876e-02,1.993934172009212746e+00,-1.535254307948048069e+00,-4.702368331843024829e-01,-2.108968118819586623e-01,1.575894610760212977e+00,8.097195988764348540e-01,-1.304841516747520525e-01,-3.141559291065278536e+00,3.041496973099602652e+00,-2.954605679397427576e+00,-4.075144819721845946e-01,4.072692519189364257e-01,-6.890396910585685930e+00,-5.906058409981044477e+00,-2.273531180960919329e+00,4.386472460303201398e-02,-6.002633233894385687e-04
1.239999999999999991e-01,6.054570635805316819e-02,1.993534953878175919e+00,-1.541537556058039105e+00,-4.640249793837442627e-01,-2.167471697379707019e-01,1.575221742168914973e+00,8.123707627483848226e-01,-9.680576580346376969e-02,-3.141551261883611890e+00,3.001950048395680692e+00,-2.968437328794355068e+00,-4.446479322725827021e-01,3.977404030683051039e-01,-8.082312000985423239e+00,-6.650153147262830799e+00,-2.609972346202952487e+00,4.291994230407520511e-02,-2.630095547978315656e-04
1.260000000000000009e-01,6.215987257765365898e-02,1.993206267405445820e+00,-1.547820673671236102e+00,-4.578621534922354130e-01,-2.226287543863587903e-01,1.574480924283201189e+00,8.147882002719328831e-01,-6.417698170917419953e-02,-3.141559780581447470e+00,2.955409368681696236e+00,-2.981404075010694488e+00,-4.834004526669735680e-01,3.908262982658490259e-01,-9.322251244649113033e+00,-7.408163492815609708e+00,-2.950619875637328526e+00,4.129726430662060410e-02,9.195734164751435697e-05
1.280000000000000027e-01,6.377983305105833223e-02,1.992946735860954277e+00,-1.554103727939248003e+00,-4.517638189076637611e-01,-2.285397626976933549e-01,1.573669030971537097e+00,8.169865941479981242e-01,-3.277842317788039889e-02,-3.141576332933144755e+00,2.902243916989673878e+00,-2.993524249362236045e+00,-5.238000461588464551e-01,3.866710372002924445e-01,-1.060799166344615685e+01,-8.180880097593334455e+00,-3.296043605370123863e+00,3.908204118619217071e-02,4.656418142196181429e-04
1.300000000000000044e-01,6.540506159653124152e-02,1.992754982514633566e+00,-1.560386786013685079e+00,-4.457454390279175227e-01,-2.344783915425447951e-01,1.572782936102388618e+00,8.189806270775004116e-01,-2.790713995579480189e-03,-3.141592404713066777e+00,2.842822676351644429e+00,-3.004816183164772170e+00,-5.658747157516907933e-01,3.854187195603599458e-01,-1.193731027924596688e+01,-8.969093612549960071e+00,-3.646813371507416246e+00,3.635962351831387163e-02,8.590483111914983027e-04
1.320000000000000062e-01,6.703505649875703132e-02,1.992629329655164261e+00,-1.566669900858547182e+00,-4.398218623984333497e-01,-2.404428683377540510e-01,1.571819466881602123e+00,8.207856911989390714e-01,2.562218867809200676e-02,-3.141601280400743601e+00,2.777456313772705521e+00,-3.015299228964148703e+00,-6.096487283867717544e-01,3.867335287676327837e-01,-1.331813046441066106e+01,-9.777951915390204363e+00,-4.005208996884336514e+00,3.296061158965830212e-02,1.275700483658842414e-03
1.340000000000000080e-01,6.866941392718664550e-02,1.992566895411447048e+00,-1.572953068676327781e+00,-4.340054776752535481e-01,-2.464315427090699451e-01,1.570775263828148027e+00,8.224200169544982897e-01,5.236300718901976126e-02,-3.141603440699380911e+00,2.706222186663339802e+00,-3.024996825022987501e+00,-6.551314038423045050e-01,3.883596088372225918e-01,-1.479896890749442306e+01,-1.063003518948784354e+01,-4.380351585053309904e+00,2.769640582456378217e-02,1.729200759003058935e-03
1.360000000000000098e-01,7.030775452723456165e-02,1.992564496813735708e+00,-1.579236271476376352e+00,-4.283080584221506948e-01,-2.524427948404258659e-01,1.569646920780176202e+00,8.239025445006513682e-01,7.735113701012376330e-02,-3.141601165718924449e+00,2.629139313661434052e+00,-3.033933431232287425e+00,-7.023283243770604978e-01,3.875610003299003181e-01,-1.643849260504056176e+01,-1.155228254446609171e+01,-4.783072893261373082e+00,1.912355699536620254e-02,2.235671750021538205e-03
1.380000000000000115e-01,7.194969894431532675e-02,1.992618950892285357e+00,-1.585519491268043479e+00,-4.227413782028979772e-01,-2.584750049157554797e-01,1.568431031575838963e+00,8.252522139938727186e-01,1.005059736143240207e-01,-3.141596735569319065e+00,2.546226713404879938e+00,-3.042133507483048227e+00,-7.512450722498125177e-01,3.816017438064374101e-01,-1.829536855359240732e+01,-1.257163308994817896e+01,-5.224204678755569375e+00,5.798615874401426284e-03,2.811236069511674138e-03
1.400000000000000133e-01,7.359486782384334902e-02,1.992727074677348886e+00,-1.591802710060678638e+00,-4.173172105812679722e-01,-2.645265531189920361e-01,1.567124190053284849e+00,8.264879655906356426e-01,1.217469124745405307e-01,-3.141592430360506949e+00,2.457503404531563351e+00,-3.049621513666266992e+00,-8.018872297193315735e-01,3.677458798276045937e-01,-2.042826374969326508e+01,-1.371502593555731586e+01,-5.714578698782935007e+00,-1.372186676599473909e-02,3.472016330270856314e-03
1.420000000000000151e-01,7.524291337156606418e-02,1.992885550886369872e+00,-1.598085913662982582e+00,-4.120472974300016245e-01,-2.705958603920219363e-01,1.565722980748845305e+00,8.276259794573121997e-01,1.408969733271928926e-01,-3.141590049257375838e+00,2.362991855920157036e+00,-3.056425469131310635e+00,-8.542546030360276266e-01,3.445490116501740419e-01,-2.285130996025948136e+01,-1.498822027613675267e+01,-6.256318240604045400e+00,-4.004229639911068700e-02,4.221974940459340478e-03
1.440000000000000169e-01,7.689361406107354802e-02,1.993090524872725089e+00,-1.604369103084253734e+00,-4.069432538310907010e-01,-2.766815107427794129e-01,1.564223950983756772e+00,8.286713934814390337e-01,1.573935920058199267e-01,-3.141589467240569533e+00,2.262728340310706354e+00,-3.062587634051008312e+00,-9.083238895649365929e-01,3.157340782444777449e-01,-2.540046062352411127e+01,-1.631223785600439058e+01,-6.816705396304906905e+00,-7.041019867300431223e-02,5.016423274957900955e-03
1.459999999999999909e-01,7.854677993954561899e-02,1.993338007620560459e+00,-1.610652283134737184e+00,-4.020166631621829301e-01,-2.827821289542720162e-01,1.562623638773529056e+00,8.296265844011155854e-01,1.705777881247701466e-01,-3.141590078143654541e+00,2.156752582133318441e+00,-3.068153829551707457e+00,-9.640660082365153372e-01,2.863161237985849539e-01,-2.786711524104154236e+01,-1.758691160806141340e+01,-7.354310129986672884e+00,-1.012337030404922150e-01,5.798507396108429530e-03
1.479999999999999927e-01,8.020222105416227598e-02,1.993624010114023681e+00,-1.616935458624677358e+00,-3.972791088009260396e-01,-2.888963398095072410e-01,1.560918582133670851e+00,8.304939289544406300e-01,1.797905812983926765e-01,-3.141591275800195149e+00,2.045104305818094215e+00,-3.073169876759757280e+00,-1.021451877981222500e+00,2.613101925005635873e-01,-3.004267331436623678e+01,-1.871207446520902451e+01,-7.827702405750515346e+00,-1.289209389543919115e-01,6.511373366252854421e-03
1.499999999999999944e-01,8.185974745210339298e-02,1.993944543337263564e+00,-1.623218634364320678e+00,-3.927421741249680354e-01,-2.950227680914926376e-01,1.559105319079693075e+00,8.312758038795138305e-01,1.843729911410360023e-01,-3.141592454043757865e+00,1.927823235795140366e+00,-3.077681596801507879e+00,-1.080452417729515391e+00,2.457313285384834511e-01,-3.171853434505258562e+01,-1.958755936034840772e+01,-8.195452187697583213e+00,-1.498800358675198285e-01,7.098167247733069146e-03
1.519999999999999962e-01,8.351917314088526390e-02,1.994294520219783706e+00,-1.629501814153997419e+00,-3.884173763191227091e-01,-3.011601149347258866e-01,1.557180436084696806e+00,8.319792964816093983e-01,1.840027744765708184e-01,-3.141593132170644953e+00,1.805016209590206699e+00,-3.081731716437635438e+00,-1.141030931134457971e+00,2.430639038460041534e-01,-3.274767565987286133e+01,-2.014275183036673411e+01,-8.428431668019269907e+00,-1.615621934580321328e-01,7.518672059510038072e-03
1.539999999999999980e-01,8.518032797293409453e-02,1.994664460484251167e+00,-1.635784997753477299e+00,-3.843159677372936511e-01,-3.073073869483833875e-01,1.555140713495765992e+00,8.326303405743071817e-01,1.797049400372820738e-01,-3.141593331441026482e+00,1.677058577514778381e+00,-3.085350582181135337e+00,-1.203120253885637814e+00,2.506682237030380955e-01,-3.322944130776392058e+01,-2.042527442603885746e+01,-8.546733023522994799e+00,-1.655918310898256973e-01,7.799233620619747467e-03
1.559999999999999998e-01,8.684304576279498755e-02,1.995043785304499551e+00,-1.642068183912161583e+00,-3.804491345107601230e-01,-3.134636671274950159e-01,1.552982980139388403e+00,8.332595826584054954e-01,1.728413853171873460e-01,-3.141593198634281325e+00,1.544392833180957769e+00,-3.088565444786681269e+00,-1.266645602967913398e+00,2.643732322395436762e-01,-3.332478087664443933e+01,-2.051231560259356712e+01,-8.582756195856763526e+00,-1.646369077971337191e-01,7.982842194358895707e-03
1.580000000000000016e-01,8.850716032501294850e-02,1.995421915854363348e+00,-1.648351371379451091e+00,-3.768280627708012198e-01,-3.196280384670902031e-01,1.550704064842049368e+00,8.338976692347014330e-01,1.647740078103041295e-01,-3.141592880529783471e+00,1.407461470200848330e+00,-3.091403555008945148e+00,-1.331532195366141424e+00,2.800078735854781842e-01,-3.319464395443309712e+01,-2.048106381525966668e+01,-8.568901126668585277e+00,-1.613653826141898950e-01,8.112488044024170758e-03
1.600000000000000033e-01,9.017250547413301065e-02,1.995788273307674832e+00,-1.654634558904747088e+00,-3.734639386486958701e-01,-3.257995839621986023e-01,1.548300796430235771e+00,8.345752468039919769e-01,1.568647050106499741e-01,-3.141592523906909129e+00,1.266706982186552644e+00,-3.093892163602599332e+00,-1.397705248065179706e+00,2.934010918707992688e-01,-3.299998012904857347e+01,-2.040870751926594551e+01,-8.537567757606463914e+00,-1.584452145752277274e-01,8.231161432912272730e-03
1.620000000000000051e-01,9.183896609002063782e-02,1.996134548124945507e+00,-1.660917745481511609e+00,-3.703672109636391707e-01,-3.319774320147344526e-01,1.545770128339014393e+00,8.353171949485445058e-01,1.502096303535705724e-01,-3.141592253488589837e+00,1.122528560772800610e+00,-3.096062476950077968e+00,-1.465081378032412118e+00,3.008586572350966937e-01,-3.287220851255393939e+01,-2.035818373056697439e+01,-8.515135423800236580e+00,-1.581217441122295120e-01,8.373991863165636956e-03
1.640000000000000069e-01,9.350663136284702304e-02,1.996461510091971370e+00,-1.667200931079684256e+00,-3.675453785786493288e-01,-3.381608926977420770e-01,1.543109512557403917e+00,8.361253200401000951e-01,1.448417059178895849e-01,-3.141592105750797614e+00,9.751521481137024328e-01,-3.097961527742375321e+00,-1.533542793909071333e+00,3.005941016229843332e-01,-3.282459796349542103e+01,-2.033541002623444527e+01,-8.503895254354024047e+00,-1.609494315223265193e-01,8.544658245756000733e-03
1.660000000000000087e-01,9.517564157261879099e-02,1.996772199370643985e+00,-1.673484115913381975e+00,-3.650052026906976943e-01,-3.443493215129488361e-01,1.540316525742824627e+00,8.369956587633348155e-01,1.405279821475347579e-01,-3.141592095102470505e+00,8.247603635979380288e-01,-3.099640306197231077e+00,-1.602963100190289758e+00,2.912980118994207279e-01,-3.284087268781541269e+01,-2.033204570235196584e+01,-8.500114881530466349e+00,-1.670599156131327423e-01,8.738974956771233468e-03
1.680000000000000104e-01,9.684613699934256636e-02,1.997069656122857584e+00,-1.679767300196722157e+00,-3.627534444967558946e-01,-3.505420739620824233e-01,1.537388744552697029e+00,8.379242478029246266e-01,1.370355094864337542e-01,-3.141592235952546996e+00,6.715358266141869814e-01,-3.101149802532386257e+00,-1.673215901371201131e+00,2.716609749293648068e-01,-3.290475689145632998e+01,-2.033975005500312605e+01,-8.500061937592207073e+00,-1.765848351922620629e-01,8.952756372299187221e-03
1.700000000000000122e-01,9.851825792302504325e-02,1.997356920510505729e+00,-1.686050484143823081e+00,-3.607968651937953353e-01,-3.567385055468701438e-01,1.534323745644442072e+00,8.389071238435459321e-01,1.341313383785141811e-01,-3.141592542709967351e+00,5.156611565511292072e-01,-3.102541006965584103e+00,-1.744174801946939191e+00,2.403735775777755268e-01,-3.299997478036058851e+01,-2.035018238027153359e+01,-8.500004054801888032e+00,-1.896558290673284186e-01,9.181816868427726194e-03
1.720000000000000140e-01,1.001921380197332567e-01,1.997636644545128570e+00,-1.692333667994724289e+00,-3.591419216865556763e-01,-3.629380567318510331e-01,1.531119316281134957e+00,8.399374578883272990e-01,1.316098795323670800e-01,-3.141592993656548760e+00,3.573371851513331143e-01,-3.103862273833640550e+00,-1.815703691733950631e+00,1.964150819547315352e-01,-3.310723991932736254e+01,-2.035368199780013043e+01,-8.495774701248057781e+00,-2.062885590232306776e-01,9.420872202534022813e-03
1.740000000000000158e-01,1.018678845430399243e-01,1.997909927240931749e+00,-1.698616852093185914e+00,-3.577938534004604376e-01,-3.691405079194748362e-01,1.527774086363295813e+00,8.409969552911049639e-01,1.293750126237260267e-01,-3.141593422528774937e+00,1.968376121502015685e-01,-3.105151411260989480e+00,-1.887627591924602166e+00,1.399197456102958814e-01,-3.319522023761692964e+01,-2.033530697504406604e+01,-8.481470245459272306e+00,-2.260346604531241199e-01,9.660242536520501078e-03
1.759999999999999898e-01,1.035455981392098129e-01,1.998177479263780976e+00,-1.704900036808905561e+00,-3.567575953134875522e-01,-3.753457245183417501e-01,1.524286896504528421e+00,8.420644542624319273e-01,1.273579915490122005e-01,-3.141593626917585258e+00,3.445435892685267537e-02,-3.106443590146627187e+00,-1.959761804077279068e+00,7.131064858817638685e-02,-3.322957148766753477e+01,-2.027879472971948616e+01,-8.450752670329967131e+00,-2.483297325694655278e-01,9.889148853191470981e-03
1.779999999999999916e-01,1.052253794545074672e-01,1.998440011279539741e+00,-1.711183222511579061e+00,-3.560380824036142311e-01,-3.815535719370510837e-01,1.520656587318434116e+00,8.431187930128596353e-01,1.254900702046462257e-01,-3.141593404413914215e+00,-1.295206531396025929e-01,-3.107773981389541973e+00,-2.031921629750364833e+00,-8.989129067922145555e-03,-3.317594942191739449e+01,-2.016788267954247971e+01,-8.397283958754558242e+00,-2.726093745847124050e-01,1.009681213535122690e-02
1.799999999999999933e-01,1.069073291351975985e-01,1.998698233954073533e+00,-1.717466409570903574e+00,-3.556402496488181852e-01,-3.877639155842028673e-01,1.516881999418615568e+00,8.441388097529405332e-01,1.237025024870491291e-01,-3.141592552608699851e+00,-2.947955026700461723e-01,-3.109177755888729244e+00,-2.103922370502242067e+00,-1.005565073142919430e-01,-3.300000979280473956e+01,-1.998630824222916758e+01,-8.314726093627472281e+00,-2.983091857113212564e-01,1.027245336580407363e-02
1.819999999999999951e-01,1.085915125677230225e-01,1.998952743406064991e+00,-1.723749598012173090e+00,-3.555685456367764785e-01,-3.939766794681938689e-01,1.512962281166700285e+00,8.451011505490853004e-01,1.219732615456794733e-01,-3.141591035351857464e+00,-4.610579533883347181e-01,-3.110687093711903106e+00,-2.175573137493298059e+00,-2.046087019147796449e-01,-3.269873278652877957e+01,-1.973246370475195377e+01,-8.202470322910031086e+00,-3.256015087822352605e-01,1.041431189216795831e-02
1.839999999999999969e-01,1.102778540611570879e-01,1.999203677441755644e+00,-1.730032786482699869e+00,-3.558254728686410240e-01,-4.001920220598998434e-01,1.508897812248802373e+00,8.459736905235218929e-01,1.204672480011343833e-01,-3.141589481708792153e+00,-6.279144874891696704e-01,-3.112322208371432808e+00,-2.246658273606014333e+00,-3.289258834599700365e-01,-3.239443015619256983e+01,-1.946337665905564762e+01,-8.082831142706565331e+00,-3.576064568300610924e-01,1.055671026157308651e-02
1.859999999999999987e-01,1.119662426457076060e-01,1.999451059258339436e+00,-1.736315973285207592e+00,-3.564130471925658350e-01,-4.064101604616437990e-01,1.504689280265274265e+00,8.467221114703687990e-01,1.193961069599486224e-01,-3.141588687093682886e+00,-7.949512612982232440e-01,-3.114100320933073984e+00,-2.316955927981464214e+00,-4.829294042658450747e-01,-3.224075500687368390e+01,-1.925073748138332519e+01,-7.983855408543678145e+00,-3.981812844204612456e-01,1.074299425674959257e-02
1.880000000000000004e-01,1.136565673515823743e-01,1.999694912053009421e+00,-1.742599156722420384e+00,-3.573332844567047584e-01,-4.126313117757482996e-01,1.500337372816468839e+00,8.473120951837438408e-01,1.189714835286568989e-01,-3.141589446920709072e+00,-9.617544311411665436e-01,-3.116038652462581826e+00,-2.386244249760723246e+00,-6.760406166483877710e-01,-3.239136044364975930e+01,-1.916623654797807674e+01,-7.933589975947979767e+00,-4.511832461190987686e-01,1.101650966042761609e-02
1.900000000000000022e-01,1.153487172089892043e-01,1.999935259022958878e+00,-1.748882335097061258e+00,-3.585882005092115299e-01,-4.188556931045361309e-01,1.495842777502738974e+00,8.477093234577642855e-01,1.194050228137939484e-01,-3.141592556604050124e+00,-1.127910153343671285e+00,-3.118154424025711080e+00,-2.454301388084862534e+00,-9.176808729235810258e-01,-3.299989957159841225e+01,-1.928156423508299255e+01,-7.960081700446075104e+00,-5.204695964916364881e-01,1.142060225533729143e-02
1.920000000000000040e-01,1.170425240660927513e-01,2.000172476011385925e+00,-1.755165508063832647e+00,-3.601791216006037799e-01,-4.250835502536684518e-01,1.491206551570575467e+00,8.478671832749627990e-01,1.206758802958666776e-01,-3.141598182727177946e+00,-1.293001609113075601e+00,-3.120455683207438380e+00,-2.520890567595477805e+00,-1.206690593971210035e+00,-3.403025727073923434e+01,-1.957947929759324524e+01,-8.056323092590126578e+00,-6.051940124957043698e-01,1.194358343287135055e-02
1.940000000000000058e-01,1.187375909776942351e-01,2.000408349847544898e+00,-1.761448680686890089e+00,-3.621046148046722646e-01,-4.313152438748846795e-01,1.486431231272442588e+00,8.476898683547365865e-01,1.218329878997234800e-01,-3.141603975833835882e+00,-1.456600075791580018e+00,-3.122913773211339894e+00,-2.585715297921463485e+00,-1.499574412055777906e+00,-3.468702917416706555e+01,-1.968691261784839597e+01,-8.075049319064788733e+00,-6.856904983077624083e-01,1.235356427670099635e-02
1.960000000000000075e-01,1.204334637839517830e-01,2.000645020207741709e+00,-1.767731859383139703e+00,-3.643625572044250638e-01,-4.375511633396267364e-01,1.481519722717681731e+00,8.470692705955020774e-01,1.216926553795265320e-01,-3.141606957278558099e+00,-1.618273853906907034e+00,-3.125490858530319382e+00,-2.648464155683626142e+00,-1.742249995710873245e+00,-3.398493450115775971e+01,-1.914181275603431942e+01,-7.833921216748001903e+00,-7.375867989396527324e-01,1.236359010350372191e-02
1.980000000000000093e-01,1.221296883250232862e-01,2.000884626768280938e+00,-1.774015050569484941e+00,-3.669508258828697578e-01,-4.437916980193362115e-01,1.476474932015633179e+00,8.458972818956751460e-01,1.190711924894376494e-01,-3.141604148415875652e+00,-1.777591243986778924e+00,-3.128149103657278829e+00,-2.708825717502773678e+00,-1.880635013470073336e+00,-3.093869247098702147e+01,-1.748212827233679434e+01,-7.150599622517660237e+00,-7.365106594032134746e-01,1.168670622995695088e-02
2.000000000000000111e-01,1.238258104410668858e-01,2.001129309205469387e+00,-1.780298260662832366e+00,-3.698672979230144264e-01,-4.500372372854553049e-01,1.471299765275638771e+00,8.440657941536726661e-01,1.127849089836188562e-01,-3.141592570600323153e+00,-1.934120546558918408e+00,-3.130850673085123770e+00,-2.766488559999713992e+00,-1.860647133866957459e+00,-2.456302230293056255e+01,-1.424580772694162611e+01,-5.842745373251673868e+00,-6.580898247102833221e-01,1.003595797273812949e-02
2.020000000000000129e-01,1.255211958506904091e-01,2.001379234952170183e+00,-1.786581491017649848e+00,-3.731091313254703001e-01,-4.562881074328526410e-01,1.465997647491973366e+00,8.415215343222309796e-01,1.031102789443126277e-01,-3.141571594278374846e+00,-2.087201287659933069e+00,-3.133540981290167338e+00,-2.821171028547082571e+00,-1.650523093864718183e+00,-1.434246907950314665e+01,-9.191948454392054657e+00,-3.815173350946633679e+00,-4.889892083524475797e-01,7.259478022925100818e-03
2.040000000000000147e-01,1.272144895701425860e-01,2.001626680100654365e+00,-1.792864722732586458e+00,-3.766706068983138311e-01,-4.625443823744085914e-01,1.460574079821343352e+00,8.384306353772090770e-01,9.616618606388541157e-02,-3.141549989083344041e+00,-2.235257620816819113e+00,-3.136098422581180767e+00,-2.872710579249375673e+00,-1.307802688564942306e+00,-1.641445159583418967e+00,-2.964508280427899045e+00,-1.321419208933082512e+00,-2.600356431029351434e-01,3.745910683354351269e-03
2.060000000000000164e-01,1.289041563860266471e-01,2.001861947316158297e+00,-1.799147931840817005e+00,-3.805452859356859285e-01,-4.688060729085766210e-01,1.455035082616785269e+00,8.350140982566433001e-01,9.953255464310695189e-02,-3.141538875150233778e+00,-2.376484787772290552e+00,-3.138384631198254393e+00,-2.920974454827872435e+00,-9.123581757176243423e-01,1.170552928072044274e+01,3.571273478065711604e+00,1.297775051065856999e+00,-1.309975388944850834e-02,1.906870049981062437e-05
2.080000000000000182e-01,1.305886610849457952e-01,2.002075339263918785e+00,-1.805431094375515855e+00,-3.847267297317276125e-01,-4.750731898338101389e-01,1.449386676231334770e+00,8.314929238985702131e-01,1.207893089827484084e-01,-3.141549372614046209e+00,-2.509078030269062509e+00,-3.140261241381476331e+00,-2.965829898003853771e+00,-5.440618130727805646e-01,2.386393406529981576e+01,9.550157504203445669e+00,3.701667427326978732e+00,2.099478343602990682e-01,-3.397235179164458194e-03
2.099999999999999922e-01,1.322664684535032331e-01,2.002257158609173970e+00,-1.811714186369857593e+00,-3.892084995805795145e-01,-4.813457439485623879e-01,1.443634881018027949e+00,8.280881132410258250e-01,1.675163733835800528e-01,-3.141592601609784818e+00,-2.631232590049846554e+00,-3.141589887370932033e+00,-3.007144151498597928e+00,-2.827858583804303549e-01,3.299924901804592992e+01,1.410690448109990314e+01,5.549515918127053027e+00,3.672364967185923756e-01,-5.979188209164361910e-03
2.119999999999999940e-01,1.339364114798168304e-01,2.002410337318459632e+00,-1.817997202756131969e+00,-3.939811490377573833e-01,-4.876235156493528566e-01,1.437785938518347573e+00,8.249483608578606075e-01,2.444871826420199346e-01,-3.141670913501095619e+00,-2.741333049507411967e+00,-3.142283557138284777e+00,-3.044669526790189540e+00,-1.852695915120534664e-01,3.778785667836466899e+01,1.661500546616538188e+01,6.594075085685802584e+00,4.289645090919537718e-01,-7.349690879608926364e-03
2.139999999999999958e-01,1.355987964220267961e-01,2.002588340477455375e+00,-1.824280214086903218e+00,-3.990231969142798985e-01,-4.939053634346392552e-01,1.431846975306281466e+00,8.219330447542970708e-01,3.452456771326527507e-01,-3.141751573516836871e+00,-2.838521592219296785e+00,-3.142460718291353761e+00,-3.077698465561234276e+00,-2.156912313965479167e-01,3.895039422657995942e+01,1.740317383362731363e+01,6.962203561248593076e+00,4.136209585178011183e-01,-7.718681497517351775e-03
2.159999999999999976e-01,1.372542979718062994e-01,2.002857270431364523e+00,-1.830563309825759433e+00,-4.043101523872447145e-01,-5.001899152557597317e-01,1.425825339283643522e+00,8.188291910082547975e-01,4.605275392450100536e-01,-3.141793072588960456e+00,-2.922129861724170663e+00,-3.142291224529561777e+00,-3.105408405828392837e+00,-3.150814420745196021e-01,3.771872349865855512e+01,1.703900376551598228e+01,6.874315455908605266e+00,3.517714379623896326e-01,-7.442904056339573818e-03
2.179999999999999993e-01,1.389035908208285652e-01,2.003283229525390841e+00,-1.836846579436288041e+00,-4.098175246337493194e-01,-5.064757990640521568e-01,1.419728378352246967e+00,8.154238256976529264e-01,5.810684513686199537e-01,-3.141753901649415592e+00,-2.991489501560701036e+00,-3.141944929552329846e+00,-3.126976785608323262e+00,-4.244708875865478293e-01,3.532470633056779974e+01,1.609008944386193107e+01,6.550824880759126501e+00,2.739815403919883541e-01,-6.879102549525699037e-03
2.200000000000000011e-01,1.405473496607668460e-01,2.003932320104738096e+00,-1.843130112382078245e+00,-4.155208228308913121e-01,-5.127616428108547897e-01,1.413563440413907024e+00,8.115039749004111513e-01,6.976040958930112001e-01,-3.141592551630155050e+00,-3.045932155267558450e+00,-3.141591687059081650e+00,-3.141581042917688471e+00,-4.848902319732120714e-01,3.300020455827504406e+01,1.512402505069571035e+01,6.212145946893446791e+00,2.108168587728667664e-01,-6.384020970525835711e-03
2.220000000000000029e-01,1.421858944097491029e-01,2.004855208839587899e+00,-1.849413927581723627e+00,-4.213944454030679743e-01,-5.190463569390654230e-01,1.407339243871883250e+00,8.069284330244673731e-01,8.029166498408659702e-01,-3.141300241843024921e+00,-3.085354070145228444e+00,-3.141368767000651374e+00,-3.148880423530282968e+00,-4.494270297196827357e-01,3.171686352518246821e+01,1.459075235148951855e+01,6.033186872011607527e+00,1.861718979125178974e-01,-6.234283500420512505e-03
2.240000000000000047e-01,1.438181254233879269e-01,2.006040799323484780e+00,-1.855697761680718427e+00,-4.274083462975777903e-01,-5.253299822307364586e-01,1.401069990944414645e+00,8.018431625387881789e-01,8.979769703331099695e-01,-3.140999148324008061e+00,-3.111910653871611032e+00,-3.141283061319914083e+00,-3.150462040280065157e+00,-3.194123133202254050e-01,3.140511909415802805e+01,1.446944813321348455e+01,6.006772228176306960e+00,1.972480035187751668e-01,-6.385929305115106182e-03
2.260000000000000064e-01,1.454425880495447965e-01,2.007462549284999564e+00,-1.861981280732992072e+00,-4.335313679757490379e-01,-5.316128421459686004e-01,1.394771255255930376e+00,7.964659416206515408e-01,9.858037601295158714e-01,-3.140844197094819990e+00,-3.128322290612978396e+00,-3.141308856700796959e+00,-3.148395131826404292e+00,-1.082419651421561851e-01,3.173501885202800210e+01,1.462155909733174397e+01,6.080190653068845208e+00,2.345710291818815241e-01,-6.714824846571280405e-03
2.280000000000000082e-01,1.470578276360811343e-01,2.009093916452699524e+00,-1.868264150792472655e+00,-4.397323528989095509e-01,-5.378952601448623305e-01,1.388458610430859608e+00,7.910145484473348754e-01,1.069415721989858348e+00,-3.140990314177173559e+00,-3.137309364535604050e+00,-3.141420439827227629e+00,-3.144748936828670516e+00,1.706881324471926920e-01,3.237661038561829230e+01,1.490853194530827253e+01,6.200730784370462878e+00,2.886668284920709815e-01,-7.096836586750591286e-03
2.300000000000000100e-01,1.486623895308583077e-01,2.010908358555155484e+00,-1.874546037913089824e+00,-4.459801435283877180e-01,-5.441775596875181309e-01,1.382147630093632618e+00,7.857067611961167097e-01,1.151831558673912737e+00,-3.141592425592785176e+00,-3.141592259805761067e+00,-3.141592097383135496e+00,-3.141592693946235304e+00,5.039820970804891331e-01,3.299994128175484320e+01,1.519181337860704595e+01,6.315681259762400579e+00,3.500612550395776346e-01,-7.407830987614598406e-03
2.320000000000000118e-01,1.502551816733461720e-01,2.012884363599954263e+00,-1.880826871442435655e+00,-4.522481042590963396e-01,-5.504600232772413060e-01,1.375850440264900554e+00,7.807489942868128807e-01,1.235430882910067751e+00,-3.142683311262643553e+00,-3.143522943987254070e+00,-3.141791244388324245e+00,-3.140483850749098416e+00,8.799056377782988880e-01,3.334468522448031536e+01,1.536450502477532609e+01,6.384435576141658686e+00,4.105600517117988790e-01,-7.550111467127473830e-03
2.340000000000000135e-01,1.518365628698631897e-01,2.015020547653082694e+00,-1.887107634266126599e+00,-4.585276934610433286e-01,-5.567427695336306659e-01,1.369565371792137887e+00,7.763021914261769574e-01,1.320036065287858440e+00,-3.143806998130014740e+00,-3.143979209779272477e+00,-3.141957799722459033e+00,-3.140931984122756759e+00,1.293373122288458577e+00,3.342911637824284554e+01,1.544637190291234319e+01,6.414823373282136920e+00,4.670902849703286175e-01,-7.531765753120084686e-03
2.360000000000000153e-01,1.534072547685869925e-01,2.017320560531310036e+00,-1.893389572745158178e+00,-4.648148945587385894e-01,-5.630258760912214555e-01,1.363287305539596872e+00,7.725159247205408697e-01,1.404829945282703996e+00,-3.144385282735489451e+00,-3.143470179007318954e+00,-3.142024805858437908e+00,-3.141934526638907155e+00,1.740961656532329593e+00,3.334118305876445731e+01,1.548885580557808339e+01,6.426787504621318980e+00,5.178597939190479060e-01,-7.387336775500970287e-03
2.380000000000000171e-01,1.549679790176954342e-01,2.019788052051404215e+00,-1.899673933240528356e+00,-4.711056909766916379e-01,-5.693094205845498079e-01,1.357011122371530654e+00,7.695397662762367696e-01,1.488995362370024500e+00,-3.143839961619658396e+00,-3.142504973496896170e+00,-3.141925305269164248e+00,-3.142488910869249086e+00,2.219248346431276886e+00,3.316883358176734475e+01,1.554339852533259503e+01,6.440270823596714322e+00,5.610764176618401322e-01,-7.151367464178706376e-03
2.399999999999999911e-01,1.565194572653661742e-01,2.022426672030135819e+00,-1.905961962113234431e+00,-4.773960661394120453e-01,-5.755934806481516341e-01,1.350731703152192820e+00,7.675232881995969203e-01,1.571715156025237370e+00,-3.141592831323112733e+00,-3.141592715073506348e+00,-3.141592340427539209e+00,-3.141592569385481148e+00,2.724810297906657297e+00,3.300001626297366641e+01,1.566144185473591754e+01,6.475216183645835066e+00,5.949479953025881285e-01,-6.858400749061880838e-03
2.419999999999999929e-01,1.580626612796468822e-01,2.025238705711057907e+00,-1.912253923094234809e+00,-4.836828908170101582e-01,-5.818780153296898572e-01,1.344445599311231643e+00,7.666131351602604171e-01,1.652205252339982389e+00,-3.136878488909315976e+00,-3.141130139910712771e+00,-3.141019017226066801e+00,-3.138182559800292815e+00,3.255584210495335196e+00,3.290438781494201237e+01,1.588048076270257170e+01,6.546318086145632265e+00,6.189476637321704722e-01,-6.537957725881385872e-03
2.439999999999999947e-01,1.595995636682678298e-01,2.028220978079715131e+00,-1.918546147979227179e+00,-4.899665864398845549e-01,-5.881625091585557241e-01,1.338156046945698785e+00,7.669442378652274739e-01,1.729813971519555293e+00,-3.128182463942982494e+00,-3.141064279725177322e+00,-3.140438781734363083e+00,-3.130954352942989072e+00,3.814947116177881625e+00,3.287841219542160331e+01,1.618220283842594753e+01,6.647270065959270724e+00,6.376115731736596848e-01,-6.199464921599430467e-03
2.459999999999999964e-01,1.611323873389632622e-01,2.031368948565685617e+00,-1.924833985226190869e+00,-4.962484624230927843e-01,-5.944463279918625886e-01,1.331867953921168191e+00,7.686485974764917239e-01,1.803922744214155438e+00,-3.113802951692318466e+00,-3.141229699642487105e+00,-3.140145186698783952e+00,-3.118543001202366938e+00,4.407636619717478332e+00,3.290024858554969001e+01,1.653433880307674286e+01,6.766513526073326013e+00,6.567420828932325483e-01,-5.847323412320654806e-03
2.479999999999999982e-01,1.626633551994675075e-01,2.034678076598546159e+00,-1.931112783293105206e+00,-5.025298281816926727e-01,-6.007288376867235824e-01,1.325586228103214026e+00,7.718582151560469118e-01,1.873913001073982398e+00,-3.092038147425527406e+00,-3.141460964788228338e+00,-3.140431784865684417e+00,-3.099583556967220765e+00,5.038390325877311504e+00,3.294805616646350188e+01,1.690461937782560398e+01,6.892489869474359487e+00,6.821415521570669549e-01,-5.485934274149688664e-03
2.500000000000000000e-01,1.641946901575148388e-01,2.038143821607873551e+00,-1.937377890637947964e+00,-5.088119931307417687e-01,-6.070094041002519480e-01,1.319315777357409791e+00,7.767050920658868929e-01,1.939166172749235528e+00,-3.061186246410812828e+00,-3.141592640287987237e+00,-3.141592128981420373e+00,-3.072711072626346240e+00,5.711945839420563331e+00,3.299999411930026127e+01,1.726077528384319848e+01,7.013640499148936058e+00,7.196123402313411299e-01,-5.119698583191158343e-03
2.520000000000000018e-01,1.657288315977453186e-01,2.041760624132888946e+00,-1.943621892478563540e+00,-5.150958450911656827e-01,-6.132879084010350867e-01,1.313063782792498024e+00,7.832933048338581727e-01,1.999194148589108710e+00,-3.019887328617507194e+00,-3.141512280341585139e+00,-3.143686383857835498e+00,-3.036841798104950918e+00,6.424855016721840784e+00,3.303776292798524850e+01,1.757850014575751629e+01,7.121072408340543447e+00,7.721550609085712225e-01,-4.755093254693330829e-03
2.540000000000000036e-01,1.672690851371674836e-01,2.045518847622905589e+00,-1.949826316927009584e+00,-5.213805848749127891e-01,-6.195662937765943346e-01,1.306846521900073999e+00,7.916151900605518099e-01,2.054030848444880153e+00,-2.968149525693821289e+00,-3.141319474936730138e+00,-3.145840812454520297e+00,-2.992017195309116584e+00,7.140914440845721245e+00,3.305723360004041922e+01,1.786535114748329889e+01,7.216558950074754009e+00,8.315591430805778783e-01,-4.406901674525082885e-03
2.560000000000000053e-01,1.688189730320989179e-01,2.049407835872500971e+00,-1.955969926782201052e+00,-5.276649913835154138e-01,-6.258470191125173887e-01,1.300682547120311838e+00,8.016351388631511865e-01,2.103840748738225130e+00,-2.906323110474369642e+00,-3.141166842888297062e+00,-3.146948114706626942e+00,-2.938560134638504628e+00,7.815728805439115412e+00,3.305782110249603534e+01,1.813685435024129333e+01,7.304541067386144171e+00,8.868101682684593756e-01,-4.091984625013913787e-03
2.580000000000000071e-01,1.703820175388570113e-01,2.053416932676249029e+00,-1.962031484843049789e+00,-5.339478435185057714e-01,-6.321325432943909473e-01,1.294590410893383892e+00,8.133175423588392405e-01,2.148788325890817585e+00,-2.834758355793761453e+00,-3.141207003011152743e+00,-3.145900990549304943e+00,-2.876793486492769780e+00,8.404902804148909112e+00,3.303894040238234453e+01,1.840853581525221472e+01,7.389459703309287697e+00,9.268937179933081083e-01,-3.827202888487318908e-03
2.600000000000000089e-01,1.719617409137594310e-01,2.057535481828726365e+00,-1.967989753908470307e+00,-5.402279201814161880e-01,-6.384253252078028185e-01,1.288588665659464727e+00,8.266267916647995762e-01,2.189038056324333681e+00,-2.753805534486607698e+00,-3.141592574120171566e+00,-3.141592139917706916e+00,-2.807040121271573874e+00,8.864041130621993503e+00,3.300000646672963001e+01,1.869592160373680656e+01,7.475755800878768120e+00,9.407953737762165813e-01,-3.629417247272800125e-03
2.620000000000000107e-01,1.735616189364597717e-01,2.061753057581433790e+00,-1.973823811483522039e+00,-5.465047993079342747e-01,-6.447258810290312780e-01,1.282695329006753759e+00,8.414462751784186345e-01,2.224644737250431437e+00,-2.663581646950899717e+00,-3.142376604015386210e+00,-3.133109126110467990e+00,-2.729564241878509545e+00,9.141018177619654850e+00,3.294456031753876601e+01,1.900965712859306933e+01,7.566592433827143971e+00,9.180073758934317318e-01,-3.514434043364011474e-03
2.640000000000000124e-01,1.751849414074463651e-01,2.066060156373123569e+00,-1.979513994388845788e+00,-5.527812562169875932e-01,-6.510269530661925153e-01,1.276926278281109717e+00,8.573352440411095010e-01,2.255224277924158027e+00,-2.563270239897009972e+00,-3.143213701091288836e+00,-3.120319269897198655e+00,-2.644395289702538232e+00,9.152775073894154900e+00,3.289265363397792896e+01,1.934085759486078970e+01,7.660019205004883425e+00,8.500493901079503312e-01,-3.493840212329015708e-03
2.660000000000000142e-01,1.768349516142810052e-01,2.070447505279279898e+00,-1.985040954396769530e+00,-5.590608658850889645e-01,-6.573193394023341130e-01,1.271296855559107986e+00,8.737718834737722151e-01,2.280282822815582477e+00,-2.451821405592638392e+00,-3.143658825039284732e+00,-3.103284907449148644e+00,-2.551503992862437897e+00,8.808516615902908242e+00,3.286846736945591374e+01,1.967575375123092130e+01,7.752806850929028215e+00,7.289481362480578763e-01,-3.578167426696512044e-03
2.680000000000000160e-01,1.785148928445257355e-01,2.074905831375390086e+00,-1.990385343279623687e+00,-5.653472032887509879e-01,-6.635938381205046532e-01,1.265822402917327505e+00,8.902343786973069273e-01,2.299326516394773812e+00,-2.328185236305485351e+00,-3.143266935550780961e+00,-3.082068374937570354e+00,-2.450861079476990945e+00,8.017447600103317029e+00,3.289618247738157919e+01,2.000057634639443194e+01,7.841726108116625404e+00,5.467303341420431950e-01,-3.777947358995201437e-03
2.700000000000000178e-01,1.802280083857424331e-01,2.079425861736937886e+00,-1.995527812809736901e+00,-5.716438434044865957e-01,-6.698412473037514969e-01,1.260518262432343883e+00,9.062009149326135660e-01,2.311861503131801054e+00,-2.191311824303250777e+00,-3.141592992317181476e+00,-3.056732008533713518e+00,-2.342437277664976225e+00,6.688772822952780750e+00,3.299997991116372731e+01,2.030155612904225038e+01,7.923547713084717614e+00,2.954227036181935606e-01,-4.103711681753782238e-03
2.720000000000000195e-01,1.819766242353323404e-01,2.083997663259311128e+00,-2.000448268984970301e+00,-5.779515867017406272e-01,-6.760528343496069459e-01,1.255399813542225962e+00,9.209816660367399210e-01,2.317681020537607495e+00,-2.040576763229843049e+00,-3.138537245627492922e+00,-3.027550371255296024e+00,-2.226248263171793695e+00,4.751988582681835105e+00,3.318399545508641779e+01,2.057682329013366029e+01,7.997188562745249030e+00,-3.413889840708683038e-02,-4.572655746788540851e-03
2.740000000000000213e-01,1.837593957438859726e-01,2.088608661047892223e+00,-2.005123633497025715e+00,-5.842601311265063213e-01,-6.822217446739095026e-01,1.250482585191538654e+00,9.332144882039880018e-01,2.317727143426795866e+00,-1.877058341619489923e+00,-3.135381667591337518e+00,-2.995647277349931858e+00,-2.102489575072215455e+00,2.217790060340110170e+00,3.337215174030929177e+01,2.087212506884642593e+01,8.070153672739127870e+00,-4.558839960678833236e-01,-5.228640419373871244e-03
2.760000000000000231e-01,1.855740602285985974e-01,2.093245619493053766e+00,-2.009530081658872813e+00,-5.905563978696648508e-01,-6.883415933872434334e-01,1.245782143716610335e+00,9.413690901335772798e-01,2.313229272272018910e+00,-1.702260694145175890e+00,-3.133753800687690827e+00,-2.962358939868530605e+00,-1.971401736486450673e+00,-8.828196200576103880e-01,3.346830998726627371e+01,2.124511778815132601e+01,8.152095958028908740e+00,-9.849339413069985172e-01,-6.122195643318784943e-03
2.780000000000000249e-01,1.874183550066655102e-01,2.097895302985167465e+00,-2.013643788783481714e+00,-5.968273081220966114e-01,-6.944059956001936706e-01,1.241314055453768717e+00,9.439151805247266713e-01,2.305416807545928926e+00,-1.517687955479884998e+00,-3.135281187395529745e+00,-2.929021571862004070e+00,-1.833225270534711626e+00,-4.518837334496492275e+00,3.337633141639119572e+01,2.175345777101915345e+01,8.252668333577155124e+00,-1.636410086067237923e+00,-7.303851362432314288e-03
2.800000000000000266e-01,1.892900173952820064e-01,2.102544475914607691e+00,-2.017440930183821646e+00,-6.030597830746825538e-01,-7.004085664233448139e-01,1.237093886739342841e+00,9.393224680766562029e-01,2.295519149721179097e+00,-1.324844260296602183e+00,-3.141591370193830723e+00,-2.896971386381263169e+00,-1.688200700337209037e+00,-8.659259958961696313e+00,3.300007724811793963e+01,2.245480134042071541e+01,8.381523714346428733e+00,-2.425433782291406715e+00,-8.824137520523484685e-03
2.820000000000000284e-01,1.911844142442045980e-01,2.107181344066494599e+00,-2.020896442460943021e+00,-6.092510427700167375e-01,-7.063437831507456410e-01,1.233136845770136381e+00,9.260571337688263682e-01,2.283703880705436173e+00,-1.123594019778197950e+00,-3.153030317323573417e+00,-2.867150462569961089e+00,-1.536555536980090064e+00,-1.325034774344667454e+01,3.231946224536707746e+01,2.338467514054995178e+01,8.560675043361268166e+00,-3.350891239279868206e+00,-1.083788348831983377e-02
2.840000000000000302e-01,1.930874265505983511e-01,2.111799881226763098e+00,-2.023980305286946280e+00,-6.154395199615764200e-01,-7.122095732589337480e-01,1.229456707583115316e+00,9.025712417744258254e-01,2.265889524089162776e+00,-9.072399960995704005e-01,-3.164815546785136657e+00,-2.838923681722751002e+00,-1.378465221550554398e+00,-1.814737623211935613e+01,3.161874312543123722e+01,2.449004991842154411e+01,8.861596143093498412e+00,-4.346700817633881719e+00,-1.391729158710922759e-02
2.860000000000000320e-01,1.949825628523531029e-01,2.116395503787259269e+00,-2.026661258581158975e+00,-6.216739549083853955e-01,-7.180047271323791724e-01,1.226066888774786756e+00,8.673133255826426247e-01,2.236931892681876199e+00,-6.674438501324572171e-01,-3.170881925470494522e+00,-2.811261460047507210e+00,-1.214092172168094397e+00,-2.318286523821533507e+01,3.125829405372000380e+01,2.569574814733317325e+01,9.368131249857230003e+00,-5.330532093383318681e+00,-1.873895120494221966e-02
2.880000000000000338e-01,1.968533316873586625e-01,2.120963628139829638e+00,-2.028908042262907330e+00,-6.280030878694664587e-01,-7.237280351555516189e-01,1.222980805941658033e+00,8.187319186826640394e-01,2.191686799293085297e+00,-3.958672427485912526e-01,-3.165164320271617093e+00,-2.783134213752102681e+00,-1.043598806952203306e+00,-2.818933457497013606e+01,3.159848919564318592e+01,2.692659230058245257e+01,1.016412459996659479e+01,-6.220054642558001667e+00,-2.597945172986963758e-02
2.899999999999999800e-01,1.986832415935048668e-01,2.125499670676320285e+00,-2.030689396251518009e+00,-6.344756591038430704e-01,-7.293782877129215692e-01,1.220211875680237146e+00,7.552755545636804513e-01,2.125010056732305586e+00,-8.417183481971524106e-02,-3.141597598080474896e+00,-2.753512359044412161e+00,-8.671475440223792575e-01,-3.299930405561916302e+01,3.299970271661054255e+01,2.810740485146699896e+01,1.133342042973570329e+01,-6.932938041187743039e+00,-3.631538254994198106e-02
2.919999999999999818e-01,2.004525486139100143e-01,2.129992742242638126e+00,-2.031974143916432940e+00,-6.411019884996312923e-01,-7.349576500483651076e-01,1.217773085157432877e+00,6.761958152569156333e-01,2.033598988636079241e+00,2.689064179758667295e-01,-3.084075495864393002e+00,-2.723488996227304781e+00,-6.850285860379393688e-01,-3.732342718181830321e+01,3.553814374307246737e+01,2.918196224721780041e+01,1.287134537546988433e+01,-7.410847980564501114e+00,-4.969551231519699075e-02
2.939999999999999836e-01,2.021284931525845208e-01,2.134406720527964207e+00,-2.032731442572768721e+00,-6.477386476018306416e-01,-7.404817927163472868e-01,1.215675703074470704e+00,5.839578744342833749e-01,1.921520166563315257e+00,6.363220699800199442e-01,-2.936309757224675909e+00,-2.702651655898204108e+00,-4.980434961893964729e-01,-4.038468013601747231e+01,3.815286673900438785e+01,3.016988981468042397e+01,1.441900163429023252e+01,-7.691476371290949743e+00,-6.315606016321677341e-02
2.959999999999999853e-01,2.036750602881409744e-01,2.138699172187860320e+00,-2.032930533058385780e+00,-6.542037541475190787e-01,-7.459697640678589758e-01,1.213930568329248061e+00,4.818306531979764107e-01,1.794683275555580604e+00,9.839492240124672051e-01,-2.631962257103938718e+00,-2.702712400108532087e+00,-3.071217334171964519e-01,-4.128406672958016088e+01,3.949851382232443342e+01,3.110978335016150353e+01,1.552889676698235633e+01,-7.836532122904425357e+00,-7.300479107562700409e-02
2.979999999999999871e-01,2.050562350991919636e-01,2.142827663877890032e+00,-2.032540656211141439e+00,-6.603154258737744531e-01,-7.514406124538910436e-01,1.212548519819662607e+00,3.730830726501909167e-01,1.658998000654448246e+00,1.277661982892909220e+00,-2.104694870444765442e+00,-2.735383290909717324e+00,-1.131927566617866310e-01,-3.912259077386949002e+01,3.822972711094989506e+01,3.204023864996774762e+01,1.575353833433159068e+01,-7.907724144942338995e+00,-7.554947003405121375e-02
2.999999999999999889e-01,2.062360026643499655e-01,2.146749762253616023e+00,-2.031531052868895237e+00,-6.658917805176751692e-01,-7.569133862254341372e-01,1.211540396443612000e+00,2.609840538931222920e-01,1.520374026901490927e+00,1.483334449441048308e+00,-1.288169472189742315e+00,-2.812376390353189759e+00,8.281397513638644181e-02,-3.300125608024860924e+01,3.300114872279809930e+01,3.299985151040588249e+01,1.464543389712328647e+01,-7.966761346942107025e+00,-6.709786202011287781e-02
3.019999999999999907e-01,2.071862861909018749e-01,2.150424428372464281e+00,-2.029875661504422890e+00,-6.707460978238233285e-01,-7.624076488930540130e-01,1.210916081524202603e+00,1.491881080945450799e-01,1.380582711881925162e+00,1.591989685151930400e+00,-1.665380675980631942e-01,-2.936363163980096225e+00,2.803450893947897482e-01,-2.246466526076936532e+01,2.300025174016517937e+01,3.397455029479675659e+01,1.192520655719494727e+01,-8.053897196696171434e+00,-4.539164349072478261e-02
3.039999999999999925e-01,2.079107756912820515e-01,2.153816203409551822e+00,-2.027567219586986269e+00,-6.746722968574226931e-01,-7.679450255330184660e-01,1.210681634365121440e+00,4.289280083502055446e-02,1.224834653417869124e+00,1.695291860110212490e+00,1.073995923000790942e+00,-3.073836416145181882e+00,4.803522360041652672e-01,-8.832614709725710611e+00,9.546792320691192657e+00,3.473949882107020670e+01,7.986244227088570291e+00,-8.123524770305669662e+00,-1.391071817317757198e-02
3.059999999999999942e-01,2.084211064534321756e-01,2.156891024197264084e+00,-2.024603166450128722e+00,-6.774594543354748311e-01,-7.735476568449771717e-01,1.210842157834945532e+00,-5.231836508598072810e-02,1.034198396068101156e+00,1.910076745113506336e+00,2.196693491832894196e+00,-3.182240215289252383e+00,6.841634898101496276e-01,6.131100998312717820e+00,-5.506162696774907772e+00,3.501714605677956627e+01,3.390201717695134676e+00,-8.108562385425628349e+00,2.242980775492393886e-02
3.079999999999999960e-01,2.087289137652938720e-01,2.159614827567984729e+00,-2.020980941427390043e+00,-6.788966469749803112e-01,-7.792376835285796943e-01,1.211402754802250126e+00,-1.308618868689866432e-01,7.897424843913848358e-01,2.353180110959508298e+00,2.964815631124144701e+00,-3.219018629853083180e+00,8.931069256583797911e-01,2.066268728877475880e+01,-2.030554647338233920e+01,3.452994096947796976e+01,-1.301266160093796032e+00,-7.941928359710995977e+00,5.871482811597010520e-02
3.099999999999999978e-01,2.088458329148089321e-01,2.161953550354099640e+00,-2.016697983852313136e+00,-6.787729514929407015e-01,-7.850372462834758203e-01,1.212368528135611134e+00,-1.871542617145252885e-01,4.725354629464834644e-01,3.141437728445914956e+00,3.141623333100445947e+00,-3.141615728277449726e+00,1.108510618394493719e+00,3.299834958708929378e+01,-3.299829217028035089e+01,3.300033252671857298e+01,-5.526504595386665386e+00,-7.556541010816729020e+00,9.002923673235130320e-02
3.119999999999999996e-01,2.087834991899190640e-01,2.163873129387991590e+00,-2.011751733058439129e+00,-6.768774446063567929e-01,-7.909684858093150028e-01,1.213744580703604914e+00,-2.156119868231245740e-01,6.364587629216111875e-02,4.391685368370422893e+00,2.490377589987696538e+00,-2.907475579003128807e+00,1.331702642864128538e+00,4.137429331868513316e+01,-4.173133294861817433e+01,3.015076969605451751e+01,-8.723858777291912503e+00,-6.885318656397775072e+00,1.114579274264578257e-01
3.140000000000000013e-01,2.085535478785658370e-01,2.165339501502045572e+00,-2.006139628379309592e+00,-6.729992030322298202e-01,-7.970535428057468064e-01,1.215536015374807377e+00,-2.106515593953126320e-01,-4.558577310128189009e-01,6.220758801530728910e+00,7.743393940118004082e-01,-2.474042250470895432e+00,1.564011073912921601e+00,4.402672390899117261e+01,-4.465160196954503391e+01,2.570370144503893783e+01,-1.033167389491798360e+01,-5.861179614109087055e+00,1.180857940206800766e-01
3.160000000000000031e-01,2.081676142686910425e-01,2.166318603528647024e+00,-1.999859109148465430e+00,-6.669273034875607964e-01,-8.033145579724209062e-01,1.217747935017794436e+00,-1.666894766316174004e-01,-1.104906814409692295e+00,8.745493798724528034e+00,-2.243230262601344727e+00,-1.798759811121525276e+00,1.806763986386510368e+00,3.919184678343624739e+01,-3.990603239421017179e+01,1.938157674122498975e+01,-9.788295137373312471e+00,-4.417042201605617002e+00,1.049977303374084042e-01
3.180000000000000049e-01,2.076373336482364440e-01,2.166776372300179609e+00,-1.992907614699449548e+00,-6.584508226893508454e-01,-8.097736720089869777e-01,1.220385442501142448e+00,-7.814223573256698363e-02,-1.902432829339696374e+00,1.208272613074951884e+01,-6.799070387625834933e+00,-8.390723293957949025e-01,2.061289455130533188e+00,2.510586736744922121e+01,-2.564155738376284077e+01,1.090684455216582016e+01,-6.532067693766349770e+00,-2.485824736542317392e+00,6.727863019903318476e-02
3.200000000000000067e-01,2.069742252395477544e-01,2.166678682778569343e+00,-1.985281310454882764e+00,-6.473568423022720841e-01,-8.164541130106157674e-01,1.223454166287778699e+00,6.060017010006222421e-02,-2.867536009314777257e+00,1.635005473704945445e+01,-1.313108746552693518e+01,4.478103988346444631e-01,2.328959490023922108e+00,-1.787223360898893176e+01,2.109352537450248022e+01,2.492778738523716342e+01,8.618247911136972306e+00,-8.186988507331676601e+00,-4.892711190602145460e-02
3.220000000000000084e-01,2.072099772434189136e-01,2.160723818290332332e+00,-1.952645350125405521e+00,-6.767227171626596371e-01,-8.146733537251464874e-01,1.227779030235597535e+00,3.401742012349418670e-02,-2.804903578649967866e+00,1.634911608732260646e+01,-1.238816588372368699e+01,2.412742243335049830e-01,2.409325197723972245e+00,-1.671677247785968135e+01,2.655139714588784283e+00,1.516477374275051915e+01,4.830804157594466908e+00,-7.551498532778919248e+00,-3.817190910583680152e-02
3.240000000000000102e-01,2.073839107475783927e-01,2.154884964824166360e+00,-1.919921695262360339e+00,-7.044500668447554181e-01,-8.133738502203822218e-01,1.232273895500754390e+00,9.869789021262728029e-03,-2.753463223651247738e+00,1.631216302755529668e+01,-1.169641016303307701e+01,5.756154886759606848e-02,2.488833067515396458e+00,-1.540166721564276386e+01,-1.142470270063624227e+01,7.395627345012664833e+00,1.828275917762110625e+00,-6.902065624855506343e+00,-2.922550749962226496e-02
3.260000000000000120e-01,2.075005684836909725e-01,2.149156007466091367e+00,-1.887165965774590060e+00,-7.306255683509493837e-01,-8.125169154725774279e-01,1.236935288080399209e+00,-1.189835756739367201e-02,-2.710451244159064910e+00,1.624198298470187041e+01,-1.105316099307681377e+01,-1.045099375741136427e-01,2.567184407541429625e+00,-1.396272630013845983e+01,-2.169470288255143942e+01,1.369808555324534494e+00,-4.856451166943473452e-01,-6.244302132304623498e+00,-2.188347594665948984e-02
3.280000000000000138e-01,2.075644931834217111e-01,2.143530831302129069e+00,-1.854433781570938411e+00,-7.553358986836320454e-01,-8.120638624579868958e-01,1.241759733971680157e+00,-3.134265400323646422e-02,-2.673103940013871416e+00,1.614136338571668716e+01,-1.045575906347662354e+01,-2.461225450026552630e-01,2.644080525945307514e+00,-1.243575820914705332e+01,-2.870356184253562759e+01,-3.163222263012904989e+00,-2.207267254109147370e+00,-5.583820403869472315e+00,-1.594138330623016964e-02
3.300000000000000155e-01,2.075802275784355555e-01,2.138003321418298519e+00,-1.821780762560250233e+00,-7.786677348451935821e-01,-8.119760041528649719e-01,1.246743759171746735e+00,-4.851873464702710637e-02,-2.638657611056114849e+00,1.601309165755411357e+01,-9.901545063854227280e+00,-3.684585834290597384e-01,2.719222730870266336e+00,-1.085657142046883017e+01,-3.299998059196760636e+01,-6.454004746698690731e+00,-3.432898802816533035e+00,-4.926232788293247289e+00,-1.119479843761600826e-02
3.320000000000000173e-01,2.075523144003975362e-01,2.132567362900621877e+00,-1.789262528651370587e+00,-8.007077538380248383e-01,-8.122146535334672235e-01,1.251883889677748662e+00,-6.348223385952708742e-02,-2.604348557126248576e+00,1.585995522716850559e+01,-9.387859683831344171e+00,-4.727003628643584032e-01,2.792312330459543634e+00,-9.260974411904086878e+00,-3.513266014222624278e+01,-8.753078532431873171e+00,-4.258848071150747927e+00,-4.277151634319144691e+00,-7.439290200098688799e-03
3.340000000000000191e-01,2.074852963809725448e-01,2.127216840835118195e+00,-1.756934699753141871e+00,-8.215426326645157706e-01,-8.127411235760475527e-01,1.257176651486834107e+00,-7.628878600149784084e-02,-2.567413078064720189e+00,1.568474152151422096e+01,-8.912043613029693390e+00,-5.600301933195821480e-01,2.863050632856372069e+00,-7.684775661253098633e+00,-3.565030150469031867e+01,-1.031098325691148432e+01,-4.781423367446033801e+00,-3.642189290690358128e+00,-4.470427452959894327e-03
3.360000000000000209e-01,2.073837162518255561e-01,2.121945640307809633e+00,-1.724852895774409589e+00,-8.412590483270567798e-01,-8.135167272568609720e-01,1.262618570596152789e+00,-8.699402543370085561e-02,-2.525087473711980834e+00,1.549023796754562099e+01,-8.471437541070997668e+00,-6.316303848057623904e-01,2.931138946203990070e+00,-6.163783646316157494e+00,-3.510160569073867975e+01,-1.137825855683657039e+01,-5.096933000036635519e+00,-3.026958106150083871e+00,-2.083779055481320072e-03
3.380000000000000226e-01,2.072521167446214896e-01,2.116747646404714800e+00,-1.693072736624016805e+00,-8.599436778280380445e-01,-8.145027775521618274e-01,1.268206173002852877e+00,-9.565358651689756520e-02,-2.474608043908478550e+00,1.527923199221705453e+01,-8.063382157576970855e+00,-6.886832473339296046e-01,2.996278578645631185e+00,-4.733806844893544863e+00,-3.403527371175012206e+01,-1.220544406890616429e+01,-5.301685277256792617e+00,-2.437070429441515973e+00,-7.491386694464998580e-05
3.400000000000000244e-01,2.070950405910254588e-01,2.111616744211856300e+00,-1.661649842210809025e+00,-8.776831981698505203e-01,-8.156605874382052423e-01,1.273935984704084756e+00,-1.023231036118494863e-01,-2.413211088494665812e+00,1.505451102248289530e+01,-7.685218152169341010e+00,-7.323710909151154302e-01,3.058170838324533847e+00,-3.430653734785554576e+00,-3.300000657910349844e+01,-1.304307942981931845e+01,-5.491988507440753509e+00,-1.878138609307852924e+00,1.760599253368421357e-03
3.420000000000000262e-01,2.069169129568607657e-01,2.106552659032193020e+00,-1.630633942087524435e+00,-8.945586667331456576e-01,-8.169539683341113800e-01,1.279803900505064762e+00,-1.070869561006295156e-01,-2.338901843328321295e+00,1.481848276740512915e+01,-7.334473440992180571e+00,-7.638291882470795713e-01,3.116531489848004099e+00,-2.281054479091799259e+00,-3.242855460756049268e+01,-1.408797467472002296e+01,-5.744073821576351158e+00,-1.354384567205656253e+00,3.586122799353355824e-03
3.440000000000000280e-01,2.067216887305316775e-01,2.101578477734540318e+00,-1.600051203678388712e+00,-9.106286617398949845e-01,-8.183567257291058938e-01,1.285803290367831808e+00,-1.101445068865183896e-01,-2.252761380249324041e+00,1.457203601908767965e+01,-7.009424868658599372e+00,-7.840046571520117302e-01,3.171134125407649940e+00,-1.275424896956295351e+00,-3.228985146554693841e+01,-1.532201501010280076e+01,-6.053861241392196391e+00,-8.644683492438167693e-01,5.400739768579465583e-03
3.460000000000000298e-01,2.065132052275743257e-01,2.096723127753706173e+00,-1.569921903699474930e+00,-9.259461414544627456e-01,-8.198451637046058060e-01,1.291926893024769818e+00,-1.117238656121148921e-01,-2.156639753071961429e+00,1.431567982904747005e+01,-6.708536517494060547e+00,-7.937975753275469115e-01,3.221766794523170496e+00,-3.951019502378245729e-01,-3.243687319483431963e+01,-1.667335282964450371e+01,-6.397192411315772986e+00,-4.056594911427860994e-01,7.162462057239158374e-03
3.480000000000000315e-01,2.062952997635248420e-01,2.092015536524497232e+00,-1.540266318866853723e+00,-9.405640641412131853e-01,-8.213955863420269177e-01,1.298167447208259828e+00,-1.120531419200179041e-01,-2.052387015610519061e+00,1.404992324880142007e+01,-6.430272469824014792e+00,-7.941080204713194535e-01,3.268217546714268007e+00,3.785773992048327430e-01,-3.272259583719410614e+01,-1.807014052702197660e+01,-6.749908975774554953e+00,2.477247137698623813e-02,8.829301561524846922e-03
3.499999999999999778e-01,2.060718096539193300e-01,2.087484631481721475e+00,-1.511104725896597500e+00,-9.545353880645106592e-01,-8.229842977227859180e-01,1.304517691650685762e+00,-1.113604454528262372e-01,-1.941853221679285424e+00,1.377527532986645298e+01,-6.173096807973920797e+00,-7.858360702809643605e-01,3.310274431500640269e+00,1.064276189512898707e+00,-3.299999543439780325e+01,-1.944053049591206417e+01,-7.087852579196026070e+00,4.295580025950519465e-01,1.035927017762894309e-02
3.519999999999999796e-01,2.058461987051999065e-01,2.083155926078831044e+00,-1.482456886655228789e+00,-9.679108299406309346e-01,-8.245889605215367402e-01,1.310970047589390397e+00,-1.098545184618696519e-01,-1.826658258877235319e+00,1.349230778459686064e+01,-5.935492195721358222e+00,-7.698418006531448921e-01,3.347744580976720119e+00,1.677756466521121537e+00,-3.315311644235198685e+01,-2.072668145604973233e+01,-7.392013683236488220e+00,8.108743262217549264e-01,1.172047765070669857e-02
3.539999999999999813e-01,2.056204366204867351e-01,2.079041277231961082e+00,-1.454340503518798400e+00,-9.807321398917304700e-01,-8.261926720293929494e-01,1.317515666224652549e+00,-1.076666301620900212e-01,-1.707501308688291974e+00,1.320184297992745925e+01,-5.716015625982866055e+00,-7.468252731109226161e-01,3.380511460956128200e+00,2.223175786879362015e+00,-3.319028254204706485e+01,-2.192677994182450973e+01,-7.663978941315158444e+00,1.168685604530607769e+00,1.292142693165139120e-02
3.559999999999999831e-01,2.053961195603322132e-01,2.075149127569929419e+00,-1.426772763967666391e+00,-9.930388262909913832e-01,-8.277798882524622925e-01,1.324145381233258423e+00,-1.049086806414651490e-01,-1.584851365753699781e+00,1.290476594924606779e+01,-5.513242674792365960e+00,-7.174465437914486765e-01,3.408477621537385538e+00,2.701790454945687259e+00,-3.315088861294257327e+01,-2.305302006892319611e+01,-7.910484285514219671e+00,1.502402709644802714e+00,1.398071972528276002e-02
3.579999999999999849e-01,2.051748436852887381e-01,2.071487919721556548e+00,-1.399770855482194376e+00,-1.004870397511594904e+00,-8.293350651968518505e-01,1.330850026291993560e+00,-1.016925699879729500e-01,-1.459177424714701798e+00,1.260196172594049457e+01,-5.325748918183780489e+00,-6.823656688318736618e-01,3.431545612819011826e+00,3.114856775078161277e+00,-3.307432953449804813e+01,-2.411759595303258763e+01,-8.138265647915849499e+00,1.811436513687531225e+00,1.491695773642053718e-02
3.599999999999999867e-01,2.049582051559088458e-01,2.068066096315661184e+00,-1.373351965542742192e+00,-1.016266361926722706e+00,-8.308426588686698144e-01,1.337620435077643277e+00,-9.813019828959128332e-02,-1.330948480212541307e+00,1.229431534339856036e+01,-5.152109932191027752e+00,-6.422427043693486048e-01,3.449617984899529421e+00,3.463631051634855407e+00,-3.300000018617302544e+01,-2.513270170983950891e+01,-8.354058960602237960e+00,2.095197888781988205e+00,1.574874266988446694e-02
3.619999999999999885e-01,2.047476118598418326e-01,2.064891406976943067e+00,-1.347531717292218323e+00,-1.027263768748172934e+00,-8.322882632093375754e-01,1.344447269283590041e+00,-9.433208747652378767e-02,-1.200671115572721215e+00,1.198267089567456445e+01,-4.990963342670615255e+00,-5.977071947681399378e-01,3.462616187670764845e+00,3.750923735831907191e+00,-3.295897087295196570e+01,-2.610812778962744218e+01,-8.563320646847579098e+00,2.353629969519769549e+00,1.649265336333549312e-02
3.639999999999999902e-01,2.045437185481515374e-01,2.061968829148076665e+00,-1.322319476150040529e+00,-1.037889829954785181e+00,-8.336620241733507797e-01,1.351320502628514664e+00,-9.040324651867527594e-02,-1.069002277836614612e+00,1.166770870970949581e+01,-4.841194989591246944e+00,-5.492666300126024526e-01,3.470537274712370390e+00,3.985762237558027721e+00,-3.294901161342127693e+01,-2.704404940690119474e+01,-8.766388789056835051e+00,2.588805067508033186e+00,1.715717670259549188e-02
3.659999999999999920e-01,2.043469916765117689e-01,2.059302647184844126e+00,-1.297723043011330457e+00,-1.048169298070295907e+00,-8.349552257864337745e-01,1.358229936827153761e+00,-8.644730606357055314e-02,-9.366365072194060559e-01,1.135006816822108533e+01,-4.701752770155378514e+00,-4.973979846699119745e-01,3.473397201654674138e+00,4.178728299185682893e+00,-3.295956685741378323e+01,-2.793823782367099184e+01,-8.962321808003789414e+00,2.803327820395219216e+00,1.774877646471842083e-02
3.679999999999999938e-01,2.041578977005962803e-01,2.056897145443027597e+00,-1.273750218771209752e+00,-1.058126925618441350e+00,-8.361591520743101302e-01,1.365165373594243059e+00,-8.256789675873447976e-02,-8.042683439362806608e-01,1.103038865392705148e+01,-4.571584581565463878e+00,-4.425782333072443842e-01,3.471211924128005055e+00,4.340403663087340824e+00,-3.298008105476232288e+01,-2.878846430194701611e+01,-9.150178124462218676e+00,2.999802865829766407e+00,1.827391642675822367e-02
3.699999999999999956e-01,2.039769030760787139e-01,2.054756608278410113e+00,-1.250408804324800283e+00,-1.067787465122957746e+00,-8.372650870627036390e-01,1.372116614644518728e+00,-7.886864925169184692e-02,-6.725923282024236505e-01,1.070930954954512693e+01,-4.449638321023956067e+00,-3.852843504917754514e-01,3.463997397762692554e+00,4.481370071635464747e+00,-3.299999865529969156e+01,-2.959250010373949280e+01,-9.329016159205904657e+00,3.180834841460111750e+00,1.873906036576884412e-02
3.719999999999999973e-01,2.038043020315359610e-01,2.052884138822938631e+00,-1.227705558953637199e+00,-1.077173938577223655e+00,-8.382650995196119226e-01,1.379073490849435979e+00,-7.543466409122188965e-02,-5.422427001969538640e-01,1.038740163193186383e+01,-4.334913551133955600e+00,-3.259529500215269660e-01,3.451785095457537089e+00,4.607471539165293173e+00,-3.301099442141572382e+01,-3.034558395620316773e+01,-9.497567773399110180e+00,3.347610455039752075e+00,1.914736721426771662e-02
3.739999999999999991e-01,2.036396998357618005e-01,2.051278114960722210e+00,-1.205643075174076095e+00,-1.086302445336766453e+00,-8.391543974163069297e-01,1.386025949716029659e+00,-7.227691590145558787e-02,-4.136124819602708391e-01,1.006496123402609655e+01,-4.226616511518894725e+00,-2.648591905736314978e-01,3.434668563815819198e+00,4.705599754052380845e+00,-3.301366503128764407e+01,-3.103282369132370277e+01,-9.653258492317636552e+00,3.495644271610364839e+00,1.948877554040981397e-02
3.760000000000000009e-01,2.034825295047545668e-01,2.049935733175781927e+00,-1.184222903733462839e+00,-1.095187353968539723e+00,-8.399289735834279957e-01,1.392963967912403289e+00,-6.938784644284218261e-02,-2.870343864991427019e-01,9.742216072668584914e+00,-4.124005114912013603e+00,-2.022378640337056666e-01,3.412756869024673456e+00,4.757907969703312645e+00,-3.301083780844184901e+01,-3.163679422834357169e+01,-9.793187232900752548e+00,3.619032714744775170e+00,1.974991857468705314e-02
3.780000000000000027e-01,2.033322240545126780e-01,2.048854189952137972e+00,-1.163446595379143078e+00,-1.103843033039494825e+00,-8.405848208516149001e-01,1.399877522106662164e+00,-6.675989747583101208e-02,-1.628411268203389939e-01,9.419393864700092323e+00,-4.026337274046553283e+00,-1.383237622873668693e-01,3.386159077271233997e+00,4.746549439524665459e+00,-3.300534007640473533e+01,-3.214007048650525178e+01,-9.914452912087725167e+00,3.711872208015806862e+00,1.991742954759134071e-02
3.800000000000000044e-01,2.031882165010343855e-01,2.048030681773810091e+00,-1.143315700858463124e+00,-1.112283851116583788e+00,-8.411179320515069779e-01,1.406756588966909804e+00,-6.438551076087137282e-02,-4.136541593062943722e-02,9.096722326961376837e+00,-3.932870901655752593e+00,-7.335167722023239190e-02,3.354984254742634953e+00,4.653677416923021504e+00,-3.299999915870267841e+01,-3.252522738505121680e+01,-1.001415444681781786e+01,3.768259174996282379e+00,1.997794168961457978e-02
3.820000000000000062e-01,2.030499523282086327e-01,2.047461857013754827e+00,-1.123831385008111416e+00,-1.120522933942783128e+00,-8.415246940204071935e-01,1.413591326234609813e+00,-6.229718202642001157e-02,7.700795458810387462e-02,8.774588080404861046e+00,-3.842881975230847846e+00,-7.586263068241959166e-03,3.319352076783660177e+00,4.469655756803165403e+00,-3.299704558698183376e+01,-3.278228449099382402e+01,-1.009067510264481804e+01,3.784997477743648364e+00,1.992523434632520810e-02
3.840000000000000080e-01,2.029169268959480632e-01,2.047142171404540356e+00,-1.104993268884050917e+00,-1.128568435520436397e+00,-8.418030697632618020e-01,1.420372616009453859e+00,-6.068763720571943021e-02,1.916858602179276339e-01,8.454013419291220188e+00,-3.755718737759283332e+00,5.858836584554490828e-02,3.279424659166023215e+00,4.217693658112360744e+00,-3.299632251181370179e+01,-3.293104262638875923e+01,-1.014753599916685900e+01,3.769721701073082798e+00,1.978167388073575478e-02
3.860000000000000098e-01,2.027886480342867004e-01,2.047065532469596771e+00,-1.086800587562537279e+00,-1.136427266805537295e+00,-8.419514163621780733e-01,1.427091521496890447e+00,-5.978966336671816956e-02,3.020230885475809757e-01,8.136179570424875607e+00,-3.670747500218750847e+00,1.247582275045933109e-01,3.235374728717343107e+00,3.929212390386620513e+00,-3.299707618510787910e+01,-3.299874859310298802e+01,-1.018954283440002584e+01,3.732774352715670929e+00,1.957677404956145728e-02
3.880000000000000115e-01,2.026646235732586510e-01,2.047225847732355941e+00,-1.069252576119826825e+00,-1.144106338754079744e+00,-8.419680908992639434e-01,1.433739105902369415e+00,-5.983604757736472879e-02,4.073744271658031879e-01,7.822267760610251308e+00,-3.587334573586947073e+00,1.905093398923684012e-01,3.187375012265238894e+00,3.635633223161958583e+00,-3.299855285877403333e+01,-3.301264919300356127e+01,-1.022150130636040188e+01,3.684497940402503335e+00,1.934004860951756694e-02
3.900000000000000133e-01,2.025443613428978828e-01,2.047617024716248846e+00,-1.052348469632174988e+00,-1.151612562322057443e+00,-8.418514504566267931e-01,1.440306432431339267e+00,-6.105957690560759321e-02,5.070946636613333780e-01,7.513459216651763306e+00,-3.504846268841563806e+00,2.554277209923352387e-01,3.135598236637327396e+00,3.368377425974385275e+00,-3.299999878472176817e+01,-3.299999122795746587e+01,-1.024821711306406513e+01,3.635234971864667042e+00,1.910101131731932120e-02
3.920000000000000151e-01,2.024269812691726900e-01,2.048231893997187303e+00,-1.036085536386979422e+00,-1.158951794066335861e+00,-8.416005412859433044e-01,1.446784852321787218e+00,-6.362653852848468294e-02,6.006746378916508755e-01,7.210656323622987252e+00,-3.422714004004038912e+00,3.191841170848057074e-01,3.080222979030895036e+00,3.153161068072223294e+00,-3.300081710249545353e+01,-3.298408605607914978e+01,-1.027380043240475338e+01,3.593653951459298224e+00,1.888446039791932124e-02
3.940000000000000169e-01,2.023100514999960631e-01,2.049058977911816015e+00,-1.020453176695868436e+00,-1.166125672507485111e+00,-8.412171666046175389e-01,1.453166869061992550e+00,-6.743719232261792540e-02,6.881494555359198850e-01,6.913645983370621195e+00,-3.340629652426609475e+00,3.817882229772303071e-01,3.021451220562060946e+00,2.992877037942377694e+00,-3.300103856761551668e+01,-3.297250161901887822e+01,-1.029957907168884113e+01,3.561726671829251512e+00,1.869632998239480204e-02
3.960000000000000187e-01,2.021907521983145328e-01,2.050085721624652635e+00,-1.005438823671421567e+00,-1.173134781547042316e+00,-8.407038189433545528e-01,1.459445274232842760e+00,-7.232528440460878061e-02,7.696903029168884469e-01,6.621936197855722739e+00,-3.258350208083870658e+00,4.433344794447041104e-01,2.959490793936754294e+00,2.884711833916692392e+00,-3.300085085595734569e+01,-3.296886959390451466e+01,-1.032618517304380568e+01,3.539750573115984622e+00,1.853783768659665251e-02
3.980000000000000204e-01,2.020662635270745189e-01,2.051299570300213926e+00,-9.910299104262181302e-01,-1.179979705086545039e+00,-8.400629908328588469e-01,1.465612859415226232e+00,-7.812456089105862533e-02,8.454683663573016039e-01,6.335034969039353925e+00,-3.175632664950418960e+00,5.039173272623210798e-01,2.894549531860903357e+00,2.825851954327017523e+00,-3.300044164339629305e+01,-3.297682165786393682e+01,-1.035425087859711013e+01,3.528023095460955272e+00,1.841020112637575812e-02
4.000000000000000222e-01,2.019337656492227462e-01,2.052687969103017540e+00,-9.772138700728383309e-01,-1.186661027027531290e+00,-8.392971748038360325e-01,1.471662416190031131e+00,-8.466876789856891961e-02,9.156548321799065082e-01,6.052450298882584789e+00,-3.092234017000854429e+00,5.636312072051756772e-01,2.826835267040440414e+00,2.813483897505200559e+00,-3.299999860580778943e+01,-3.299998948802505083e+01,-1.038440833047623713e+01,3.526841679005624286e+00,1.831463791758301818e-02
4.020000000000000240e-01,2.017907157756129444e-01,2.054238648931169475e+00,-9.639789551631497977e-01,-1.193178925869830653e+00,-8.384087061996665646e-01,1.477587082435747323e+00,-9.179486038003026316e-02,9.804238527561404126e-01,5.773696319034644198e+00,-3.007933773164726432e+00,6.225724288818001995e-01,2.756557675845360045e+00,2.842086852782519379e+00,-3.299967865093634600e+01,-3.303823536713516518e+01,-1.041659173702836938e+01,3.535387137520974665e+00,1.824930046202733955e-02
4.040000000000000258e-01,2.016356794406382880e-01,2.055940483753171399e+00,-9.513166963963306522e-01,-1.199531958313421187e+00,-8.373992915395932490e-01,1.483381381386152276e+00,-9.935263016129897151e-02,1.039961446064416206e+00,5.498311682815944401e+00,-2.922601512911344734e+00,6.808447781242783492e-01,2.683933810179744750e+00,2.895309484469133832e+00,-3.299951559935362866e+01,-3.307634220571462436e+01,-1.044794323917550116e+01,3.548373247641813055e+00,1.820007884592317327e-02
4.060000000000000275e-01,2.014674992925580277e-01,2.057782633339142020e+00,-9.392194441059374954e-01,-1.205718275560056174e+00,-8.362704801181118919e-01,1.489040182655072098e+00,-1.071950786684705281e-01,1.094456596837986240e+00,5.225841174694405566e+00,-2.836129336025265513e+00,7.385539100430575932e-01,2.609182566050677998e+00,2.954092503326857688e+00,-3.299951249617532056e+01,-3.309532262249742729e+01,-1.047490687789742658e+01,3.559396893789508631e+00,1.814979721168628532e-02
4.080000000000000293e-01,2.012850179796313310e-01,2.059754257459196936e+00,-9.276795486255262624e-01,-1.211736028811489785e+00,-8.350238212297184104e-01,1.494558355856331122e+00,-1.151752073276402361e-01,1.144098289810101310e+00,4.955829579137946972e+00,-2.748409342291044499e+00,7.958054797485851761e-01,2.532522839465242370e+00,2.999376620117502945e+00,-3.299967238651706225e+01,-3.307618923621758000e+01,-1.049392669417392909e+01,3.562054960385428792e+00,1.808127970173243476e-02
4.100000000000000311e-01,2.010870781501173377e-01,2.061844515883454854e+00,-9.166893602886532211e-01,-1.217583369269475302e+00,-8.336608641689082777e-01,1.499930770603755015e+00,-1.231460175649036343e-01,1.189075509714013990e+00,4.687821680614483455e+00,-2.659333631493234762e+00,8.527051423513095640e-01,2.454173526430519114e+00,3.012102545602883374e+00,-3.299999831549450136e+01,-3.299995466560908142e+01,-1.050144672898480103e+01,3.549944331850944490e+00,1.797735045847737717e-02
