prominentjohnson/z1_sdk/examples/nominal_trajectory.csv
t,q0,q1,q2,q3,q4,q5,qdot0,qdot1,qdot2,qdot3,qdot4,qdot5,tau0,tau1,tau2,tau3,tau4,tau5
0.000000000000000000e+00,7.857317998396899927e-01,1.977234461859409986e+00,-1.428925498828662377e+00,-5.483089582678805085e-01,-7.857317892535407022e-01,1.570799999945447389e+00,0.000000000000000000e+00,0.000000000000000000e+00,0.000000000000000000e+00,0.000000000000000000e+00,0.000000000000000000e+00,0.000000000000000000e+00,4.378530862196183371e+00,-6.323217849888745690e+00,-9.201857846846667854e+00,-2.613238269399043023e+00,7.368153091238286434e-01,-1.073633691829023809e-02
2.000000000000000042e-03,7.856965261059496441e-01,1.977170571668563692e+00,-1.428821733791320714e+00,-5.483433436373300607e-01,-7.855964130180205229e-01,1.570817183745823797e+00,2.574536882897963605e-02,4.689071831249849720e-02,-7.620920350660705112e-02,2.459990524696226491e-02,-9.999998376287322355e-02,-1.286656362447199768e-02,4.206758710551011582e+00,-6.517768912960323568e+00,-9.256204302322132094e+00,-2.642910952423398907e+00,7.027028449503510688e-01,-9.354372096937913980e-03
4.000000000000000083e-03,7.857134961957298325e-01,1.977201198086224299e+00,-1.428871445598585588e+00,-5.483265936627585990e-01,-7.856610367485221680e-01,1.570809050304906140e+00,5.092999946043715032e-02,9.324322763005644943e-02,-1.516939696010108363e-01,4.778428925869300514e-02,-1.999999554936063018e-01,-2.601316395047223104e-02,4.039386402240369378e+00,-6.708281099847706486e+00,-9.304016424255319606e+00,-2.670444572469373057e+00,6.686409702952620382e-01,-7.991693450317352218e-03
6.000000000000000125e-03,7.857815934087321041e-01,1.977325259486636400e+00,-1.429073123719215577e+00,-5.482615546607217949e-01,-7.859256604350961517e-01,1.570775010369497959e+00,7.555668051686607878e-02,1.390544872907771012e-01,-2.264182989101990173e-01,6.954423394499248401e-02,-2.999999234335376519e-01,-3.945683820343613701e-02,3.876286062480662320e+00,-6.894680241332297399e+00,-9.345160598073547931e+00,-2.695778022836474719e+00,6.346116746841141687e-01,-6.647654875694416522e-03
8.000000000000000167e-03,7.858997010446574505e-01,1.977541674244042813e+00,-1.429425257621970147e+00,-5.481510729477746535e-01,-7.863902840677930994e-01,1.570714474686402351e+00,9.962820062075990191e-02,1.843214566327636139e-01,-3.003461920611588676e-01,8.987082121566090931e-02,-3.999998958240057467e-01,-5.321462360879915254e-02,3.717329816488295080e+00,-7.076892168195497490e+00,-9.379503209204138159e+00,-2.718850196824210474e+00,6.005969476424605213e-01,-5.321610270334965406e-03
1.000000000000000021e-02,7.860667024726133434e-01,1.977849360657008893e+00,-1.429926335879617927e+00,-5.479979950624357388e-01,-7.870549076368691388e-01,1.570626853578383386e+00,1.231473502111895546e-01,2.290410849744555777e-01,-3.734416243729902773e-01,1.087551347857134976e-01,-4.999998806984695121e-01,-6.730355047121885925e-02,3.562389733058873631e+00,-7.254842809295102946e+00,-9.406910678998539055e+00,-2.739600020078375664e+00,5.665787383401477140e-01,-4.012911915952141473e-03
1.200000000000000025e-02,7.862814867737017988e-01,1.978247230795846745e+00,-1.430574773326645843e+00,-5.478051858103374361e-01,-7.879195311494607834e-01,1.570511522470491528e+00,1.461170692279513128e-01,2.732094970357800134e-01,-4.456664883756570883e-01,1.261884069357882554e-01,-5.999998689823125009e-01,-8.174007952901826690e-02,3.411333237667759644e+00,-7.428466164982409303e+00,-9.427252385293300563e+00,-2.757969080280159080e+00,5.325356747522231871e-01,-2.720779137463972056e-03
1.400000000000000029e-02,7.865429529100813610e-01,1.978734185956749103e+00,-1.431368857239279979e+00,-5.475755415969975060e-01,-7.889841546419066320e-01,1.570367796418982165e+00,1.685405562289165604e-01,3.168213910815110834e-01,-5.169790736271926423e-01,1.421621269469846016e-01,-6.999998220060278387e-01,-9.653968624002264021e-02,3.264019723410939822e+00,-7.597710198310938523e+00,-9.440402820284663932e+00,-2.773903570108275041e+00,4.984406395906002540e-01,-1.444201260700974038e-03
1.600000000000000033e-02,7.868500027890587001e-01,1.979309122973390789e+00,-1.432306836584703369e+00,-5.473119670614384757e-01,-7.902487781260594257e-01,1.570194975291123729e+00,1.904210598665669052e-01,3.598710374868738238e-01,-5.873366346890626088e-01,1.566678262329760096e-01,-7.999997256322891603e-01,-1.117174616681389232e-01,3.120308887774955853e+00,-7.762524461999683822e+00,-9.446238366749371451e+00,-2.787350905452568028e+00,4.642659826839102832e-01,-1.821528519387043295e-04
1.800000000000000211e-02,7.872015477566660646e-01,1.979970922370282160e+00,-1.433386837092014421e+00,-5.470173913281757283e-01,-7.917134014820436105e-01,1.569992314775754849e+00,2.117619460349733640e-01,4.023513309449813224e-01,-6.566931715476065357e-01,1.696971159306034926e-01,-8.999996978602462505e-01,-1.272871193955575353e-01,2.980065733507383907e+00,-7.922859476562060799e+00,-9.444642054025061739e+00,-2.798262182761403150e+00,4.299842386256907401e-01,1.066352512916052524e-03
2.000000000000000042e-02,7.875965025354332294e-01,1.980718458585259301e+00,-1.434606940002200570e+00,-5.466947522140267468e-01,-7.933780245752187765e-01,1.569759055157111893e+00,2.325666190345500595e-01,4.442546726447725303e-01,-7.250015231743223154e-01,1.812416416592951829e-01,-9.999998714278792722e-01,-1.432618712900056990e-01,2.843156025566548895e+00,-8.078666444068105079e+00,-9.435498976101301949e+00,-2.806589780371108400e+00,3.955673870530184710e-01,2.302309426462801484e-03
2.199999999999999872e-02,7.880337904704283192e-01,1.981550587145525899e+00,-1.435965107579609379e+00,-5.463470088416710890e-01,-7.952426476648554177e-01,1.569494402706392178e+00,2.528385341008097531e-01,4.855721850525548389e-01,-7.922116068509568176e-01,1.912932166412839030e-01,-1.099999982796779241e+00,-1.596535286011057098e-01,2.709432327338673563e+00,-8.229902780261665995e+00,-9.418695324271087799e+00,-2.812288886631884921e+00,3.609777062753214971e-01,3.527028441774317843e-03
2.400000000000000050e-02,7.885123418454926814e-01,1.982466148338152712e+00,-1.437459206303617343e+00,-5.459771374732502736e-01,-7.973072713199791384e-01,1.569197536354685507e+00,2.725811878176746528e-01,5.262939617601478659e-01,-8.582709891609590080e-01,1.998437898115146272e-01,-1.199999456807092413e+00,-1.764727747835086735e-01,2.578736890174761598e+00,-8.376530793044997480e+00,-9.394118305915327483e+00,-2.815316973691387670e+00,3.261698284657233993e-01,4.742068433597500243e-03
2.600000000000000228e-02,7.890310921028715896e-01,1.983463967892221680e+00,-1.439087025423975152e+00,-5.455881262575222879e-01,-7.995718952776496025e-01,1.568867619200987829e+00,2.917981605427272807e-01,5.664093529510634273e-01,-9.231255558575406361e-01,2.068855329608741411e-01,-1.299998554347252311e+00,-1.937293560899492895e-01,2.450950018898612193e+00,-8.518500567261710898e+00,-9.361675386689666922e+00,-2.815636508516556447e+00,2.911162939702424124e-01,5.948301333415939411e-03
2.800000000000000058e-02,7.895889868400348677e-01,1.984542842627494252e+00,-1.440846201685201722e+00,-5.451829866780896205e-01,-8.020365175550059345e-01,1.568503783523079509e+00,3.104932016532379047e-01,6.059062469373145410e-01,-9.867178888369474432e-01,2.124110660322027222e-01,-1.399999264686018430e+00,-2.114311660961441797e-01,2.326030464760713290e+00,-8.655736899459640199e+00,-9.321315420669785468e+00,-2.813220045922405266e+00,2.558267208487578492e-01,7.145179383875569987e-03
2.999999999999999889e-02,7.901849748963346576e-01,1.985701559312734954e+00,-1.442734322512390310e+00,-5.447647369607170331e-01,-8.047011371251966416e-01,1.568105153754091763e+00,3.286700261465440587e-01,6.447720651797911318e-01,-1.048989620617417184e+00,2.164132189788722516e-01,-1.500002615909983961e+00,-2.295855068270756527e-01,2.203901215568933925e+00,-8.788178400868700280e+00,-9.272979373141101433e+00,-2.808040461967647783e+00,2.202907940576846191e-01,8.332875973896770525e-03
3.200000000000000067e-02,7.908180167043634690e-01,1.986938866948121607e+00,-1.444748797551010489e+00,-5.443364178718778090e-01,-8.075657597215759598e-01,1.567670830702066365e+00,3.463320299558689253e-01,6.829925592549241919e-01,-1.109879222489482675e+00,2.188857213976417582e-01,-1.600002839920128705e+00,-2.481975646165388016e-01,2.084222368626044819e+00,-8.915861678338091068e+00,-9.216533150728563939e+00,-2.800065345065212874e+00,1.843563836503124831e-01,9.516750597427238792e-03
3.400000000000000244e-02,7.914870772331440429e-01,1.988253499286036341e+00,-1.446886965489567745e+00,-5.439010789493059495e-01,-8.106303925818290068e-01,1.567199906185820835e+00,3.634825541665080983e-01,7.205528510535423869e-01,-1.169323937752364984e+00,2.198226818457085230e-01,-1.699992656133712421e+00,-2.672716848978954340e-01,1.966598068842334346e+00,-9.038845481786344394e+00,-9.151831295033012736e+00,-2.789263005816361218e+00,1.478403432484790281e-01,1.070329218770876487e-02
3.600000000000000422e-02,7.921911290820632390e-01,1.989644155544534110e+00,-1.449146019288504839e+00,-5.434617835572970179e-01,-8.138950238524084169e-01,1.566691461741493541e+00,3.801261741925056614e-01,7.574374532030350160e-01,-1.227259114675039786e+00,2.192193566495541923e-01,-1.799983973794277103e+00,-2.868105517388899739e-01,1.851427451144735059e+00,-9.156918755534364962e+00,-9.079050446961650422e+00,-2.775655865640542341e+00,1.109711883102069974e-01,1.188383600460137662e-02
3.799999999999999906e-02,7.929291520411658745e-01,1.991109502429718070e+00,-1.451523014727578387e+00,-5.430216080628960107e-01,-8.173596238464745367e-01,1.566144569244515949e+00,3.962686191977354833e-01,7.936303026033314501e-01,-1.283618319937237073e+00,2.170720832409412104e-01,-1.900006627526836800e+00,-3.068152854149913122e-01,1.739852368512005087e+00,-9.269618448008207778e+00,-8.998668374395345282e+00,-2.759316976324906800e+00,7.436200382802155007e-02,1.303556108868540730e-02
4.000000000000000083e-02,7.937001333525891544e-01,1.992648185432692509e+00,-1.454014919748852552e+00,-5.425836338341784026e-01,-8.210242002180465626e-01,1.565558298875044274e+00,4.119134635344010587e-01,8.291141276016427142e-01,-1.338334595996663934e+00,2.133780310570143335e-01,-2.000052915775903717e+00,-3.272860338567431526e-01,1.631498111048123478e+00,-9.377019872956749325e+00,-8.910619391971385639e+00,-2.740242932820069033e+00,3.783175126265787142e-02,1.416492568175699469e-02
4.200000000000000261e-02,7.945030776833321706e-01,1.994258801573540296e+00,-1.456618501849182845e+00,-5.421509531621316880e-01,-8.248888530104832029e-01,1.564931717605653860e+00,4.270589383364206126e-01,8.638687749942114413e-01,-1.391339879796929635e+00,2.081362887417143592e-01,-2.100022264489002755e+00,-3.482207303713747426e-01,1.522235927364528507e+00,-9.480529893760413884e+00,-8.813489274191598000e+00,-2.718239828840001593e+00,-7.659414859577263340e-04,1.535084739528836187e-02
4.399999999999999745e-02,7.953369912011217790e-01,1.995939931876572260e+00,-1.459330469580058409e+00,-5.417266602308639101e-01,-8.289536472298020264e-01,1.564263892953620338e+00,4.417054325592438824e-01,8.978746295627183516e-01,-1.442565913637390951e+00,2.013466827822654459e-01,-2.199849318766822215e+00,-3.696166835160007436e-01,1.409377473575318174e+00,-9.581056127898555985e+00,-8.706413633618378611e+00,-2.693198754426765262e+00,-4.282655077962604917e-02,1.664462093343248988e-02
4.599999999999999922e-02,7.962008723958782230e-01,1.997690095746363914e+00,-1.462147327233191962e+00,-5.413138510966890582e-01,-8.332183053790553906e-01,1.563553899612148079e+00,4.558740662977558977e-01,9.311188641268797195e-01,-1.491944228989342092e+00,1.930122129619724347e-01,-2.299813007868277470e+00,-3.914691311560324349e-01,1.304268784497366829e+00,-9.674610100519634770e+00,-8.593797058426201119e+00,-2.665806527227944756e+00,-8.242062299603532260e-02,1.782791296552219476e-02
4.800000000000000100e-02,7.970937187983165861e-01,1.999507785426493989e+00,-1.465065486296001085e+00,-5.409156222793460866e-01,-8.376824363761090630e-01,1.562800815786357989e+00,4.695928686046881850e-01,9.635908736916550810e-01,-1.539406382466293799e+00,1.831372658845621670e-01,-2.400306436461985715e+00,-4.137723600377112287e-01,1.222913796181429813e+00,-9.755580650997295322e+00,-8.481799228585563455e+00,-2.637016393781089096e+00,-1.111882487135786857e-01,1.859294486489683138e-02
5.000000000000000278e-02,7.980145923013602927e-01,2.001391471821319268e+00,-1.468081210969798711e+00,-5.405350609475185752e-01,-8.423465637276326134e-01,1.562003731808432772e+00,4.828354450479095394e-01,9.952611270056127557e-01,-1.584887120820960060e+00,1.717269977056283259e-01,-2.500803350845174577e+00,-4.365188787984438656e-01,1.143940973841437447e+00,-9.831458849749983742e+00,-8.362723584897747031e+00,-2.605726948445235447e+00,-1.402942632640866993e-01,1.935115935225753883e-02
5.200000000000000455e-02,7.989626257246387198e-01,2.003339602353206406e+00,-1.471190603278345499e+00,-5.401752439445771659e-01,-8.472122189078815646e-01,1.561161751385564678e+00,4.955154210824990191e-01,1.026079235534405054e+00,-1.628324709226250055e+00,1.587874114673224479e-01,-2.599764273188771124e+00,-4.596992379587614974e-01,1.004787291712957664e+00,-9.924175710230871417e+00,-8.213602563549834201e+00,-2.568572337248931969e+00,-2.024217134567190546e-01,2.130665257557535705e-02
5.399999999999999939e-02,7.999368601609927465e-01,2.005350568390154020e+00,-1.474389691334599739e+00,-5.398392411462267226e-01,-8.522792884860954654e-01,1.560273989084879132e+00,5.076449345090812137e-01,1.056029687586037991e+00,-1.669656271378417989e+00,1.443284063697687636e-01,-2.697303194222410827e+00,-4.833036031034276259e-01,8.101664555419815228e-01,-1.003210154326068704e+01,-8.036483732915806755e+00,-2.525913196570135355e+00,-2.951193676087001116e-01,2.436960801036974072e-02
5.600000000000000117e-02,8.009360603111229659e-01,2.007422602380822152e+00,-1.477674313312190790e+00,-5.395301037807831435e-01,-8.575427420204031481e-01,1.559339588943814636e+00,5.195305421495556297e-01,1.085201149733598491e+00,-1.708815097655442150e+00,1.283710449095031847e-01,-2.798476715591221797e+00,-5.073213169546979540e-01,7.658931257834434847e-01,-1.008317777783369174e+01,-7.908182185680931120e+00,-2.489246675839546175e+00,-3.109130125259352839e-01,2.458243209064922899e-02
5.800000000000000294e-02,8.019590624449134397e-01,2.009553944407684423e+00,-1.481040250435371686e+00,-5.392508719323737543e-01,-8.629986703658103497e-01,1.558357703953274775e+00,5.314119203660100377e-01,1.113659209199941325e+00,-1.745737798645097483e+00,1.109356012369814154e-01,-2.907214289332533230e+00,-5.317407931796660492e-01,1.074990450153860078e+00,-1.000614073107885105e+01,-7.904884249709322575e+00,-2.469985176058657306e+00,-1.434881514690363458e-01,1.803070407634470990e-02
5.999999999999999778e-02,8.030057420478367014e-01,2.011743145029720292e+00,-1.484483089135050449e+00,-5.390045190021732768e-01,-8.686603509321437766e-01,1.557327518333119887e+00,5.425018831950303433e-01,1.141111122180113790e+00,-1.780395332335124703e+00,9.201838092875140596e-02,-3.010169205933299175e+00,-5.565437578001192209e-01,1.606420284940724308e+00,-9.845155417536286535e+00,-7.982078890106573787e+00,-2.461639669870570479e+00,1.415627375432085278e-01,7.134942386396116512e-03
6.199999999999999956e-02,8.040764361356277368e-01,2.013988888442577618e+00,-1.487998316292549417e+00,-5.387939853197372120e-01,-8.745486696851656472e-01,1.556248233268347381e+00,5.515137075321442373e-01,1.167089677543272863e+00,-1.812775599028939366e+00,7.160417808273637774e-02,-3.085586163988277786e+00,-5.817086057044793534e-01,2.063244762344258909e+00,-9.701747403005347437e+00,-8.035232901964532104e+00,-2.448819155169067230e+00,3.932110894555395086e-01,-2.536045239900640378e-03
6.400000000000000133e-02,8.051689183701873365e-01,2.016288928837767447e+00,-1.491581395613480687e+00,-5.386222421724602416e-01,-8.806411837161997047e-01,1.555119092498838063e+00,5.580135590899926168e-01,1.191419482943986141e+00,-1.842846984580571057e+00,4.970343061877291468e-02,-3.125894224947344924e+00,-6.072162813018684435e-01,2.295079691318879789e+00,-9.628231431091391457e+00,-8.009592351751301464e+00,-2.423527789913312080e+00,5.333503666613371719e-01,-8.105084864502965988e-03
6.600000000000000311e-02,8.062776367077076900e-01,2.018639814156956813e+00,-1.495227761787636833e+00,-5.384923012899477390e-01,-8.868592369780864404e-01,1.553939394726496337e+00,5.626776887415584349e-01,1.214305001993726263e+00,-1.870552419571844149e+00,2.635991762028870589e-02,-3.141985265663002291e+00,-6.330510660220801666e-01,2.343107032388364264e+00,-9.612579893979656731e+00,-7.915509343852654034e+00,-2.387441666858916456e+00,5.792228813170583468e-01,-1.021438174897260423e-02
6.800000000000000488e-02,8.073974936557338777e-01,2.021038219068869157e+00,-1.498932794628359266e+00,-5.384071356492061700e-01,-8.931313532952137590e-01,1.552708456272802406e+00,5.661943869452992217e-01,1.235958915380973799e+00,-1.895836304770583958e+00,1.617725538439910692e-03,-3.144966254114804016e+00,-6.591964543504034157e-01,2.264740498855442485e+00,-9.636671653950330096e+00,-7.770149312238804562e+00,-2.343214248288683521e+00,5.573124948397381040e-01,-9.845199325648609431e-03
7.000000000000000666e-02,8.085257381620276629e-01,2.023481536890275212e+00,-1.502691690132975433e+00,-5.383695743430539915e-01,-8.994239703451066825e-01,1.551425641932886901e+00,5.690372815323516686e-01,1.256534674128285456e+00,-1.918654026019895875e+00,-2.448569482532891861e-02,-3.142425469124059401e+00,-6.856324377186873154e-01,2.129489757295193630e+00,-9.676095048642830321e+00,-7.599290775178538127e+00,-2.294657723437071528e+00,5.041594635114591272e-01,-8.342862095520126031e-03
7.200000000000000844e-02,8.096602398395827960e-01,2.025967353596671572e+00,-1.506499593379925228e+00,-5.383824058336444951e-01,-9.057135347723991314e-01,1.550090332450652530e+00,5.716040293551447604e-01,1.276162741739104822e+00,-1.938964255179415286e+00,-5.191476059757094835e-02,-3.140706893300165170e+00,-7.123379074957317814e-01,2.004406908404498200e+00,-9.706873590661960094e+00,-7.428631637074991190e+00,-2.245549984525948783e+00,4.557567910699258373e-01,-7.031309175857033272e-03
7.399999999999999634e-02,8.108000487426046954e-01,2.028493643801176471e+00,-1.510351532717967071e+00,-5.384483190459168345e-01,-9.119953581617725735e-01,1.548701965974007999e+00,5.739816593237535569e-01,1.294866483622171494e+00,-1.956735206416792217e+00,-8.063841730602630542e-02,-3.141073328684764743e+00,-7.392881611024537669e-01,1.902892634915270831e+00,-9.724031798022641837e+00,-7.263293982190584863e+00,-2.196653195474509879e+00,4.192888758863534959e-01,-6.174933698849411137e-03
7.599999999999999811e-02,8.119449203738512422e-01,2.031058614119102046e+00,-1.514242465626410183e+00,-5.385699422841444539e-01,-9.182760199243162891e-01,1.547260015936685384e+00,5.760716686218754212e-01,1.312605307951100420e+00,-1.971940795513930755e+00,-1.106282971374171059e-01,-3.141752642650792016e+00,-7.664563125221359741e-01,1.806301821058552637e+00,-9.733942691943793690e+00,-7.096109095313599902e+00,-2.146927964851442550e+00,3.847328730968608279e-01,-5.405270731219608514e-03
7.799999999999999989e-02,8.130944400216882917e-01,2.033660400617047781e+00,-1.518167302807295727e+00,-5.387498531249288458e-01,-9.245590278964955777e-01,1.545764003669095832e+00,5.778263032594764814e-01,1.329356708490491812e+00,-1.984553504680156122e+00,-1.418542574822325986e-01,-3.141800016373478055e+00,-7.938139516589594047e-01,1.704702953261258092e+00,-9.739851553152618635e+00,-6.923196360310964081e+00,-2.095809121214406989e+00,3.467466676792973490e-01,-4.526220236481158510e-03
8.000000000000000167e-02,8.142479189652787053e-01,2.036297027045239627e+00,-1.522120885150715530e+00,-5.389905531005814154e-01,-9.308429756493087348e-01,1.544213522757274859e+00,5.792789899789132502e-01,1.345127064931399108e+00,-1.994543513348043140e+00,-1.742833954988680933e-01,-3.141594264716450091e+00,-8.213303912262439610e-01,1.602107233331246938e+00,-9.740002135692026997e+00,-6.745940589444573199e+00,-2.043491489811117390e+00,3.074776793406288622e-01,-3.617463192914751897e-03
8.200000000000000344e-02,8.154046757349525665e-01,2.038966514341333358e+00,-1.526098025105367739e+00,-5.392945124310599692e-01,-9.371264124466579526e-01,1.542608196084277905e+00,5.804638922726498285e-01,1.359923083633168162e+00,-2.001880261134549421e+00,-2.078824903795356560e-01,-3.141526136446869621e+00,-8.489738231095306231e-01,1.502644371409724178e+00,-9.732586508180412821e+00,-6.565765537302559629e+00,-1.990174975560790482e+00,2.691388864039630513e-01,-2.761084346707823062e-03
8.400000000000000522e-02,8.165641551350435456e-01,2.041666911073352964e+00,-1.530093440952726480e+00,-5.396640973780659767e-01,-9.434094249773624652e-01,1.540947743412917736e+00,5.813897964098612148e-01,1.373742710275668300e+00,-2.006530908799128543e+00,-2.426179623736938740e-01,-3.141572282352575129e+00,-8.767085621118930749e-01,1.406052077911528864e+00,-9.717333969319396303e+00,-6.382412088961412877e+00,-1.935814325648009371e+00,2.315919655993824711e-01,-1.952545660801758556e-03
8.600000000000000699e-02,8.177258353190924867e-01,2.044396272152037231e+00,-1.534101819795196775e+00,-5.401016404241810731e-01,-9.496924746869654932e-01,1.539231917039239228e+00,5.820592873005151491e-01,1.386581765363199992e+00,-2.008461813899883097e+00,-2.784560952388243082e-01,-3.141608414306237940e+00,-9.044976068242575051e-01,1.310996367838278553e+00,-9.694350044419117296e+00,-6.195215685573840503e+00,-1.880306074387819715e+00,1.941259017792092423e-01,-1.166162349070683918e-03
8.799999999999999489e-02,8.188892001251177888e-01,2.047152641127222061e+00,-1.538117761179063736e+00,-5.406093858673416408e-01,-9.559756791651564667e-01,1.537460565359599185e+00,5.824804208876925848e-01,1.398438164718485366e+00,-2.007636572496688476e+00,-3.153626059824301553e-01,-3.141602860085564330e+00,-9.322999218057193005e-01,1.217110785841667431e+00,-9.663416484030895148e+00,-6.003951088138910208e+00,-1.823622000565083612e+00,1.565615371664037803e-01,-3.952019551523016793e-04
8.999999999999999667e-02,8.200537376131867839e-01,2.049934053507487253e+00,-1.542135802102312825e+00,-5.411895150756586004e-01,-9.622589135094433699e-01,1.535633605453012196e+00,5.826651086170155924e-01,1.409311308773727234e+00,-2.004016827016093405e+00,-3.533028091141913740e-01,-3.141589261560457036e+00,-9.600715846023000211e-01,1.124711168466483446e+00,-9.624087141959920544e+00,-5.808703879093233269e+00,-1.765787242475956198e+00,1.190949171537202950e-01,3.537067046050931481e-04
9.199999999999999845e-02,8.212189547985632165e-01,2.052738543733561905e+00,-1.546150417903257246e+00,-5.418441535722935409e-01,-9.685421029964140782e-01,1.533751024909408622e+00,5.826242084697682566e-01,1.419200937682527863e+00,-1.997564048707687112e+00,-3.922418404429566796e-01,-3.141587745129794218e+00,-9.877653512128506952e-01,1.033969914882406638e+00,-9.576003367664982946e+00,-5.609588895845502243e+00,-1.706843412728019427e+00,8.185648953423660390e-02,1.077088969186681348e-03
9.400000000000000022e-02,8.223843925997095239e-01,2.055564144631725654e+00,-1.550155975484459825e+00,-5.425753289083474762e-01,-9.748252722588699459e-01,1.531812935428117584e+00,5.823665393163791615e-01,1.428107345868412370e+00,-1.988239475192037808e+00,-4.321445298886087971e-01,-3.141591676115163434e+00,-1.015328118039038552e+00,9.447758253718542276e-01,-9.518972373163055778e+00,-5.406761777535940894e+00,-1.646859708132995426e+00,4.484461274500698563e-02,1.777644266053444565e-03
9.600000000000000200e-02,8.235496008123369682e-01,2.058408889078365167e+00,-1.554146806368555067e+00,-5.433850365709854691e-01,-9.811084504476041968e-01,1.529819494986155437e+00,5.819006739579039023e-01,1.436031593783919647e+00,-1.976005443548701557e+00,-4.729756107894661499e-01,-3.141593202910773819e+00,-1.042704394933416934e+00,8.570058074873883047e-01,-9.452832243188240113e+00,-5.200428329268981464e+00,-1.585920165674779225e+00,8.058475084138028849e-03,2.458584860018604278e-03
9.800000000000000377e-02,8.247141560203391508e-01,2.061270811046333584e+00,-1.558117121346825451e+00,-5.442751624742855343e-01,-9.873916373700812876e-01,1.527771028758960759e+00,5.812350181147810657e-01,1.442978294739748035e+00,-1.960829928893408347e+00,-5.146994920765499693e-01,-3.141592377231854805e+00,-1.069829786233146951e+00,7.706255585018179088e-01,-9.377489121467965205e+00,-4.991024669497829969e+00,-1.524168832922609962e+00,-2.842942832557072974e-02,3.122463913375817489e-03
1.000000000000000056e-01,8.258776444103478331e-01,2.064147945687831331e+00,-1.562061089011132609e+00,-5.452475530311354790e-01,-9.936748240204138494e-01,1.525667924054927127e+00,5.803778796313843191e-01,1.448953455462417939e+00,-1.942683290944203334e+00,-5.572804679071122758e-01,-3.141591624605331035e+00,-1.096636515923393507e+00,6.856277451272482226e-01,-9.292874785224817913e+00,-4.779065516900536714e+00,-1.461770295070762060e+00,-6.452313190799091602e-02,3.771716546439131835e-03
1.020000000000000073e-01,8.270396727026619876e-01,2.067038342227069059e+00,-1.565972803568225435e+00,-5.463039669183751279e-01,-9.999580075971707949e-01,1.523510733321745692e+00,5.793367991182528653e-01,1.453967822404658827e+00,-1.921546328628129352e+00,-6.006826092887299628e-01,-3.141591699896999046e+00,-1.123046818141722136e+00,6.019913284122107022e-01,-9.198993986747391105e+00,-4.565175492022683912e+00,-1.398918741052628034e+00,-1.001177274863693095e-01,4.410262134858869594e-03
1.040000000000000091e-01,8.281998647285070403e-01,2.069940061697256084e+00,-1.569846297359031251e+00,-5.474460896470748628e-01,-1.006241190450339440e+00,1.521300146872695436e+00,5.781186773937662116e-01,1.458036100512581479e+00,-1.897408563051693253e+00,-6.448698013682637731e-01,-3.141591970855173610e+00,-1.148974581272923068e+00,5.196838839926420928e-01,-9.095912159282647735e+00,-4.350070547767782791e+00,-1.335832951414706482e+00,-1.351008612703355760e-01,5.043258096407023973e-03
1.059999999999999970e-01,8.293578543558278726e-01,2.072851185956204656e+00,-1.573675586653416225e+00,-5.486755545697559189e-01,-1.012524374151813067e+00,1.519036978542104510e+00,5.767299760332171843e-01,1.461176789147267341e+00,-1.870268463037680240e+00,-6.898058355833418531e-01,-3.141592013809641593e+00,-1.174325245079160585e+00,4.386740573728740711e-01,-8.983707643512120811e+00,-4.134478692026214652e+00,-1.272733178125918352e+00,-1.693559550709896055e-01,5.676753193725617673e-03
1.079999999999999988e-01,8.305132956936893684e-01,2.075769840387801768e+00,-1.577454657534827387e+00,-5.499938888336930454e-01,-1.018807558286272563e+00,1.516722295962544820e+00,5.751762637506410147e-01,1.463416201887269841e+00,-1.840142963856160385e+00,-7.354543160719186901e-01,-3.141591938196289124e+00,-1.198986820017148291e+00,3.589335040762640650e-01,-8.862482314848488585e+00,-3.919147676547750869e+00,-1.209841215548181026e+00,-2.027579270529457633e-01,6.318611939571559463e-03
1.100000000000000006e-01,8.316658481966873184e-01,2.078694169742449027e+00,-1.581177501970890020e+00,-5.514025875982606628e-01,-1.025090742273803146e+00,1.514357256940271679e+00,5.734628261904173296e-01,1.464783128397894263e+00,-1.807054905046672211e+00,-7.817788217538057527e-01,-3.141591898882111877e+00,-1.222840622384841813e+00,2.804319275402982203e-01,-8.732333592878026352e+00,-3.704807239047742673e+00,-1.147372849335896339e+00,-2.351833162612419759e-01,6.977418039509517174e-03
1.120000000000000023e-01,8.328151879913489042e-01,2.081622402256956939e+00,-1.584838170917189704e+00,-5.529030347027372727e-01,-1.031373926077536973e+00,1.511943368404665478e+00,5.715939275104199302e-01,1.465315290372769530e+00,-1.771048553813097559e+00,-8.287429240042939460e-01,-3.141591912769818862e+00,-1.245740957486039413e+00,2.031248867733384256e-01,-8.593313704749581561e+00,-3.492062812606871347e+00,-1.085506308527461439e+00,-2.665250567017540817e-01,7.664701127281451330e-03
1.140000000000000041e-01,8.339609978465407636e-01,2.084552801677974188e+00,-1.588430742837819931e+00,-5.544965685423236534e-01,-1.037657109860213867e+00,1.509482284125388540e+00,5.695734166604707882e-01,1.465054028472972947e+00,-1.732176833291952045e+00,-8.763102015354811147e-01,-3.141591945052996770e+00,-1.267530623381486032e+00,1.269619434877228004e-01,-8.445453961634369122e+00,-3.281465763525103885e+00,-1.024403658905127079e+00,-2.966832997472462208e-01,8.393233221986911435e-03
1.160000000000000059e-01,8.351029694071547826e-01,2.087483725615402186e+00,-1.591949415694437153e+00,-5.561844442260687194e-01,-1.043940293705399869e+00,1.506976014011547793e+00,5.674044177501132991e-01,1.464046764835203129e+00,-1.690506687343639403e+00,-9.244444564316840474e-01,-3.141591959099482079e+00,-1.288021643660014925e+00,5.187717131563493456e-02,-8.288697622192836789e+00,-3.073401420498397485e+00,-9.641805852689874223e-01,-3.255819937252972807e-01,9.178864810122783213e-03
1.180000000000000077e-01,8.362408029688541689e-01,2.090413623303764901e+00,-1.595388504164875432e+00,-5.579678356214237134e-01,-1.050223477619007584e+00,1.504426915644379470e+00,5.650893479763051674e-01,1.462346851592366992e+00,-1.646118728887772109e+00,-9.731097091600870996e-01,-3.141591916728185829e+00,-1.306995992859008693e+00,-2.221046373788836473e-02,-8.122902032871419209e+00,-2.868093100501478698e+00,-9.049075223099500853e-01,-3.531683117357001245e-01,1.004045175799108194e-02
1.199999999999999956e-01,8.373742020525093421e-01,2.093341012082286845e+00,-1.598742425159205061e+00,-5.598478700639738515e-01,-1.056506661557658155e+00,1.501837624051888476e+00,5.626302600573702684e-01,1.460010362462098810e+00,-1.599099079080103403e+00,-1.022270225633584273e+00,-3.141591837495938400e+00,-1.324209960729920033e+00,-9.538886590459776105e-02,-7.947885396756976029e+00,-2.665676232112072164e+00,-8.466321597873862626e-01,-3.794036014690587710e-01,1.099927159189046516e-02
1.219999999999999973e-01,8.385028774234838389e-01,2.096264571824365319e+00,-1.602005841753704862e+00,-5.618255657959514426e-01,-1.062789845361528984e+00,1.499211439084235931e+00,5.600283596020545485e-01,1.457099628205418274e+00,-1.549546347749841901e+00,-1.071890869267288604e+00,-3.141591887068934774e+00,-1.339358066456372676e+00,-1.677617198845595126e-01,-7.763375990088717593e+00,-2.466081089638523238e+00,-7.893494436485960497e-01,-4.042826026337162371e-01,1.208240772498304222e-02
1.239999999999999991e-01,8.396265414090505752e-01,2.099183033326310621e+00,-1.605173496043444725e+00,-5.639019098956719045e-01,-1.069073028928982261e+00,1.496551891626138442e+00,5.572846250794530887e-01,1.453678489029900156e+00,-1.497561828350694624e+00,-1.121936759335847578e+00,-3.141592176107512735e+00,-1.352112940475723502e+00,-2.394389986624422539e-01,-7.569056489407790522e+00,-2.269172965490338090e+00,-7.330374475959844371e-01,-4.278104542743981220e-01,1.331822904417361529e-02
1.260000000000000009e-01,8.407449095282549800e-01,2.102095315545997600e+00,-1.608240429000355576e+00,-5.660777852798277721e-01,-1.075356212718356907e+00,1.493863449118483455e+00,5.543993351181795148e-01,1.449814719312926936e+00,-1.443252251059960800e+00,-1.172374210731428112e+00,-3.141592244745358808e+00,-1.362057093099130922e+00,-3.105588091118819949e-01,-7.364377577609872105e+00,-2.074574469864366666e+00,-6.776106362846886499e-01,-4.500304932109797651e-01,1.473790992164287703e-02
1.280000000000000027e-01,8.418576987195692807e-01,2.105000426182502160e+00,-1.611201822462368982e+00,-5.683540261181153630e-01,-1.081639397386858770e+00,1.491151028605870899e+00,5.513724447604742007e-01,1.445577915245070288e+00,-1.386726758314379193e+00,-1.223170093611638309e+00,-3.141591429862864437e+00,-1.368730389054916285e+00,-3.812700735570939692e-01,-7.148697060814970250e+00,-1.881804421087111878e+00,-6.229564197814794202e-01,-4.710024723664772983e-01,1.637372148905754179e-02
1.300000000000000044e-01,8.429646258553602500e-01,2.107897519418871379e+00,-1.614053088240191558e+00,-5.707313967160873025e-01,-1.087922582090156576e+00,1.488420510969954202e+00,5.482035565106430086e-01,1.441039736934123017e+00,-1.328094215741301376e+00,-1.274291953059917937e+00,-3.141590579129788452e+00,-1.371598289637519841e+00,-4.516707553250590701e-01,-6.921683299439143511e+00,-1.690509400565050946e+00,-5.690001551005218206e-01,-4.907683943339123944e-01,1.825339542901107184e-02
1.320000000000000062e-01,8.440654077243494591e-01,2.110785916651171767e+00,-1.616789900647551237e+00,-5.732105816648211949e-01,-1.094205764266364067e+00,1.485678878118341872e+00,5.448918709854735365e-01,1.436274196612642884e+00,-1.267463158713392213e+00,-1.325708104620951122e+00,-3.141592268374097330e+00,-1.370041320109648186e+00,-5.218004857183892176e-01,-6.683360121707958790e+00,-1.500482509466978032e+00,-5.157106904734205521e-01,-5.093498855954022853e-01,2.039944983458318734e-02
1.340000000000000080e-01,8.451597602677528576e-01,2.113665024533836423e+00,-1.619408059760784058e+00,-5.757922287100432079e-01,-1.100488944002486091e+00,1.482933812860905309e+00,5.414363230752674561e-01,1.431355182616604882e+00,-1.204940834575496833e+00,-1.377388482872992981e+00,-3.141596410631918967e+00,-1.363410636011673782e+00,-5.917572662403093320e-01,-6.433147611676900191e+00,-1.311167920783739005e+00,-4.629426650346861738e-01,-5.268025358352594889e-01,2.281391385107860853e-02
1.360000000000000098e-01,8.462473968824766324e-01,2.116534479423831883e+00,-1.621903701864473524e+00,-5.784768875608871097e-01,-1.106772129664986615e+00,1.480194931609275732e+00,5.378351120339219804e-01,1.426355820447622991e+00,-1.140630657444883456e+00,-1.429307781964384683e+00,-3.141594595774634069e+00,-1.350982784225269517e+00,-6.618249286001893772e-01,-6.168584724691489996e+00,-1.120932367884760028e+00,-4.101987952455419251e-01,-5.432878190492519410e-01,2.543783402436058591e-02
1.380000000000000115e-01,8.473280298685991196e-01,2.119393984132198483e+00,-1.624273059192801183e+00,-5.812650817137046122e-01,-1.113055327993716759e+00,1.477472449460575543e+00,5.340862991943657878e-01,1.421349826100754443e+00,-1.074634522638824530e+00,-1.481441080262031029e+00,-3.141580048670923997e+00,-1.332044902312005563e+00,-7.322265069474448440e-01,-5.887611590004374840e+00,-9.283597070935339923e-01,-3.570398484004094208e-01,-5.589339422018730907e-01,2.820338179876404061e-02
1.400000000000000133e-01,8.484013659744131797e-01,2.122243450434820655e+00,-1.626512658016028290e+00,-5.841572647693318299e-01,-1.119338517169859548e+00,1.474778693071662428e+00,5.301879488043210742e-01,1.416417500797639395e+00,-1.007047160707386091e+00,-1.533758877550795541e+00,-3.141574701783873991e+00,-1.306104981092137685e+00,-8.023260891548250617e-01,-5.594940553233332281e+00,-7.357991109623721604e-01,-3.041409829467492387e-01,-5.733920299569319479e-01,3.106592664590857727e-02
1.420000000000000151e-01,8.494671089292539223e-01,2.125082904239875781e+00,-1.628619183971212303e+00,-5.871538519753048968e-01,-1.125621661992214362e+00,1.472127120881682183e+00,5.261380754953205452e-01,1.411642199142596477e+00,-9.379595031354843737e-01,-1.586229824966759905e+00,-3.141613939756260354e+00,-1.272789348414907096e+00,-8.710832219255002506e-01,-5.298479235898898132e+00,-5.473744160891499400e-01,-2.527020822405706135e-01,-5.860893023470505891e-01,3.399048823537988151e-02
1.440000000000000169e-01,8.505249587378574949e-01,2.127912532692211034e+00,-1.630589497921861364e+00,-5.902551971791997198e-01,-1.131904798295998882e+00,1.469531917166226442e+00,5.219325451756501311e-01,1.407089534500439720e+00,-8.674617492904939109e-01,-1.638846431023522454e+00,-3.141661740696759963e+00,-1.231798615967866883e+00,-9.395080779836476603e-01,-4.990208535061626094e+00,-3.582747984819247278e-01,-2.012573484663295054e-01,-5.976250788680935733e-01,3.683312867410355046e-02
1.459999999999999909e-01,8.515746104349817269e-01,2.130732738278496186e+00,-1.632420694330029898e+00,-5.934615721642544361e-01,-1.138188057558285005e+00,1.467008228100903811e+00,5.175643362502111433e-01,1.402801237236798837e+00,-7.956431603194754620e-01,-1.691633293484283485e+00,-3.141585942542560961e+00,-1.182931817218715320e+00,-1.011371969640471935e+00,-4.640663640717995975e+00,-1.516589165841030762e-01,-1.447517049085347562e-01,-6.101768081978945490e-01,3.930334635288301737e-02
1.479999999999999927e-01,8.526157524520614484e-01,2.133543973292239215e+00,-1.634109961289727186e+00,-5.967732661913169867e-01,-1.144471457720876995e+00,1.464571435462890925e+00,5.130290985916257096e-01,1.398844583273027409e+00,-7.225852596551955997e-01,-1.744586408349935169e+00,-3.141368510005829062e+00,-1.126281623765323037e+00,-1.087199370217769134e+00,-4.247207486934629017e+00,7.440122961843791127e-02,-8.264663652361069202e-02,-6.241359600695411958e-01,4.135354724472684734e-02
1.499999999999999944e-01,8.536480505841833599e-01,2.136346815513170849e+00,-1.635654766362092616e+00,-6.001906526620582882e-01,-1.150754581447050562e+00,1.462237529052378582e+00,5.083328862031414319e-01,1.395385388015501826e+00,-6.483418025993143985e-01,-1.797590082149184587e+00,-3.141428954083416603e+00,-1.062978495585291006e+00,-1.155060203423661891e+00,-3.909763268685313875e+00,2.647934248371843768e-01,-3.166467969353750633e-02,-6.330280750810535206e-01,4.385263853592746147e-02
1.519999999999999962e-01,8.546711675769752548e-01,2.139141917425496420e+00,-1.637052652008472498e+00,-6.037140892971161188e-01,-1.157037040630067848e+00,1.460022299998687378e+00,5.034811907997828184e-01,1.392580678906768288e+00,-5.729662054394362158e-01,-1.850541349515191225e+00,-3.142157401824330343e+00,-9.941068286279434174e-01,-1.203824270805821106e+00,-3.730304879998085799e+00,3.642033542715102934e-01,-8.755690685773850901e-03,-6.311257598392520096e-01,4.772895269357063652e-02
1.539999999999999980e-01,8.556847891487078250e-01,2.141930445505074943e+00,-1.638301290415295597e+00,-6.073435486568113939e-01,-1.163319863895372119e+00,1.457937809060364298e+00,4.984471542269389155e-01,1.390242672709767202e+00,-4.965778110988069982e-01,-1.903758777305538885e+00,-3.142519848448896980e+00,-9.176354071201684448e-01,-1.262493366176514087e+00,-3.576170217608664714e+00,4.582252592844678896e-01,9.927359260608061356e-03,-6.382221268286160099e-01,5.227010466027904451e-02
1.559999999999999998e-01,8.566886140502131264e-01,2.144713875540333881e+00,-1.639398438987514250e+00,-6.110787791462979346e-01,-1.169604910286316857e+00,1.455993900781744177e+00,4.931854170748024013e-01,1.387977124597587153e+00,-4.193352995043698739e-01,-1.957814034793064151e+00,-3.140647533692844551e+00,-8.296587001839162978e-01,-1.383624921155776066e+00,-3.170783298591949073e+00,7.179147877207497919e-01,7.311787899480828856e-02,-6.888775286122940100e-01,5.573228986846420069e-02
1.580000000000000016e-01,8.576822598509349360e-01,2.147492989971694577e+00,-1.640342133364492527e+00,-6.149205321694516391e-01,-1.175890724031622980e+00,1.454207268503509898e+00,4.877555016779338559e-01,1.385920851687716171e+00,-3.412870836457265189e-01,-2.012674079837605934e+00,-3.138003808135771067e+00,-7.305128809623249175e-01,-1.527921524940253351e+00,-2.382126838160572913e+00,1.166373796305956612e+00,1.957724012158691407e-01,-7.457977632108506727e-01,5.579279421094186786e-02
1.600000000000000033e-01,8.586652153976298552e-01,2.150267467108166741e+00,-1.641130847245748203e+00,-6.188711510165496588e-01,-1.182170586180168126e+00,1.452605491910499591e+00,4.823832726534137416e-01,1.385055637910735493e+00,-2.623062166557583175e-01,-2.067343288971017934e+00,-3.141342664804476659e+00,-6.272884507622386030e-01,-1.510227893160839052e+00,-1.310291818093028304e+00,1.590626736503617300e+00,3.388236754004793072e-01,-6.576772714407395082e-01,4.923792513709348423e-02
1.620000000000000051e-01,8.596371315291561066e-01,2.153037649034160950e+00,-1.641762990391888000e+00,-6.229323408469952250e-01,-1.188442516991428333e+00,1.451211572733594579e+00,4.770855188225600618e-01,1.386204955749814172e+00,-1.822882272190925745e-01,-2.120927117371427251e+00,-3.152654191244755211e+00,-5.261806923616842990e-01,-1.204951706432814795e+00,-7.171342037387698487e-02,1.823129909068960108e+00,4.681502527563237703e-01,-3.225803794697409410e-01,3.441570511313408326e-02
1.640000000000000069e-01,8.605984131956285754e-01,2.155807189568181848e+00,-1.642236526034120958e+00,-6.271024191165400774e-01,-1.194727174494871536e+00,1.450024414541712714e+00,4.709056529728885554e-01,1.389178817362846985e+00,-1.012938237253923762e-01,-2.173340749281848616e+00,-3.151172730658376775e+00,-4.268942267806869473e-01,-8.016590773606601106e-01,1.235313769892647739e+00,1.984716085181574829e+00,5.919130123641038743e-01,1.028507768092118413e-01,1.680975100565277811e-02
1.660000000000000087e-01,8.615494438509260222e-01,2.158580556422299068e+00,-1.642549315611073535e+00,-6.313788074994707289e-01,-1.201046371798165646e+00,1.449036752350303159e+00,4.627073050068458149e-01,1.393552258381214326e+00,-1.942582555538485689e-02,-2.224707428057048464e+00,-3.111781976977294750e+00,-3.274722226320651020e-01,-5.604921489334659945e-01,2.522353254413102874e+00,2.263862669310516829e+00,7.286855489435163369e-01,4.039405609543731956e-01,3.440279781284712787e-03
1.680000000000000104e-01,8.624874521372256631e-01,2.161361014800101010e+00,-1.642699493392237420e+00,-6.357592771764288830e-01,-1.207352295564878331e+00,1.448246642245380134e+00,4.525354341993628737e-01,1.399464601803902974e+00,6.325180378337579012e-02,-2.274982576259831024e+00,-3.034926173056285315e+00,-2.273910654943381848e-01,-5.313577711955925764e-01,3.769598523131652446e+00,2.699386687795028550e+00,8.819864374357352377e-01,5.367214591783209254e-01,-4.286819132725401722e-03
1.700000000000000122e-01,8.634073660547040285e-01,2.164150955983112468e+00,-1.642685394285850364e+00,-6.402418532403123530e-01,-1.213546343914477132e+00,1.447656035591261325e+00,4.412989073837180753e-01,1.407467772949565932e+00,1.467035721123069181e-01,-2.323998804999918288e+00,-2.939745067334318840e+00,-1.271763243995621129e-01,-6.102351905326280912e-01,5.007494372511667180e+00,3.220511733591366887e+00,1.044311699076523325e+00,5.822276174817202499e-01,-9.076822882914463778e-03
1.720000000000000140e-01,8.643054839860699889e-01,2.166953611110563394e+00,-1.642505411003464699e+00,-6.448243060646878799e-01,-1.219558735208194467e+00,1.447266130033090903e+00,4.296482885375035310e-01,1.417983590939327687e+00,2.308913257179303069e-01,-2.371616873638823897e+00,-2.840109278275957827e+00,-2.715056080295413093e-02,-7.199522135054975402e-01,6.258046494799301307e+00,3.773827234441279543e+00,1.210114964190489584e+00,6.012270381607203174e-01,-1.297477382937926339e-02
1.740000000000000158e-01,8.651807612821521554e-01,2.169773816642817543e+00,-1.642158035535236538e+00,-6.495039196260929959e-01,-1.225375669299322068e+00,1.447076548840845467e+00,4.177148394725890279e-01,1.431173273210440966e+00,3.157707189864257802e-01,-2.417755363955303771e+00,-2.739250061246626622e+00,7.278770889856597814e-02,-8.400702082577466978e-01,7.525347653571715867e+00,4.343049423900476214e+00,1.377977848837717678e+00,6.112847108703716170e-01,-1.661656825952358141e-02
1.759999999999999898e-01,8.660324881395032870e-01,2.172616663352534783e+00,-1.641641797422590976e+00,-6.542778801689582702e-01,-1.230990696710276389e+00,1.447086830680830660e+00,4.055595331695971972e-01,1.447160015213810436e+00,4.012981949443695795e-01,-2.462338442480954015e+00,-2.638904509013139776e+00,1.727627547777096928e-01,-9.587216174421200332e-01,8.809550609565942381e+00,4.917309341084961538e+00,1.546895502452017013e+00,6.231065739259258329e-01,-2.040074544280289295e-02
1.779999999999999916e-01,8.668601857188401594e-01,2.175487653730552307e+00,-1.640955365893766116e+00,-6.591431409634544991e-01,-1.236403781331929963e+00,1.447296973029090106e+00,3.931728500173619634e-01,1.466017249374958809e+00,4.874378703565390714e-01,-2.505286392086320202e+00,-2.539082325520511940e+00,2.727752658868769498e-01,-1.076409120337326053e+00,1.010044474545504123e+01,5.492816956672323059e+00,1.715663456059339120e+00,6.362402516773347783e-01,-2.429052315306379911e-02
1.799999999999999933e-01,8.676634460805847660e-01,2.178392432271923695e+00,-1.640097460250663719e+00,-6.640965683326873759e-01,-1.241616903149479922e+00,1.447707117591333859e+00,3.805231618689811079e-01,1.487800835254632137e+00,5.741565005047402082e-01,-2.546519202828508188e+00,-2.439250196512763313e+00,3.727870827209544546e-01,-1.197525458689391309e+00,1.138459254681337285e+01,6.068019926945152243e+00,1.883018698834688420e+00,6.467277973289079496e-01,-2.811226467982339342e-02
1.819999999999999951e-01,8.684417826417606401e-01,2.181336781917889045e+00,-1.639066880571511620e+00,-6.691348326388232293e-01,-1.246630703421333530e+00,1.448317310285394344e+00,3.675944718898002672e-01,1.512542596986393262e+00,6.614232747097172904e-01,-2.585974232514154814e+00,-2.339235391287782129e+00,4.727858445310716418e-01,-1.323905801934065485e+00,1.265127129408570283e+01,6.640108872994428424e+00,2.047814994619086004e+00,6.529785452427204762e-01,-3.178306592973211692e-02
1.839999999999999969e-01,8.691946410060723549e-01,2.184326604908711111e+00,-1.637862496703619497e+00,-6.742544351169605932e-01,-1.251444669860286574e+00,1.449127514491204805e+00,3.543842533005653328e-01,1.540253591128730948e+00,7.492094859132137907e-01,-2.623603867452919403e+00,-2.239175884495052671e+00,5.727814206775336814e-01,-1.455181723770347268e+00,1.389210198456242296e+01,7.205193055154509807e+00,2.209007281401376144e+00,6.554418135705516457e-01,-3.529821453732200076e-02
1.859999999999999987e-01,8.699214618139661237e-01,2.187367821384208266e+00,-1.636483219171934067e+00,-6.794518082309768392e-01,-1.256058451350747118e+00,1.450137705116777420e+00,3.408884320821544689e-01,1.570931004357287719e+00,8.374880190446077899e-01,-2.659373752275088432e+00,-2.139166240953792819e+00,6.727805750260030804e-01,-1.591336489040440449e+00,1.509936725239703925e+01,7.759931210568937310e+00,2.365660172987697596e+00,6.543202108042687204e-01,-3.864405238221060856e-02
1.880000000000000004e-01,8.706216796370618294e-01,2.190466382433160497e+00,-1.634928043400805997e+00,-6.847232446125780525e-01,-1.260472136615608418e+00,1.451347888532398711e+00,3.270985384416842390e-01,1.604542856535761564e+00,9.262351270680643234e-01,-2.693277761325272746e+00,-2.039182558999002026e+00,7.727815962858568533e-01,-1.733290446592570921e+00,1.626664319377029599e+01,8.302275317771339758e+00,2.517073480183853906e+00,6.491232343498841706e-01,-4.178148356081801823e-02
1.900000000000000022e-01,8.712947238268621275e-01,2.193628226030182926e+00,-1.633195987385169134e+00,-6.900650170348908707e-01,-1.264685854145020105e+00,1.452758073952139073e+00,3.130056607456238038e-01,1.641050594012595010e+00,1.015427944707942398e+00,-2.725319630055945908e+00,-1.939190226250327331e+00,8.727820069791438762e-01,-1.881989402993016425e+00,1.738805219165275062e+01,8.830464347385685642e+00,2.662621525508836573e+00,6.393177638987035394e-01,-4.467045833335182153e-02
1.920000000000000040e-01,8.719399958797210415e-01,2.196859181080085932e+00,-1.631286139920953060e+00,-6.954733910945689601e-01,-1.268699611557061457e+00,1.454368261938703943e+00,2.986018147333626138e-01,1.680398800477815202e+00,1.105046329255385817e+00,-2.755541526855618706e+00,-1.839187187589075290e+00,9.727816591903720722e-01,-2.037747081469840182e+00,1.846007456682879067e+01,9.343456675164874881e+00,2.801950511813498412e+00,6.246878594669904583e-01,-4.728642461501507410e-02
1.940000000000000058e-01,8.725568857500370923e-01,2.200165028071897844e+00,-1.629197619209813652e+00,-7.009446350629712219e-01,-1.272513370402755140e+00,1.456178449757463911e+00,2.838793737496794201e-01,1.722525322137010928e+00,1.195071274437317310e+00,-2.784001757457582826e+00,-1.739183796223569889e+00,1.072781292861367142e+00,-2.200679224989347205e+00,1.948017568235027497e+01,9.840523785842069771e+00,2.934821567485380811e+00,6.051377893228726546e-01,-4.961093958071427501e-02
1.960000000000000075e-01,8.731447671516133768e-01,2.203551408290328695e+00,-1.626929586349710855e+00,-7.064751455787227075e-01,-1.276127116029819542e+00,1.458188636374565972e+00,2.688306262524979839e-01,1.767364032599477941e+00,1.285485556661229989e+00,-2.810786020293891685e+00,-1.639183996234533147e+00,1.172781189509015443e+00,-2.372033259022071849e+00,2.044738378013609648e+01,1.032170905987291221e+01,3.061207613325305665e+00,5.804935063413430019e-01,-5.162726746092524688e-02
1.980000000000000093e-01,8.737029973798734472e-01,2.207023822197160090e+00,-1.624481245786307593e+00,-7.120614493475531104e-01,-1.279540857950134392e+00,1.460398822483202519e+00,2.534477699633534420e-01,1.814844806223286255e+00,1.376273754289204287e+00,-2.836007698460362825e+00,-1.539185223603509289e+00,1.272781165145485893e+00,-2.554197604298795721e+00,2.136230551302037384e+01,1.078783556497261564e+01,3.181295487543081002e+00,5.505018047692571415e-01,-5.332039709417080858e-02
2.000000000000000111e-01,8.742309222565479709e-01,2.210587682566045320e+00,-1.621851821607288358e+00,-7.177002114524079213e-01,-1.282754603437989083e+00,1.462809008615773676e+00,2.377208946283443647e-01,1.864898786602773750e+00,1.467421426797862916e+00,-2.859791518761921836e+00,-1.439185517141053694e+00,1.372781078953978495e+00,-2.747589540545721132e+00,2.222568918299342400e+01,1.123965394604794454e+01,3.295279750573255395e+00,5.150688733290925692e-01,-5.468171284882372002e-02
2.020000000000000129e-01,8.747278593327569851e-01,2.214248187902043696e+00,-1.619040584518810055e+00,-7.233884458595929434e-01,-1.285768351060921910e+00,1.465419194680107839e+00,2.216345546376296549e-01,1.917460923295138731e+00,1.558916504635341038e+00,-2.882288821937643686e+00,-1.339185261112916470e+00,1.472780958019128450e+00,-2.947307259027730275e+00,2.303847157158256209e+01,1.167763332406318177e+01,3.403350316776600160e+00,4.745294943754091443e-01,-5.571922405998302325e-02
2.040000000000000147e-01,8.751931173887728121e-01,2.218010477055127438e+00,-1.616046817376856071e+00,-7.291232833333173291e-01,-1.288582098265797393e+00,1.468229380503435877e+00,2.051739011364350218e-01,1.972467784253537193e+00,1.650747520785968092e+00,-2.903656111537499473e+00,-1.239185141714781890e+00,1.572780851050985529e+00,-3.150176665348131788e+00,2.380223346232280690e+01,1.210263313601775437e+01,3.505791373422670887e+00,4.291026866795070727e-01,-5.643941125640083989e-02
2.060000000000000164e-01,8.756259731362112664e-01,2.221879498184632151e+00,-1.612869838159146418e+00,-7.349023160935262977e-01,-1.291195844756983124e+00,1.471239566073347271e+00,1.883355714257724522e-01,2.029863614246393055e+00,1.742904676323582702e+00,-2.924056327447863257e+00,-1.139185237308184995e+00,1.672780763335561582e+00,-3.372922415919874517e+00,2.452326452787296773e+01,1.251886044986095747e+01,3.603616636082546343e+00,3.775841196072039496e-01,-5.681628014329319354e-02
2.080000000000000182e-01,8.760256872454497135e-01,2.225860107812287048e+00,-1.609508981639594660e+00,-7.407233606064046461e-01,-1.293609591271412729e+00,1.474449751450751744e+00,1.711202384442709057e-01,2.089596513766194263e+00,1.835379036865809388e+00,-2.943655449903990640e+00,-1.039185348240297513e+00,1.772780680298547740e+00,-3.639912638185454963e+00,2.520972716375143108e+01,1.293183602829779133e+01,3.698128384169649507e+00,3.182237254192035736e-01,-5.681174430280818560e-02
2.099999999999999922e-01,8.763914823543389465e-01,2.229957056250106096e+00,-1.605963599537446163e+00,-7.465845700488817904e-01,-1.295823338130284386e+00,1.477859936666210849e+00,1.534874881907205280e-01,2.151624188910064461e+00,1.928164610661943223e+00,-2.962621358704434549e+00,-9.391853869388646636e-01,1.872780595410951099e+00,-3.925199602906363161e+00,2.585992309627948771e+01,1.333950559183972473e+01,3.789051018300261475e+00,2.529024148507640901e-01,-5.648205660214464241e-02
2.119999999999999940e-01,8.767225360550859881e-01,2.234174968323329402e+00,-1.602233063578806682e+00,-7.524844958818682761e-01,-1.297837085154672776e+00,1.481470121713789112e+00,1.353481384413678656e-01,2.215915722823048828e+00,2.021258892672144203e+00,-2.981124162199551009e+00,-8.391854006606036531e-01,1.972780511821403682e+00,-4.143101765741360687e+00,2.646044560444171623e+01,1.373082102384046088e+01,3.874235442542131036e+00,1.878116802102157978e-01,-5.599545472443593491e-02
2.139999999999999958e-01,8.770180076844675821e-01,2.238518428645108305e+00,-1.598316752000746854e+00,-7.584218918017174849e-01,-1.299650832191059813e+00,1.485280306589106480e+00,1.166734136467609262e-01,2.282442225870281671e+00,2.114658453127230331e+00,-2.999318595694689726e+00,-7.391854298617086538e-01,2.072780432210027612e+00,-4.296736851247318079e+00,2.701609800013320140e+01,1.410841968811039671e+01,3.954415366480399818e+00,1.227497945814164243e-01,-5.535825887693597569e-02
2.159999999999999976e-01,8.772770073979569982e-01,2.242991918293269382e+00,-1.594214059861233768e+00,-7.643960747462980043e-01,-1.301264579257216614e+00,1.489290491299342101e+00,9.763342329625768201e-02,2.351179105088585963e+00,2.208356316976129108e+00,-3.017310640276712697e+00,-6.391854689757411334e-01,2.172780356015278969e+00,-4.679403710514979053e+00,2.759109205446766921e+01,1.451962203920528083e+01,4.039733016863806370e+00,3.662124098134154904e-02,-5.404710996310220505e-02
2.179999999999999993e-01,8.774986129944234436e-01,2.247599894313039304e+00,-1.589924384331722784e+00,-7.704064888641687370e-01,-1.302678326400103614e+00,1.493500675853573378e+00,7.835796910334298648e-02,2.422108363621642724e+00,2.302347985539030528e+00,-3.035206020294831220e+00,-5.391855046045818112e-01,2.272780282120682838e+00,-5.538604643684657880e+00,2.824075811955220772e+01,1.500489771780574344e+01,4.138920633948637295e+00,-8.836300553470323449e-02,-5.162611421383614396e-02
2.200000000000000011e-01,8.776816885912652744e-01,2.252346778641670433e+00,-1.585447111438484935e+00,-7.764527360962197866e-01,-1.303892073625327885e+00,1.497910860257412491e+00,5.823077692655413001e-02,2.495266133381190965e+00,2.396658796978791806e+00,-3.053197978480994390e+00,-4.391855345665179877e-01,2.372780210168822013e+00,-6.155721143270399764e+00,2.882728544824963635e+01,1.545784162160654418e+01,4.230090376476249858e+00,-2.003438998521297199e-01,-4.945929487432312865e-02
2.220000000000000029e-01,8.778249824202455365e-01,2.257236974928052753e+00,-1.580781621153508620e+00,-7.825345209801541912e-01,-1.304905820915982728e+00,1.502521044514581572e+00,3.626336606587036993e-02,2.570716807857459596e+00,2.491329390674743127e+00,-3.071519752474603848e+00,-3.391855627880373536e-01,2.472780140219184464e+00,-5.336388155752097795e+00,2.911797559780537270e+01,1.569987583658277330e+01,4.276352528000012754e+00,-2.131653804923053508e-01,-4.980410218259553878e-02
2.240000000000000047e-01,8.779273013195481035e-01,2.262274930900017189e+00,-1.575927296050615878e+00,-7.886522848544418318e-01,-1.305719568262425412e+00,1.507331228629068320e+00,1.315729180087054674e-02,2.648459796845228809e+00,2.586351885463830325e+00,-3.090038286063477191e+00,-2.391855912749994151e-01,2.572780072363331616e+00,-4.360579018544978425e+00,2.938490006831879242e+01,1.593558099772000958e+01,4.322738234555417058e+00,-2.190364956720973200e-01,-5.063333963741507154e-02
2.260000000000000064e-01,8.779875355198942799e-01,2.267465156022921757e+00,-1.570883522418599298e+00,-7.948074951660150100e-01,-1.306333315665470618e+00,1.512341412605260782e+00,-8.023554580524583715e-03,2.728403475874296547e+00,2.681650512125627994e+00,-3.108109093094876041e+00,-1.391856192671123427e-01,2.672780006731584557e+00,-7.965926863987750295e+00,3.060546656113229957e+01,1.690494375650754932e+01,4.528744418852954645e+00,-5.594150957405723545e-01,-4.393140974079159933e-02
2.280000000000000082e-01,8.780039805137409559e-01,2.272812214169930289e+00,-1.565649619687209615e+00,-8.010006563945336611e-01,-1.306747063125965225e+00,1.517551596447406670e+00,-2.722255797860555909e-02,2.810571159475200087e+00,2.777265197191459034e+00,-3.124796102141564003e+00,-3.918564601738552117e-02,2.772779943212006604e+00,-1.876643235817734023e+01,3.300061711054767244e+01,1.883520240262987500e+01,4.934252873568418352e+00,-1.418433736349474339e+00,-2.468450244807757210e-02
2.300000000000000100e-01,8.779726639087120921e-01,2.278320857265390575e+00,-1.560224653920540439e+00,-8.072283515247482555e-01,-1.306960810641957682e+00,1.522961780159117318e+00,-5.639388907611633805e-02,2.895445426609786210e+00,2.873691507754813301e+00,-3.138205976777897366e+00,6.081432839657872902e-02,2.872779880767535765e+00,-3.039353798370780169e+01,3.373893580005063342e+01,1.986859742977307874e+01,5.095673559513520523e+00,-2.316702320307658436e+00,-8.840057097323807123e-04
2.320000000000000118e-01,8.778890783967039368e-01,2.283995881588431143e+00,-1.554607631422472380e+00,-8.134862385961603160e-01,-1.306974558210834525e+00,1.528571963743853290e+00,-1.103246482152675650e-01,2.983617180861832363e+00,2.971532480785505470e+00,-3.146219594817408982e+00,1.608143037026852351e-01,2.972779818142900154e+00,-3.436001089610954295e+01,2.926906086388790129e+01,1.765559034203905497e+01,4.455382125606289101e+00,-2.618328666629202051e+00,1.641121535826902192e-02
2.340000000000000135e-01,8.777487166696134047e-01,2.289842083418181851e+00,-1.548797558496888271e+00,-8.197699756482719202e-01,-1.306788305829983843e+00,1.534382147205075153e+00,-2.038019357382699626e-01,3.075677325815116880e+00,3.071391153253351103e+00,-3.146717834073633480e+00,2.608142796288389076e-01,3.072779754082834991e+00,-2.217861825091299011e+01,1.603963053630620905e+01,9.846642643529733618e+00,2.455754220764755580e+00,-1.687420594328181256e+00,1.614229563995166553e-02
2.360000000000000153e-01,8.773225764849438280e-01,2.295974100813613195e+00,-1.542570895943525811e+00,-8.263286070714043197e-01,-1.306479021008018160e+00,1.540699026762591961e+00,-2.863330004632367864e-01,3.135685303119341683e+00,3.122885053602089123e+00,-3.110608153948188015e+00,3.459466758442019674e-01,3.112798655465827569e+00,9.486589400387352100e+00,-3.255369939487984965e+01,-1.309549004420699170e+01,-3.988525774048424122e+00,-5.951839394839663483e-02,-1.639108396825410957e-02
2.380000000000000171e-01,8.764405113319768681e-01,2.302383283675682790e+00,-1.535862883085417074e+00,-8.332973471899686180e-01,-1.306186963227107034e+00,1.547636111987838126e+00,-2.481397884759260486e-01,3.117719908150976327e+00,3.061956736898740594e+00,-3.018143998546041207e+00,3.946991816927311048e-01,3.020806920237726345e+00,8.692933231993956511e+00,-3.254659127093544413e+01,-1.315242367514147048e+01,-4.029246141846516416e+00,-1.155881027320493915e-01,-1.081873420754366280e-02
2.400000000000000189e-01,8.756487603964137056e-01,2.308753037459689406e+00,-1.529272959571541524e+00,-8.400399010063070993e-01,-1.305773222577138126e+00,1.554383214233606925e+00,-2.125536097047568962e-01,3.101158014520036588e+00,2.999668358736589546e+00,-2.935759360248632266e+00,4.381889681068742992e-01,2.929348974022781160e+00,7.934481128019154283e+00,-3.253944494717282510e+01,-1.320299873736209939e+01,-4.067392261479394477e+00,-1.685590625518639529e-01,-5.668278198777571344e-03
2.420000000000000207e-01,8.749431055611732733e-01,2.315084960999090669e+00,-1.522802738135761391e+00,-8.465704615752113193e-01,-1.305245652449301907e+00,1.560941726017210041e+00,-1.794836513068011064e-01,3.085889458711811084e+00,2.936120893274644317e+00,-2.862910247988217360e+00,4.766596782451762992e-01,2.838454445496833234e+00,7.210563257061401110e+00,-3.253224998302796678e+01,-1.324748123030510172e+01,-4.103045804433815391e+00,-2.184710628845713820e-01,-9.234596114705525324e-04
2.440000000000000224e-01,8.743193287091760579e-01,2.321380653127347760e+00,-1.516453831511940242e+00,-8.529032219514763868e-01,-1.304612106234792179e+00,1.567313039855963597e+00,-1.488391004391307337e-01,3.071804077211597761e+00,2.871415314671918129e+00,-2.799052670697061540e+00,5.103549552661825750e-01,2.748152963335733556e+00,6.520509787719181993e+00,-3.252499593793685762e+01,-1.328613715340675050e+01,-4.136288442196547344e+00,-2.653638932069029566e-01,3.431977884862658524e-03
2.460000000000000242e-01,8.737732117233423246e-01,2.327641712677920971e+00,-1.510227852433940532e+00,-8.590523751898956339e-01,-1.303880437324799635e+00,1.573498548267180830e+00,-1.205291442588177914e-01,3.058791706504688346e+00,2.805652597087423317e+00,-2.743642637307425858e+00,5.395184423284380415e-01,2.658474156215327344e+00,5.863650888590968613e+00,-3.251767237133547894e+01,-1.331923250610328679e+01,-4.167201846254348752e+00,-3.092773429955897879e-01,7.414290620707332351e-03
2.480000000000000260e-01,8.733005364865920050e-01,2.333869738484269707e+00,-1.504126413635626047e+00,-8.650321143452628370e-01,-1.303058499110516744e+00,1.579499643768176531e+00,-9.446296992293427841e-02,3.046742183076377231e+00,2.738933714680170439e+00,-2.696136156751571367e+00,5.643937825904876693e-01,2.569447652811462035e+00,5.239316728275238866e+00,-3.251026884265982630e+01,-1.334703328783097120e+01,-4.195867688093986025e+00,-3.502512017273631262e-01,1.103973492654873600e-02
2.500000000000000000e-01,8.728970848818448092e-01,2.340066329379855148e+00,-1.498151127850859465e+00,-8.708566324723713281e-01,-1.302154144983135753e+00,1.585317718876265047e+00,-7.054976458855212462e-02,3.035545343411958807e+00,2.671359641609172719e+00,-2.655989237961760008e+00,5.852246192108767620e-01,2.481103081799983734e+00,4.646837475370461767e+00,-3.250277491134585972e+01,-1.336980549802604479e+01,-4.222367639202222023e+00,-3.883252588789540827e-01,1.432456713287214370e-02
2.520000000000000018e-01,8.725586387920216680e-01,2.346233084198137586e+00,-1.492303607813504129e+00,-8.765401226260156609e-01,-1.301175228333849576e+00,1.590954166108761392e+00,-4.869871541274339855e-02,3.025091023996727024e+00,2.603031352033442047e+00,-2.622657889870254611e+00,6.022545953481506231e-01,2.393470071856741210e+00,4.085543298475117879e+00,-3.249518013682960316e+01,-1.338781513612477347e+01,-4.246783371065821377e+00,-4.235393039270940463e-01,1.728504357016283355e-02
2.540000000000000036e-01,8.722809801000418473e-01,2.352371601772576426e+00,-1.486585466257422494e+00,-8.820967778609888343e-01,-1.300129602553849129e+00,1.596410377982978357e+00,-2.881900955258001953e-02,3.015269061315974941e+00,2.534049820111989870e+00,-2.595598121409315784e+00,6.157273541608540013e-01,2.306578251657579237e+00,3.554764366187679769e+00,-3.248747407854700953e+01,-1.340132820156339655e+01,-4.269196555171545171e+00,-4.559331263485139063e-01,1.993742056890606545e-02
2.560000000000000053e-01,8.720598906888256119e-01,2.358483480936631072e+00,-1.480998315916478347e+00,-8.875407912320847359e-01,-1.299025121034327102e+00,1.601687747016230956e+00,-1.081983416513407001e-02,3.005969291854996506e+00,2.464516020003828523e+00,-2.574265941511205025e+00,6.258865388075320890e-01,2.220457249878346140e+00,3.053830847106622226e+00,-3.247964629593407437e+01,-1.341061069377817283e+01,-4.289688863006157149e+00,-4.855465156199449961e-01,2.229795445958709932e-02
2.580000000000000071e-01,8.718911524412930047e-01,2.364570320523764035e+00,-1.475543769524534365e+00,-8.928863557940971418e-01,-1.297869637166475298e+00,1.606787665725833314e+00,5.389623592522598330e-03,2.997081552099086554e+00,2.394530925867969451e+00,-2.558117359108184274e+00,6.329757924467300789e-01,2.135136695194887579e+00,2.582072909830418705e+00,-3.247168634842677193e+01,-1.341592861220535227e+01,-4.308341966056421057e+00,-5.124192612181185380e-01,2.438290157269122974e-02
2.600000000000000089e-01,8.717705472403642908e-01,2.370633719367433390e+00,-1.470223439815453448e+00,-8.981476646018200505e-01,-1.296671004341486411e+00,1.611711526629100222e+00,1.990017656331790827e-02,2.988495678533538591e+00,2.324195511863424990e+00,-2.546608383132515918e+00,6.372387582369931636e-01,2.050646216283051437e+00,2.138820722957544884e+00,-3.246358379546111195e+01,-1.341754795628119012e+01,-4.325237535809101530e+00,-5.365911526197657544e-01,2.620851823870371661e-02
2.620000000000000107e-01,8.716938569689594019e-01,2.376675276301099871e+00,-1.465038939523098716e+00,-9.033389107100464610e-01,-1.295437075950552019e+00,1.616460722243345138e+00,3.280263759017988667e-02,2.980101507643646119e+00,2.253610752149206142e+00,-2.539195022516460565e+00,6.389190793368662025e-01,1.967015441818683597e+00,1.723404455086475107e+00,-3.245532819647304734e+01,-1.341573472544193280e+01,-4.340457243750959648e+00,-5.581019793016176456e-01,2.779106078810983371e-02
2.640000000000000124e-01,8.716568635099983808e-01,2.382696590158224215e+00,-1.459991881381333956e+00,-9.084742871735708158e-01,-1.294175705384864816e+00,1.621036645085883299e+00,4.418781951603651531e-02,2.971788875914703976e+00,2.182877620884326575e+00,-2.535333286192281044e+00,6.382603989048944992e-01,1.884274000477632383e+00,1.335154274815685937e+00,-3.244690911089858787e+01,-1.341075491912383733e+01,-4.354082761368760046e+00,-5.769915307404055449e-01,2.914678555139483748e-02
2.660000000000000142e-01,8.716553487464014927e-01,2.388699259772266270e+00,-1.455083878124021179e+00,-9.135679870471864472e-01,-1.292894746035616382e+00,1.625440687674028162e+00,5.414653518381587483e-02,2.963447619832004776e+00,2.112097092227796402e+00,-2.534479183092238408e+00,6.355063600996230244e-01,1.802451520935743456e+00,9.734003507436490565e-01,-3.243831609817370776e+01,-1.340287453676315366e+01,-4.366195760149265581e+00,-5.932995964128606747e-01,3.029194885904401904e-02
2.680000000000000160e-01,8.716850945610884471e-01,2.394684883976686329e+00,-1.450316542485024396e+00,-9.186342033856872424e-01,-1.291602051293998965e+00,1.629674242525095185e+00,6.276959743644594525e-02,2.954967575880843800e+00,2.041370140338628847e+00,-2.536088722148594599e+00,6.309006060795971926e-01,1.721577631868864255e+00,6.374728514688410286e-01,-3.242953871773438834e+01,-1.339235957779613528e+01,-4.376877911579239111e+00,-6.070659657957142574e-01,3.124280704154264177e-02
2.700000000000000178e-01,8.717418830027282572e-01,2.400655061403876189e+00,-1.445691487013910370e+00,-9.236871282509903081e-01,-1.290305474106514305e+00,1.633738702210473903e+00,7.014781674066677963e-02,2.946238585969775059e+00,1.970797734878913188e+00,-2.539617937671686310e+00,6.246867728590445035e-01,1.641681963837700708e+00,3.267019057326415732e-01,-3.242056652944192052e+01,-1.337947599697923273e+01,-4.386210882342995276e+00,-6.183304446084623152e-01,3.201561637555443152e-02
2.720000000000000195e-01,8.718219113981410251e-01,2.406610886919370973e+00,-1.441209862515403728e+00,-9.287384660876518705e-01,-1.289011753263592519e+00,1.637635594790562976e+00,7.636605010665513393e-02,2.937164079804255756e+00,1.900469578629152778e+00,-2.544586447864047418e+00,6.170905966130787457e-01,1.562798869854127304e+00,4.031778170607145523e-02,-3.241139015875367591e+01,-1.336437780538537545e+01,-4.394264306752543092e+00,-6.271735342565581961e-01,3.262649828975140720e-02
2.740000000000000213e-01,8.719226878831399796e-01,2.412551865268614204e+00,-1.436871362314960265e+00,-9.337920692748026275e-01,-1.287724110766262697e+00,1.641366875991421947e+00,8.149036269533686816e-02,2.927690376431118846e+00,1.830439810905488907e+00,-2.550714570959214722e+00,6.082813133853899323e-01,1.484977609159609191e+00,-2.227644583650628396e-01,-3.240200359463867841e+01,-1.334686566829532239e+01,-4.401069839414486040e+00,-6.338041904622888634e-01,3.309114857047405767e-02
2.760000000000000231e-01,8.720419785880745289e-01,2.418477188228270069e+00,-1.432675392875733644e+00,-9.388502447414124319e-01,-1.286445076438087698e+00,1.644934585712629627e+00,8.558312103996910947e-02,2.917772236413660458e+00,1.760755571392918162e+00,-2.557762127140636998e+00,5.984170388159981702e-01,1.408270374852333306e+00,-4.636917913318457374e-01,-3.239240148807517983e+01,-1.332667070517206653e+01,-4.406651659737675253e+00,-6.384566514352620903e-01,3.342517922877907138e-02
2.780000000000000249e-01,8.721775496432931929e-01,2.424386047575002312e+00,-1.428621360660877304e+00,-9.439152994164513588e-01,-1.285177180102631489e+00,1.648340763853764379e+00,8.870669167380895725e-02,2.907364420315171838e+00,1.691463999776437133e+00,-2.565488936591761249e+00,5.876558885449235659e-01,1.332729360030486365e+00,-6.836111940453589719e-01,-3.238257849004141775e+01,-1.330352403547859552e+01,-4.411033947130959199e+00,-6.413651553850858722e-01,3.364420227572312294e-02
2.800000000000000266e-01,8.723271671791448245e-01,2.430277635085472898e+00,-1.424708672133544463e+00,-9.489895402288891502e-01,-1.283922951583456484e+00,1.651587450314404126e+00,9.092344113011345541e-02,2.896421688698946451e+00,1.622612235741042408e+00,-2.573654819496035806e+00,5.761559782121860041e-01,1.258406757792254860e+00,-8.836696433566842979e-01,-3.237252925151562977e+01,-1.327715677867790234e+01,-4.414240881003189010e+00,-6.427639405213682045e-01,3.376382972236287305e-02
2.820000000000000284e-01,8.724885973259786098e-01,2.436151142536346903e+00,-1.420936733756889891e+00,-9.540752741076961030e-01,-1.282684920704127318e+00,1.654676684994128566e+00,9.229573594213977272e-02,2.884898802128279982e+00,1.554247418971730577e+00,-2.582019596036910336e+00,5.640754234578060355e-01,1.185354761235825949e+00,-1.065014116116906218e+00,-3.236224842347608188e+01,-1.324730005423298351e+01,-4.416296640763216708e+00,-6.428872450537173044e-01,3.379967357975502407e-02
2.840000000000000302e-01,8.726596062141428467e-01,2.442005761704285405e+00,-1.417304951994065698e+00,-9.591748079818417372e-01,-1.281465617288205738e+00,1.657610507792514509e+00,9.288594264314492532e-02,2.872750521166463678e+00,1.486416689153497783e+00,-2.590343086397829619e+00,5.515723399218029899e-01,1.113625563459385015e+00,-1.228791589177106180e+00,-3.235173065690099747e+01,-1.321368498160681781e+01,-4.417225405819889872e+00,-6.419693071917407234e-01,3.376734585895622975e-02
2.860000000000000320e-01,8.728379599739869432e-01,2.447840684365954811e+00,-1.413812733308226655e+00,-9.642904487802965718e-01,-1.280267571159256157e+00,1.660390958609141654e+00,9.275642776638604037e-02,2.859931606376793223e+00,1.419167185971341283e+00,-2.598385110762245098e+00,5.388048432441977509e-01,1.043271357561120549e+00,-1.376149039388367079e+00,-3.234097060276863544e+01,-1.317604268026240533e+01,-4.417051355582062300e+00,-6.402443651450467899e-01,3.368245857102318552e-02
2.880000000000000338e-01,8.730214406776799496e-01,2.453655091641853137e+00,-1.410459472775586587e+00,-9.694244460198550017e-01,-1.279093271998923420e+00,1.663020091635286857e+00,9.196922108428114140e-02,2.846397055132624310e+00,1.352546753260092993e+00,-2.605908692641713209e+00,5.259297088734355974e-01,9.743442029750158939e-01,-1.508226445898945167e+00,-3.232996282886694672e+01,-1.313410414555707995e+01,-4.415798019353410986e+00,-6.379455575603538708e-01,3.356038584846106343e-02
2.900000000000000355e-01,8.732082691060056856e-01,2.459447871401771568e+00,-1.407244252111148564e+00,-9.745774692712922960e-01,-1.277944104809166426e+00,1.665500354360569535e+00,9.057708492824433077e-02,2.832108381667472585e+00,1.286622612603715909e+00,-2.612765009070530109e+00,5.130668310505612784e-01,9.068924807824620959e-01,-1.625971215590420682e+00,-3.231869961364080268e+01,-1.308759695754053531e+01,-4.413471035962816202e+00,-6.352757638231275594e-01,3.340995555952340490e-02
2.920000000000000373e-01,8.733971489519212206e-01,2.465217588717326436e+00,-1.404165808094940404e+00,-9.797484489665991836e-01,-1.276820238606545477e+00,1.667834627201044917e+00,8.862258041655504681e-02,2.817034273703133529e+00,1.221483315805472536e+00,-2.618902272809855436e+00,5.002955067193506355e-01,8.409605230874889203e-01,-1.730118779812475305e+00,-3.230717071552150799e+01,-1.303624493683405028e+01,-4.410056351149503229e+00,-6.324045551841276369e-01,3.323278971738060500e-02
2.940000000000000391e-01,8.735868087164642137e-01,2.470962792077401993e+00,-1.401222859787051522e+00,-9.849362261950284081e-01,-1.275721779940229617e+00,1.670025812812990118e+00,8.614774461253010829e-02,2.801143787476605418e+00,1.157218510440974457e+00,-2.624273681523483948e+00,4.876929472662222542e-01,7.765924539907609336e-01,-1.821393680344302934e+00,-3.229536576348269961e+01,-1.297977171093019599e+01,-4.405538898982688245e+00,-6.294997917943593313e-01,3.303014015725777575e-02
2.960000000000000409e-01,8.737759769006733235e-01,2.476682029970884269e+00,-1.398414126247571110e+00,-9.901396420458327130e-01,-1.274648835359388555e+00,1.672076813852683141e+00,8.319461457948625072e-02,2.784405979224889638e+00,1.093917844085834368e+00,-2.628832432875210401e+00,4.753363640775949417e-01,7.138323975929424803e-01,-1.900520458965097692e+00,-3.228327438649800740e+01,-1.291790090732154717e+01,-4.399903613531592761e+00,-6.267293338048284257e-01,3.280325871438008467e-02
2.980000000000000426e-01,8.739633820055865421e-01,2.482373850886658406e+00,-1.395738326536588136e+00,-9.953575376082653969e-01,-1.273601511413190890e+00,1.673990532976401324e+00,7.980522738074020961e-02,2.766789905184984910e+00,1.031670964315663408e+00,-2.632531724528830885e+00,4.633029685398870612e-01,6.527244779946970166e-01,-1.968223657454055031e+00,-3.227088621354103992e+01,-1.285035615350066962e+01,-4.393135428865433845e+00,-6.242610413665395930e-01,3.255339722397264379e-02
3.000000000000000444e-01,8.741477525322413067e-01,2.488036803313608214e+00,-1.393194179714190462e+00,-1.000588753971578093e+00,-1.272579914650805000e+00,1.675769872840421559e+00,7.602162007960873435e-02,2.748264621593888624e+00,9.705675187060729403e-01,-2.635324754148137050e+00,4.516699720395167539e-01,5.933128192966883319e-01,-2.025227817590367518e+00,-3.225819087358542703e+01,-1.277686107696012918e+01,-4.385219279053429453e+00,-6.222627746304981722e-01,3.228180752126057901e-02
3.020000000000000462e-01,8.743278169816761647e-01,2.493669435740619722e+00,-1.390780404840468165e+00,-1.005832132225024544e+00,-1.271584151621400594e+00,1.677417736101022072e+00,7.188582973940854659e-02,2.728799184688601276e+00,9.106971548326754373e-01,-2.637164719396926316e+00,4.405145859629028826e-01,5.356415455995808816e-01,-2.072257481153230607e+00,-3.224517799560478437e+01,-1.269713930519250056e+01,-4.376140098164797543e+00,-6.209023937477095023e-01,3.198974144146902315e-02
3.040000000000000480e-01,8.745023038549289973e-01,2.499270296656577184e+00,-1.388495720975509107e+00,-1.011086513457857050e+00,-1.270614328874146270e+00,1.678937025414479312e+00,6.743989342345642346e-02,2.708362650706122476e+00,8.521495202710820394e-01,-2.638004817938990776e+00,4.299140216964639771e-01,4.797547810040383442e-01,-2.110037189921837975e+00,-3.223183720857274892e+01,-1.261091446569034780e+01,-4.365882820268756959e+00,-6.203477588691788114e-01,3.167845081982312294e-02
3.060000000000000497e-01,8.746700180640823996e-01,2.504837876849429712e+00,-1.386338687338412923e+00,-1.016350638817246521e+00,-1.269670410030677266e+00,1.680330721436198660e+00,6.272451222686528660e-02,2.686923612611279655e+00,7.950175986394081296e-01,-2.637798435549782550e+00,4.199400277241727153e-01,4.256916699344244215e-01,-2.139265097787376391e+00,-3.221815841004345060e+01,-1.251801408299445839e+01,-4.354447635098810387e+00,-6.207398065977601798e-01,3.134922823399381719e-02
3.080000000000000515e-01,8.748302512139409792e-01,2.510370299586615950e+00,-1.384306845056620716e+00,-1.021622612878977820e+00,-1.268751448349585864e+00,1.681602301629442353e+00,5.777187792505799474e-02,2.664447712601798468e+00,7.394156221544065932e-01,-2.636500156163666730e+00,4.106295571035750713e-01,3.734596392506634999e-01,-2.160471283551848032e+00,-3.220413320826854431e+01,-1.241892744380096048e+01,-4.341931901860068166e+00,-6.220479866118788781e-01,3.100362576670277065e-02
3.099999999999999978e-01,8.749824858620526280e-01,2.515865543939770355e+00,-1.382397335811712979e+00,-1.026900290461556509e+00,-1.267856139910672253e+00,1.682755438378865653e+00,5.261084368193906513e-02,2.640899435148895691e+00,6.854661598704104852e-01,-2.634065033809835032e+00,4.020059109886940374e-01,3.230536715010515758e-01,-2.174119882152277583e+00,-3.218975388268781757e+01,-1.231440347562744542e+01,-4.328471103970743528e+00,-6.241744660994664740e-01,3.064329731686647046e-02
3.119999999999999996e-01,8.751262050163872708e-01,2.521321588640395461e+00,-1.380607300343049904e+00,-1.032181525794354515e+00,-1.266983179951216787e+00,1.683793804528908478e+00,4.727025478624316546e-02,2.616243261992921454e+00,6.332918005068158829e-01,-2.630448123626345502e+00,3.940923583312256895e-01,2.744687198800446204e-01,-2.180674872976254619e+00,-3.217501271432426080e+01,-1.220519171843638162e+01,-4.314200814777044535e+00,-6.270212535414505517e-01,3.026989702356703074e-02
3.140000000000000013e-01,8.752608916849149434e-01,2.526736412419993805e+00,-1.378933879389992345e+00,-1.037464173106745102e+00,-1.266131263708500265e+00,1.684721072924010077e+00,4.177895652670507443e-02,2.590443674874225888e+00,5.830151327830201957e-01,-2.625604480751258851e+00,3.869121680828667698e-01,2.276997375820992986e-01,-2.180600235411370491e+00,-3.215990198420087864e+01,-1.209204171219024992e+01,-4.299256607625182802e+00,-6.304903574187588067e-01,2.988507902588660378e-02
3.160000000000000031e-01,8.753860288756056818e-01,2.532107994010068364e+00,-1.377374213691901383e+00,-1.042746086628100644e+00,-1.265299086419803043e+00,1.685540916408608592e+00,3.616579419205952911e-02,2.563465155533160456e+00,5.347587454184205003e-01,-2.619489160322631793e+00,3.804886091953136873e-01,1.827416778016719423e-01,-2.174359948845214774e+00,-3.214441397334066863e+01,-1.197570299685151163e+01,-4.283774055861365504e+00,-6.344837862123183791e-01,2.949049746290731411e-02
3.180000000000000049e-01,8.755010995964290776e-01,2.537434312142120785e+00,-1.375925443988137209e+00,-1.048025120587793957e+00,-1.264485343322405475e+00,1.686257007827144161e+00,3.045961307104128393e-02,2.535272185710075288e+00,4.886452271324135954e-01,-2.612057217478523263e+00,3.748449506202628512e-01,1.395894937332189945e-01,-2.162417992665379263e+00,-3.212854096276662119e+01,-1.185692511238264224e+01,-4.267888732831801590e+00,-6.389035484030568535e-01,2.908780647371128625e-02
3.200000000000000067e-01,8.756055868553553889e-01,2.542713345547654491e+00,-1.374584711018061123e+00,-1.053299129215197860e+00,-1.263688729653588583e+00,1.686873020024055370e+00,2.468925845238506556e-02,2.505829247145321403e+00,4.447971666443966687e-01,-2.603263707356992640e+00,3.700044613094107260e-01,9.823813857119684245e-02,-2.145238346259452644e+00,-3.211227523350173385e+01,-1.173645759874611016e+01,-4.251736211882699124e+00,-6.436516524719018140e-01,2.867866019738066208e-02
3.220000000000000084e-01,8.756989746620706949e-01,2.547943071724421138e+00,-1.373349151212016173e+00,-1.058565965252114882e+00,-1.262907939873570973e+00,1.687392625660238288e+00,1.888354986451696790e-02,2.475100931982848529e+00,4.033369082719198140e-01,-2.593063785859234915e+00,3.659902836533629467e-01,5.868250446143146587e-02,-2.123284622462596971e+00,-3.209560907247592354e+01,-1.161505008488708235e+01,-4.235451997446242345e+00,-6.486299435614669706e-01,2.826470997884634323e-02
3.240000000000000102e-01,8.757808949702460266e-01,2.553121285956779118e+00,-1.372215264599335072e+00,-1.063823261740328263e+00,-1.262141553677961436e+00,1.687819470288883128e+00,1.306750228307435382e-02,2.443068137928985806e+00,3.643507005023447487e-01,-2.581427490644096157e+00,3.628068681723117805e-01,2.090846724718438063e-02,-2.096966297799359058e+00,-3.207853563901397820e+01,-1.149346534164844869e+01,-4.219161416007653820e+00,-6.537161432976364983e-01,2.784719449345434555e-02
3.260000000000000120e-01,8.758512827001927459e-01,2.558245410383948926e+00,-1.371178247957477003e+00,-1.069068201809607155e+00,-1.261387915742006705e+00,1.688157143950753447e+00,7.258339541805238632e-03,2.409745153986528887e+00,3.278508730866579457e-01,-2.568355334932694856e+00,3.604203872963165356e-01,-1.511656123614453506e-02,-2.066581985914795805e+00,-3.206104987897198555e+01,-1.137249305246851350e+01,-4.202968951174352874e+00,-6.587385720357287200e-01,2.742650733239300129e-02
3.280000000000000138e-01,8.759101098676590480e-01,2.563312821457009782e+00,-1.370233138492868985e+00,-1.074297913502191060e+00,-1.260645341964905075e+00,1.688409229889631824e+00,1.472331521843904577e-03,2.375150357610899654e+00,2.938407051164207973e-01,-2.553851563394335500e+00,3.587923266605279604e-01,-4.942742989860261088e-02,-2.032416726328992507e+00,-3.204314695695004644e+01,-1.125292619598172550e+01,-4.186976534537884653e+00,-6.635195014065142782e-01,2.700293861418218838e-02
3.300000000000000155e-01,8.759573484883935723e-01,2.568320895627041800e+00,-1.369374973411939589e+00,-1.079509524860320369e+00,-1.259912148245853958e+00,1.688579311349302392e+00,-4.274251895675390371e-03,2.339302126257522207e+00,2.623234756831947512e-01,-2.537920420698323909e+00,3.578841719000971366e-01,-8.205898765023733610e-02,-1.994755558562034237e+00,-3.202482203754831147e+01,-1.113555775082253696e+01,-4.171286097689796968e+00,-6.678812030407652589e-01,2.657677845734181254e-02
3.320000000000000173e-01,8.759929705781458464e-01,2.573267009345124645e+00,-1.368598789921117387e+00,-1.084700163926235694e+00,-1.259186650484051651e+00,1.688670971573548840e+00,-9.965140829618402557e-03,2.302218837381821093e+00,2.333024638785411997e-01,-2.520566151513966791e+00,3.576574086501750904e-01,-1.130460834010963700e-01,-1.953883522134007844e+00,-3.200607028536690990e+01,-1.102118069562540548e+01,-4.155999572221634075e+00,-6.716459485692534148e-01,2.614831698039178989e-02
3.340000000000000191e-01,8.760169481526638435e-01,2.578148539062337985e+00,-1.367899625226830507e+00,-1.089866958742177871e+00,-1.258467164578695563e+00,1.688687793806155302e+00,-1.558406539885087358e-02,2.263918868439220855e+00,2.067809487940215352e-01,-2.501793000510570408e+00,3.580735225459126259e-01,-1.424235660612272469e-01,-1.910085656564997958e+00,-3.198688686500597100e+01,-1.091058800902477444e+01,-4.141218889724946450e+00,-6.746360096227504988e-01,2.571784430185201920e-02
3.360000000000000209e-01,8.760292532276970912e-01,2.582962861229761931e+00,-1.367272516535507521e+00,-1.095007037350386625e+00,-1.257752006428984215e+00,1.688633361290905022e+00,-2.111475572223856650e-02,2.224420596885144707e+00,1.827622095211971220e-01,-2.481605212357439694e+00,3.590939992224609911e-01,-1.702262845406776193e-01,-1.863647001375091428e+00,-3.196726694106564182e+01,-1.080457266965510321e+01,-4.127045981791278351e+00,-6.766736578320280415e-01,2.528565054024239922e-02
3.380000000000000226e-01,8.760298578189933405e-01,2.587707352298474373e+00,-1.366712501053575668e+00,-1.100117527793102346e+00,-1.257039491934114350e+00,1.688511257271580801e+00,-2.654094191864721231e-02,2.183742400175015419e+00,1.612495251516292138e-01,-2.460007031723880466e+00,3.606803243149708238e-01,-1.964890877494948895e-01,-1.814852596084371994e+00,-3.194720567814603385e+01,-1.070392765615083874e+01,-4.113582780012174922e+00,-6.775811648278575738e-01,2.485202581408282874e-02
3.400000000000000244e-01,8.760187448719385372e-01,2.592379400869118111e+00,-1.366214613708544023e+00,-1.105195560441309732e+00,-1.256327962443844815e+00,1.688325041787859027e+00,-3.184684224703820954e-02,2.141904419451539532e+00,1.422412872008400886e-01,-2.437004293474836381e+00,3.627937487201991495e-01,-2.212469504672900378e-01,-1.763985484365498735e+00,-3.192669798109075074e+01,-1.060940567606387752e+01,-4.100925716391161657e+00,-6.771902740472977023e-01,2.441726621435178976e-02
3.420000000000000262e-01,8.759960518011444819e-01,2.596976567252821333e+00,-1.365773857219805265e+00,-1.110238298578276384e+00,-1.255616119002276099e+00,1.688077946934313234e+00,-3.702357388052254783e-02,2.098951722158815425e+00,1.256668107700261716e-01,-2.412625306808513503e+00,3.653922057626645126e-01,-2.445366263959927455e-01,-1.711300502456043482e+00,-3.190573508358798094e+01,-1.052119028324671568e+01,-4.089093496914244064e+00,-6.754665945512311476e-01,2.398175224115389748e-02
3.440000000000000280e-01,8.759620304571377192e-01,2.601496538969530370e+00,-1.365385210445914765e+00,-1.115242929869777022e+00,-1.254902929126981759e+00,1.687772961852931797e+00,-4.206736493613653927e-02,2.054947841969959832e+00,1.114042368665320581e-01,-2.386915030652995373e+00,3.684311709995751749e-01,-2.663961871220614785e-01,-1.657031589592125487e+00,-3.188430549961252325e+01,-1.043904338365489437e+01,-4.078047245561264411e+00,-6.724749074850202568e-01,2.354592692766800319e-02
3.460000000000000298e-01,8.759169353868759833e-01,2.605937006536582334e+00,-1.365043651683198300e+00,-1.120206642556107246e+00,-1.254187366614395893e+00,1.687413069961060552e+00,-4.697456395906610821e-02,2.009956747674150002e+00,9.933050069276101735e-02,-2.359918816250620832e+00,3.718660620762592184e-01,-2.868637352850035849e-01,-1.601412192617995833e+00,-3.186239767905508913e+01,-1.036271694803885524e+01,-4.067746729518765925e+00,-6.682823307660249457e-01,2.311023478052724039e-02
3.480000000000000315e-01,8.758610211373180077e-01,2.610295660471322332e+00,-1.364744159227983866e+00,-1.125126624877563986e+00,-1.253468405260954599e+00,1.687001254676047335e+00,-5.174151949449734555e-02,1.964042408060568734e+00,8.932253745111633225e-02,-2.331682014843733164e+00,3.756522966380455575e-01,-3.059773735243273562e-01,-1.544675758377910268e+00,-3.184000007180643976e+01,-1.029196294714906124e+01,-4.058151715973299822e+00,-6.629559823116067951e-01,2.267512030636481546e-02
3.500000000000000333e-01,8.757945422554205273e-01,2.614570191291086143e+00,-1.364481711376598128e+00,-1.130000065074441729e+00,-1.252745018863091753e+00,1.686540499415235983e+00,-5.636458008761621730e-02,1.917268791918392612e+00,8.125728234400110550e-02,-2.302249977674670767e+00,3.797452923302621630e-01,-3.237752044795401130e-01,-1.487055733716119654e+00,-3.181710112775727595e+01,-1.022653335173595401e+01,-4.049221972111405776e+00,-6.565629800391251658e-01,2.224102801181386535e-02
3.520000000000000351e-01,8.757177532881417203e-01,2.618758289513217097e+00,-1.364251286425367748e+00,-1.134824151387037405e+00,-1.252016181217242341e+00,1.686033787595974553e+00,-6.084009428360877270e-02,1.869699868036802881e+00,7.501167057381862013e-02,-2.271668055985776036e+00,3.841004667982375609e-01,-3.402953307901498414e-01,-1.428785565476877961e+00,-3.179368929679834466e+01,-1.016618013254999120e+01,-4.040917265119635005e+00,-6.491704418659411946e-01,2.180840240350756867e-02
3.540000000000000369e-01,8.756309087824395432e-01,2.622857645655054082e+00,-1.364047862670619615e+00,-1.139596072055645726e+00,-1.251280866119841573e+00,1.685484102635607329e+00,-6.516441062766104020e-02,1.821399605204978567e+00,7.046263734297197878e-02,-2.239981601019387369e+00,3.886732376873002770e-01,-3.555758550956643060e-01,-1.370098700504437828e+00,-3.176975302882037866e+01,-1.011065526034161444e+01,-4.033197362184528956e+00,-6.408454857094151302e-01,2.137768798807908668e-02
3.559999999999999831e-01,8.755342632852712859e-01,2.626865950233938207e+00,-1.363866418408680614e+00,-1.144313015320562954e+00,-1.250538047367323546e+00,1.684894427951481921e+00,-6.933387766495900661e-02,1.772431972212098472e+00,6.748711785386446449e-02,-2.207235964017846719e+00,3.934190226427785597e-01,-3.696548800355912157e-01,-1.311228585643051892e+00,-3.174528077371410006e+01,-1.005971070586128135e+01,-4.026022030492635295e+00,-6.316552294869074435e-01,2.094932927216159105e-02
3.579999999999999849e-01,8.754280816826605083e-01,2.630781076693502918e+00,-1.363702283736816678e+00,-1.148972299602061931e+00,-1.249786826421110497e+00,1.684267638040017445e+00,-7.334572224308535948e-02,1.722857508488972123e+00,6.596735559986190156e-02,-2.173475926018745064e+00,3.982967454760510395e-01,-3.825711422306158904e-01,-1.252390213900263394e+00,-3.172025908308950548e+01,-1.001309635528281916e+01,-4.019351973888244167e+00,-6.216670690033028190e-01,2.052375861540419941e-02
3.599999999999999867e-01,8.753126704233199495e-01,2.634601633834830814e+00,-1.363552202980034433e+00,-1.153571766639470919e+00,-1.249026817951503388e+00,1.683606169539241693e+00,-7.720070195521146206e-02,1.672722967563078811e+00,6.580693322240988019e-02,-2.138743975856088220e+00,4.032794246660765802e-01,-3.943659268840695176e-01,-1.193724394491331164e+00,-3.169466687753298473e+01,-9.970553714853375382e+00,-4.013151661547742499e+00,-6.109495171618274378e-01,2.010135954699577426e-02
3.619999999999999885e-01,8.751883463985001832e-01,2.638326415215988430e+00,-1.363413275785028356e+00,-1.158109389654909727e+00,-1.248257765571436195e+00,1.682912349076199465e+00,-8.090046148676682813e-02,1.622071639283247713e+00,6.691479477815059917e-02,-2.103082026452648190e+00,4.083436199468200578e-01,-4.050811595252084008e-01,-1.135353298112777631e+00,-3.166848116035265193e+01,-9.931822185381490087e+00,-4.007386508679133819e+00,-5.995713675342707605e-01,1.968250332757673360e-02
3.639999999999999902e-01,8.750554264994502285e-01,2.641954214395036971e+00,-1.363282601798492921e+00,-1.162583141870496162e+00,-1.247479412893840456e+00,1.682188503277933567e+00,-8.444664552318489892e-02,1.570946813498289352e+00,6.919988432375050180e-02,-2.066531990731192092e+00,4.134658910522618913e-01,-4.147587656832910641e-01,-1.077399095461038847e+00,-3.164167893485653948e+01,-9.896641167675680251e+00,-4.002021930490423429e+00,-5.876014136924228026e-01,1.926756121778743294e-02
3.659999999999999920e-01,8.749142276174204369e-01,2.645483824930044303e+00,-1.363157280667124160e+00,-1.166990996508351364e+00,-1.246691503531650147e+00,1.681436958771488577e+00,-8.784089874989915725e-02,1.519391780057017804e+00,7.257114591587617014e-02,-2.029135781614488376e+00,4.186227977163829439e-01,-4.234406708875766423e-01,-1.019983957232552862e+00,-3.161423720435275442e+01,-9.864750062544475284e+00,-3.997023342189617523e+00,-5.751084492080743571e-01,1.885690447826824170e-02
3.679999999999999938e-01,8.747650666436604938e-01,2.648914040379073409e+00,-1.363034412037618104e+00,-1.171330926790593585e+00,-1.245893781097797914e+00,1.680660042183908853e+00,-9.108486585234314148e-02,1.467449828808245815e+00,7.693752361119415850e-02,-1.990935312025305715e+00,4.237908996731640787e-01,-4.311688006673241036e-01,-9.632300541237563962e-01,-3.158613297214936466e+01,-9.835888270796399269e+00,-3.992356158984724068e+00,-5.621612676530156616e-01,1.845090436965952235e-02
3.699999999999999956e-01,8.746082604694199736e-01,2.652243654300189046e+00,-1.362911095556669672e+00,-1.175600905939342855e+00,-1.245085989205216181e+00,1.679860080142237200e+00,-9.418019151595027894e-02,1.415164249600784352e+00,8.220796146637092405e-02,-1.951972494886411891e+00,4.289467566565857704e-01,-4.379850805517920831e-01,-9.072595568310863889e-01,-3.155734324155443105e+01,-9.809795193239976285e+00,-3.987985796083747481e+00,-5.488286625990371759e-01,1.804993215260162348e-02
3.719999999999999973e-01,8.744441259859490057e-01,2.655471460251456417e+00,-1.362784430870974228e+00,-1.179798907176718759e+00,-1.244267871466838926e+00,1.679039399273518418e+00,-9.712852042615406634e-02,1.362578332283447269e+00,8.829140353807303498e-02,-1.912289243120575133e+00,4.340669284006288264e-01,-4.439314360702396600e-01,-8.521946360509802254e-01,-3.152784501587603572e+01,-9.786210230683730416e+00,-3.983877668694694840e+00,-5.351794276179291376e-01,1.765435908773491797e-02
3.739999999999999991e-01,8.742729798223781712e-01,2.658596258726431127e+00,-1.362651532217428629e+00,-1.183922910432783304e+00,-1.243439175248052919e+00,1.678200319486659264e+00,-9.993151468703143081e-02,1.309735197479367175e+00,9.509712595206688823e-02,-1.871927369336005453e+00,4.391281199315359984e-01,-4.490497573024231914e-01,-7.981567016474820919e-01,-3.149761517746265227e+01,-9.764873744758020280e+00,-3.979997326194546936e+00,-5.212820830972392239e-01,1.726455519393776603e-02
3.760000000000000009e-01,8.740951272531460869e-01,2.661617150655727126e+00,-1.362510145862765532e+00,-1.187971186217553488e+00,-1.242599810466011867e+00,1.677344869669008309e+00,-1.025915909572064078e-01,1.256670635160063165e+00,1.025487896655741804e-01,-1.830924340635645908e+00,4.441133301604666128e-01,-4.533803986985553980e-01,-7.452342051463187733e-01,-3.146662536883931693e+01,-9.745567718731813045e+00,-3.976316129997843341e+00,-5.071933154137762134e-01,1.688083669846188184e-02
3.780000000000000027e-01,8.739108580909139556e-01,2.664533646077625217e+00,-1.362358878714058363e+00,-1.191942400726214268e+00,-1.241749908385977319e+00,1.676474682421414730e+00,-1.051121933785702234e-01,1.203410453087159437e+00,1.105896435816772772e-01,-1.789311706811409941e+00,4.490141284345567363e-01,-4.569616236291967337e-01,-6.934707184269998104e-01,-3.143484009741948881e+01,-9.728130812409117922e+00,-3.972813355819504899e+00,-4.929536964724925974e-01,1.650344658004899295e-02
3.800000000000000044e-01,8.737204610401817506e-01,2.667345284351532619e+00,-1.362196399361269128e+00,-1.195835248513071436e+00,-1.240889616137433649e+00,1.675591361942506241e+00,-1.074968397336905773e-01,1.149979743588057213e+00,1.191643404896634839e-01,-1.747120593556051427e+00,4.538226983520180502e-01,-4.598315455952939890e-01,-6.429065968032621203e-01,-3.140222335923654029e+01,-9.712405747653644283e+00,-3.969468846599682799e+00,-4.786026432392313512e-01,1.613262256765232716e-02
3.820000000000000062e-01,8.735242248054505554e-01,2.670051604836856107e+00,-1.362021376394360050e+00,-1.199648424132432334e+00,-1.240019080849866118e+00,1.674696512430911444e+00,-1.097490478051351970e-01,1.096403598990161488e+00,1.282175331788200923e-01,-1.704382126562326905e+00,4.585312235110630685e-01,-4.620282780977940651e-01,-5.935821955888433976e-01,-3.136873915032388282e+01,-9.698235246329113934e+00,-3.966262445278529558e+00,-4.641795726798361721e-01,1.576860239022512614e-02
3.840000000000000080e-01,8.733224380912203433e-01,2.672652146893000236e+00,-1.361832478403293356e+00,-1.203380622138602085e+00,-1.239138449652759322e+00,1.673791738085257386e+00,-1.118723353754717403e-01,1.042707111620873039e+00,1.376938744384345603e-01,-1.661127431522989140e+00,4.631318875099039167e-01,-4.635899346376436414e-01,-5.455378700974787831e-01,-3.133435146671489591e+01,-9.685462030299232694e+00,-3.963173994796196364e+00,-4.497239017601494804e-01,1.541162377672061594e-02
3.860000000000000098e-01,8.731153896019921978e-01,2.675146449879372668e+00,-1.361628373978032158e+00,-1.207030537085888255e+00,-1.238247869675598301e+00,1.672878643104173557e+00,-1.138702202272680042e-01,9.889153738075956435e-01,1.475380170577942351e-01,-1.617387634130794671e+00,4.676168739467529423e-01,-4.645546287157896748e-01,-4.988139756429060823e-01,-3.129902430444298389e+01,-9.673928821427720592e+00,-3.960183338092837069e+00,-4.352750474460149732e-01,1.506192445609203651e-02
3.880000000000000115e-01,8.729033680422662034e-01,2.677534053155379734e+00,-1.361407731708537794e+00,-1.210596863528596412e+00,-1.237347488047867206e+00,1.671958831686287894e+00,-1.157462201430916049e-01,9.350534778777322975e-01,1.576946138261864083e-01,-1.573193860078497819e+00,4.719783664198223816e-01,-4.649604738331789000e-01,-4.534508675388621568e-01,-3.126272165954153692e+01,-9.663478341578290554e+00,-3.957270318108601082e+00,-4.208724267032757926e-01,1.471974215729261910e-02
3.900000000000000133e-01,8.726866621165431104e-01,2.679814496080427766e+00,-1.361169220184773154e+00,-1.214078296021033010e+00,-1.236437451899051299e+00,1.671033908030227666e+00,-1.175038529055102421e-01,8.811465161586856665e-01,1.681083175328984269e-01,-1.528577235058853789e+00,4.762085485273243046e-01,-4.648455834907581075e-01,-4.094889010990838130e-01,-3.122540752804394515e+01,-9.653953312614655502e+00,-3.954414777783640922e+00,-4.065554564977750251e-01,1.438531460927560193e-02
3.920000000000000151e-01,8.724655559869393118e-01,2.681987350396295433e+00,-1.360911579419004758e+00,-1.217473569300077108e+00,-1.235517918453104880e+00,1.670105427152769773e+00,-1.191466596499464042e-01,8.272188544719695225e-01,1.787254204776431155e-01,-1.483568251157009188e+00,4.803002787191670286e-01,-4.642474957084412601e-01,-3.669651122974250113e-01,-3.118704454594939790e+01,-9.645201226796546123e+00,-3.951597074033467383e+00,-3.923621055841474692e-01,1.405887383298422451e-02
3.940000000000000169e-01,8.722402963097629636e-01,2.684052455221324962e+00,-1.360634139147113730e+00,-1.220781749884279677e+00,-1.234589128282553849e+00,1.669174537983264539e+00,-1.206783743329590125e-01,7.732888599852764111e-01,1.895057521600735373e-01,-1.438192168851929242e+00,4.842519875978927302e-01,-4.631989968426684090e-01,-3.258891297994558900e-01,-3.114758411965173224e+01,-9.637108964852119541e+00,-3.948801807593631086e+00,-3.783183850469945542e-01,1.374060471915055162e-02
3.960000000000000187e-01,8.720111112576676149e-01,2.686009781442678435e+00,-1.360336519733245986e+00,-1.224002067801214677e+00,-1.233651363035862758e+00,1.668242189322596492e+00,-1.221028259374391522e-01,7.193719436028924719e-01,2.004158134981311734e-01,-1.392471670376463910e+00,4.880648518406502379e-01,-4.617305315296759693e-01,-2.862570753698718273e-01,-3.110697212135789158e+01,-9.629582818979395498e+00,-3.946015670643907125e+00,-3.644444129783565023e-01,1.343066893174234278e-02
3.980000000000000204e-01,8.717782288736038998e-01,2.687859300872160517e+00,-1.360018343580927880e+00,-1.227133754225823159e+00,-1.232704904649731814e+00,1.667309328567316840e+00,-1.234238441130921515e-01,6.654834954845504358e-01,2.114221522241212237e-01,-1.346429419871515432e+00,4.917400673942139977e-01,-4.598725279734909854e-01,-2.480649759933762633e-01,-3.106515438444059996e+01,-9.622529217589647743e+00,-3.943225370040054134e+00,-3.507602661182424031e-01,1.312922797174157288e-02
4.000000000000000222e-01,8.715418772005228965e-01,2.689600985321575877e+00,-1.359679233093688655e+00,-1.230176040333047283e+00,-1.231750035060861670e+00,1.666376903113977459e+00,-1.246452585096233939e-01,6.116389057899835890e-01,2.224913160703489989e-01,-1.300088081477986268e+00,4.952788302053583447e-01,-4.576554143781408901e-01,-2.113088586546724990e-01,-3.102207674227257073e+01,-9.615854589094157134e+00,-3.940417612637831635e+00,-3.372860212066612351e-01,1.283644334013022380e-02
4.020000000000000240e-01,8.713022842813750168e-01,2.691234806602729179e+00,-1.359318810675055333e+00,-1.233128157297828542e+00,-1.230787036205952756e+00,1.665445860359130670e+00,-1.257708987767382491e-01,5.578535646789247737e-01,2.335898527691196436e-01,-1.253470319336778216e+00,4.986823362208580024e-01,-4.551096189476527276e-01,-1.759847503384638634e-01,-3.097768502822650660e+01,-9.609465361904195646e+00,-3.937579105292998261e+00,-3.240417549836219213e-01,1.255247653789028084e-02
4.040000000000000258e-01,8.710596781591107840e-01,2.692760736527424204e+00,-1.358936698728555603e+00,-1.235989336295107321e+00,-1.229816190021704836e+00,1.664517147699327237e+00,-1.268045945641420036e-01,5.041428623111069429e-01,2.446843100527383852e-01,-1.206598797588793515e+00,5.019517813874870837e-01,-4.522655698860534312e-01,-1.420886780294539076e-01,-3.093192507567512450e+01,-9.603267964431040582e+00,-3.934696554861312201e+00,-3.110475441891335513e-01,1.227748906600372239e-02
4.060000000000000275e-01,8.708142868766818312e-01,2.694178746907467392e+00,-1.358532519657718263e+00,-1.238758808499826669e+00,-1.228837778444819451e+00,1.663591712531120592e+00,-1.277501755215401658e-01,4.505221888462633273e-01,2.557412356535105902e-01,-1.159496180374934848e+00,5.050883616520206454e-01,-4.491536953973706559e-01,-1.096166687123459466e-01,-3.088474271799115201e+01,-9.597168825085969246e+00,-3.931756668198535642e+00,-2.983234655632052146e-01,1.201164242545253898e-02
4.080000000000000293e-01,8.705663384401564064e-01,2.695488809702895949e+00,-1.358105896188283257e+00,-1.241435805305195705e+00,-1.227852083400459815e+00,1.662670501957971503e+00,-1.286114710620575308e-01,3.970069321856739553e-01,2.667271844866607178e-01,-1.112185129109397153e+00,5.080932752570803679e-01,-4.458044190793638006e-01,-7.856473878827968660e-02,-3.083608377315717775e+01,-9.591074387709198845e+00,-3.928746151968380396e+00,-2.858895896419154647e-01,1.175509808197098757e-02
4.100000000000000311e-01,8.703160442915582884e-01,2.696690963447293310e+00,-1.357656595755450279e+00,-1.244019656131428730e+00,-1.226859381632689594e+00,1.661754331453611622e+00,-1.293922043478910044e-01,3.436114659342791589e-01,2.776119373966225989e-01,-1.064687080612050751e+00,5.109687515360564758e-01,-4.422460958036906198e-01,-4.892415146192642672e-02,-3.078588714728569542e+01,-9.584898025450538483e+00,-3.925651626585084486e+00,-2.737632007070547324e-01,1.150800167114968825e-02
