prominentjohnson/z1_sdk/examples/nominal_trajectory_500Hz.csv
t,q0,q1,q2,q3,q4,q5,qdot0,qdot1,qdot2,qdot3,qdot4,qdot5,tau0,tau1,tau2,tau3,tau4,tau5
0.000000000000000000e+00,1.168251025037239143e-08,2.062630960228924337e+00,-1.286620325453555314e+00,-7.760106225370887456e-01,-1.099681652913384732e-08,1.570799990142405678e+00,0.000000000000000000e+00,0.000000000000000000e+00,-6.860280390063751648e-30,7.632782754205106534e-30,0.000000000000000000e+00,0.000000000000000000e+00,-1.283675319339527832e-02,-3.299999766639762555e+01,-3.087245136319807415e+01,-1.045929397171157582e+01,-6.318402274477969739e-03,1.277926835049257061e-02
2.000000000000000042e-03,-6.285607515393426501e-09,2.062573689893050233e+00,-1.285593463196085251e+00,-7.770449013485952738e-01,7.851887184209887290e-08,1.570800016693384427e+00,4.547838545169040097e-06,1.410064317198325180e-02,-2.532702390910817614e-01,2.544353525634388546e-01,-2.217948586787639415e-05,-6.338596084430336310e-06,-1.257239636511959212e-02,-3.299999763733794822e+01,-3.072291013929990555e+01,-1.043753603568278265e+01,-6.212152006589338749e-03,1.273382190697598150e-02
4.000000000000000083e-03,-1.560981833137420836e-08,2.062545992177596155e+00,-1.285086531348546224e+00,-7.775536473425286310e-01,1.228862769781150559e-07,1.570800029238098805e+00,9.352270954720452026e-06,2.754184323452647104e-02,-5.034382270913216884e-01,5.046259754416588805e-01,-4.416687557100098019e-05,-1.226162257859888872e-05,-1.230183832712359454e-02,-3.299999759403712574e+01,-3.055592195629997576e+01,-1.041113919394125098e+01,-6.095046527670195530e-03,1.268452322193346256e-02
6.000000000000000125e-03,-1.594998205877672275e-08,2.062546929595855616e+00,-1.285093029998929381e+00,-7.775452545629994994e-01,1.224958932124806727e-07,1.570800028507338464e+00,1.438390115805168998e-05,4.038838957295927401e-02,-7.504537819199538218e-01,7.505880770874906460e-01,-6.596109857059099428e-05,-1.778612591602018675e-05,-1.202504518474504375e-02,-3.299999753959611581e+01,-3.037210327924979936e+01,-1.038018635250759480e+01,-5.967445615946196866e-03,1.263140143177783788e-02
8.000000000000000167e-03,-6.965958558807763076e-09,2.062575564661120797e+00,-1.285606459235225429e+00,-7.770281170541191162e-01,7.773821487876175564e-08,1.570800015231894831e+00,1.961333308456020139e-05,5.270507157261126313e-02,-9.942667214962127575e-01,9.923378659537647195e-01,-8.756108432786360483e-05,-2.292915253020876668e-05,-1.174198304332170657e-02,-3.299999747711586195e+01,-3.017207057320093000e+01,-1.034476041740242458e+01,-5.829709049642999540e-03,1.257448567292194716e-02
1.000000000000000021e-02,1.168239230732589131e-08,2.062630959886686988e+00,-1.286620319145426183e+00,-7.760106288599990521e-01,-1.099626368947561002e-08,1.570799990142559555e+00,2.501117066364345992e-05,6.455667861881209113e-02,-1.234826863739332703e+00,1.229891550493311891e+00,-1.089657623040360819e-04,-2.770774885467915805e-05,-1.145261800819135506e-02,-3.299999740969735740e+01,-2.995644030320490359e+01,-1.030494429464635786e+01,-5.682196606986265539e-03,1.251380508177862318e-02
1.200000000000000025e-02,4.033521067841743791e-08,2.062712177785845924e+00,-1.288128109817522571e+00,-7.745011840247496560e-01,-1.433170481586654449e-07,1.570799953970122287e+00,3.054801782469890369e-05,7.600800009689134829e-02,-1.472084026568547976e+00,1.463265339158962286e+00,-1.301740619603256684e-04,-3.213896132294589205e-05,-1.115691618469175084e-02,-3.299999734044153854e+01,-2.972582893431325601e+01,-1.026082089026000865e+01,-5.525268066201649043e-03,1.244938879476069869e-02
1.400000000000000029e-02,7.933263669326011390e-08,2.062818280871891563e+00,-1.290123331339505741e+00,-7.725081765924829424e-01,-3.188336441952416639e-07,1.570799907445375565e+00,3.619447849712399619e-05,8.712382539217866650e-02,-1.705988027903093007e+00,1.692475440403546694e+00,-1.511849127579495530e-04,-3.623983636852351345e-05,-1.085484367816065901e-02,-3.299999727244937731e+01,-2.948085293157753384e+01,-1.021247311026399096e+01,-5.359283205514810307e-03,1.238126594828100648e-02
1.600000000000000033e-02,1.290148104906471102e-07,2.062948331658116974e+00,-1.292599483799366400e+00,-7.700400006073092607e-01,-5.371555574656383139e-07,1.570799851299108374e+00,4.192115661031618740e-05,9.796894389000364300e-02,-1.936488685662201448e+00,1.917538062679895683e+00,-1.719972441581249110e-04,-4.002742042492653653e-05,-1.054636659393584815e-02,-3.299999720882181009e+01,-2.922212876004925874e+01,-1.015998386067891524e+01,-5.184601803151403510e-03,1.230946567875237756e-02
1.800000000000000211e-02,1.897218722093717433e-07,2.063101392657814781e+00,-1.295550067285095919e+00,-7.671050501133401811e-01,-7.978922936362897863e-07,1.570799786262113473e+00,4.769865609367293744e-05,1.086081449756959305e-01,-2.163535817765108948e+00,2.138469414440840044e+00,-1.926099856220690938e-04,-4.351875992566950943e-05,-1.023145103735507988e-02,-3.299999715265981592e+01,-2.895027288477998439e+01,-1.010343604752539903e+01,-5.001583637337089772e-03,1.223401712258764470e-02
2.000000000000000042e-02,2.617939619882270255e-07,2.063276526384278942e+00,-1.298968581884685447e+00,-7.637117191546867190e-01,-1.100653358373628884e-06,1.570799713065180292e+00,5.349758087659169288e-05,1.191062180345851262e-01,-2.387079242131047607e+00,2.355285704139209457e+00,-2.130220666109991544e-04,-4.673090130426694642e-05,-9.910063113756122782e-03,-3.299999710706433831e+01,-2.866590177082123603e+01,-1.004291257682405458e+01,-4.810588486297525876e-03,1.215494941619964242e-02
2.199999999999999872e-02,3.455091005604612062e-07,2.063472932262915283e+00,-1.302848421641986443e+00,-7.598683675239622515e-01,-1.445045995095040501e-06,1.570799632403078849e+00,5.929015891389922098e-05,1.295234883978327034e-01,-2.607069919606988417e+00,2.568002368644125344e+00,-2.332316713488582366e-04,-4.968015082840730501e-05,-9.582187216476630715e-03,-3.299999707192746712e+01,-2.836963103324212554e+01,-9.978495411593437225e+00,-4.611977078364987853e-03,1.207228822939035093e-02
2.400000000000000050e-02,4.408968235843894713e-07,2.063690357383999086e+00,-1.307182556411566665e+00,-7.555832180036775592e-01,-1.830668397950294869e-06,1.570799544826482430e+00,6.505511445698137476e-05,1.399024246443542063e-01,-2.823463382887959394e+00,2.776631758397297034e+00,-2.532340030210826465e-04,-5.237985401367346031e-05,-9.247880893047861345e-03,-3.299999703430530218e+01,-2.806207288708003134e+01,-9.910262742730687080e+00,-4.406113942412201792e-03,1.198604536510240563e-02
2.600000000000000228e-02,5.479245435863500488e-07,2.063928685758135817e+00,-1.311963849997494158e+00,-7.508644591227924270e-01,-2.257116498704405602e-06,1.570799450850043577e+00,7.077279588007568973e-05,1.502810310311065156e-01,-3.036216307665288383e+00,2.981185452210440623e+00,-2.730235195311293849e-04,-5.484261616542102785e-05,-8.907219980098047066e-03,-3.299999697804492627e+01,-2.774383869733892283e+01,-9.838291818074338835e+00,-4.193364557475509971e-03,1.189622915945965156e-02
2.800000000000000058e-02,6.665596730926802666e-07,2.064187801395926058e+00,-1.317185166203835633e+00,-7.457202794102654186e-01,-2.723986229122382292e-06,1.570799350988411947e+00,7.642355155741968782e-05,1.606973118150463731e-01,-3.245285369630301009e+00,3.181675028895267321e+00,-2.925946787824549645e-04,-5.708104258900554862e-05,-8.560280314255402923e-03,-3.299999688699335110e+01,-2.741553982902275877e+01,-9.762659885462905862e+00,-3.974094402591253801e-03,1.180284794858591293e-02
2.999999999999999889e-02,7.967696246297186703e-07,2.064467588307974388e+00,-1.322839368834658469e+00,-7.401588673950556529e-01,-3.230873520969238555e-06,1.570799245756238083e+00,8.198772986325094519e-05,1.711892712531305760e-01,-3.450627244474322897e+00,3.378112067263493667e+00,-3.119419386785163588e-04,-5.910773858978263137e-05,-8.207137732148147430e-03,-3.299999674499764524e+01,-2.707778764713550856e+01,-9.683444192734903311e+00,-3.748668956795771657e-03,1.170591006860502610e-02
3.200000000000000067e-02,9.384925768717530302e-07,2.064767986090083607e+00,-1.328919255494612539e+00,-7.341883942483898862e-01,-3.777365197685145783e-06,1.570799135649204370e+00,8.744676782590203742e-05,1.817909546601320370e-01,-3.652199485185074312e+00,3.570507352991120875e+00,-3.310592447613544434e-04,-6.093459922629747765e-05,-7.847878449428621894e-03,-3.299999654869090904e+01,-2.673119603805023914e+01,-9.600723328424864533e+00,-3.517454748142790927e-03,1.160542628893522672e-02
3.400000000000000244e-02,1.091549767823860514e-06,2.065089156688870720e+00,-1.335417358978768565e+00,-7.278169617074453646e-01,-4.363011647771750342e-06,1.570799021087117220e+00,9.278645728600335037e-05,1.925205708696246520e-01,-3.849963154093729134e+00,3.758868499068571456e+00,-3.499384930351409216e-04,-6.257067844203571089e-05,-7.482630199713515354e-03,-3.299999634585283559e+01,-2.637638897407031280e+01,-9.514581244092633838e+00,-3.280822500944364194e-03,1.150141711261027690e-02
3.600000000000000422e-02,1.255733199008502245e-06,2.065431317641155839e+00,-1.342326145876822530e+00,-7.210526541501051101e-01,-4.987354150586254168e-06,1.570798902470812664e+00,9.799367883624122890e-05,2.033923694167587282e-01,-4.043880190906794070e+00,3.943202325279184794e+00,-3.685710670965275447e-04,-6.402431986976206153e-05,-7.111531096577577461e-03,-3.299999619705030796e+01,-2.601399294909506210e+01,-9.425103232114690144e+00,-3.039143988624323257e-03,1.139390547617729656e-02
3.799999999999999906e-02,1.430834871948139137e-06,2.065794686483759079e+00,-1.349638082778470416e+00,-7.139035559542524778e-01,-5.649933985485862161e-06,1.570798780201127176e+00,1.030553130693020856e-04,2.144205998366846277e-01,-4.233912535330778937e+00,4.123515651406303384e+00,-3.869483505421659553e-04,-6.530386714224126676e-05,-6.734719253595563074e-03,-3.299999616285023762e+01,-2.564463445702383027e+01,-9.332374584867531908e+00,-2.792790984606502522e-03,1.128291431618341084e-02
4.000000000000000083e-02,1.616646788165233479e-06,2.066179480753498776e+00,-1.357345636273408429e+00,-7.063777514977701566e-01,-6.350292431827780066e-06,1.570798654678896789e+00,1.079582405778722789e-04,2.256195116645526855e-01,-4.420022127072193108e+00,4.299815297233265277e+00,-4.050617269687079589e-04,-6.641766389223804348e-05,-6.352332784342217507e-03,-3.299999630381952187e+01,-2.526893999175596406e+01,-9.236480594727641602e+00,-2.542135262314730755e-03,1.116846656917573448e-02
4.200000000000000261e-02,1.812938142318292234e-06,2.066585943812249138e+00,-1.365441207912352573e+00,-6.984833132732434224e-01,-7.087956374821221396e-06,1.570798526290505537e+00,1.126904579795413825e-04,2.369992784497511051e-01,-4.602171730371708236e+00,4.472107235889069443e+00,-4.229021068739429205e-04,-6.737334194722003104e-05,-5.964520397711043850e-03,-3.299999663251641380e+01,-2.488753867239626061e+01,-9.137508720427645059e+00,-2.287549471457947601e-03,1.105058969190614131e-02
4.399999999999999745e-02,2.019386896137448032e-06,2.067014422328293577e+00,-1.373916939074485866e+00,-6.902282662292110738e-01,-7.862395119629514962e-06,1.570798395364528144e+00,1.172444262593041846e-04,2.485537688205782803e-01,-4.780327407804502826e+00,4.640394053682184605e+00,-4.404585082466894348e-04,-6.817568574266720310e-05,-5.571473186412908077e-03,-3.299999696945310745e+01,-2.450107011950121461e+01,-9.035555086644514233e+00,-2.029409767095777337e-03,1.092932922303011499e-02
4.599999999999999922e-02,2.235648201752521087e-06,2.067465288798065792e+00,-1.382764906092208035e+00,-6.816206234274879705e-01,-8.673063575541002193e-06,1.570798262215084007e+00,1.216137225609590798e-04,2.602727749305349114e-01,-4.954456046578844308e+00,4.804677490165157216e+00,-4.577194759201418236e-04,-6.882876782336021660e-05,-5.173392839748639296e-03,-3.299999708712738311e+01,-2.411017657914775825e+01,-8.930717984671273868e+00,-1.768093180678084351e-03,1.080473522195021970e-02
4.800000000000000100e-02,2.461377211293330345e-06,2.067938915718000814e+00,-1.391977185297918584e+00,-6.726683979298888616e-01,-9.519416651844017741e-06,1.570798127156294521e+00,1.257919240283043817e-04,2.721460889331217547e-01,-5.124524533903004553e+00,4.964959284890529290e+00,-4.746735547274939749e-04,-6.933666073407976913e-05,-4.770481047019072690e-03,-3.299999675803702104e+01,-2.371550029741281307e+01,-8.823095705800948707e+00,-1.503976743654734981e-03,1.067685774806902133e-02
5.000000000000000278e-02,2.696229076889695595e-06,2.068435675584534117e+00,-1.401545853024017241e+00,-6.633796027982284960e-01,-1.040090925782689880e-05,1.570797990502279973e+00,1.297726078051384443e-04,2.841635029818395108e-01,-5.290499756985251878e+00,5.121241177410847278e+00,-4.913092895019402105e-04,-6.970343701960654472e-05,-4.362939497525043439e-03,-3.299999575467982993e+01,-2.331768352037330772e+01,-8.712786541326568823e+00,-1.237437487475595566e-03,1.054574686078908578e-02
5.200000000000000455e-02,2.939848499234637509e-06,2.068955923325697110e+00,-1.411462930850097219e+00,-6.537622483345230107e-01,-1.131697722144238210e-05,1.570797852560519736e+00,1.335503114168384094e-04,2.963113794617404095e-01,-5.452349229779724915e+00,5.273524131495568312e+00,-5.076149087769353052e-04,-6.993261300977822708e-05,-3.950979877535164622e-03,-3.299999402868461118e+01,-2.291736988711138423e+01,-8.599892002699549565e+00,-9.688528355035456617e-04,1.041145918448254520e-02
5.399999999999999939e-02,3.191838370139163426e-06,2.069499943590644264e+00,-1.421720221328103939e+00,-6.438243338007672012e-01,-1.226698003957750256e-05,1.570797713611929547e+00,1.371234142031555066e-04,3.085623606553503651e-01,-5.610042973412028289e+00,5.421806007549101025e+00,-5.235773757921065308e-04,-7.002548000782818458e-05,-3.534853864187677275e-03,-3.299999224825807431e+01,-2.251520860914789779e+01,-8.484526482970753847e+00,-6.986017788710749236e-04,1.027407760536890209e-02
5.600000000000000117e-02,3.451791128410011946e-06,2.070068003457491201e+00,-1.432309472248964877e+00,-6.335738556987428050e-01,-1.325025812492195315e-05,1.570797573930782676e+00,1.404912560294546838e-04,3.208856585623616198e-01,-5.763551635847633747e+00,5.566083890076419571e+00,-5.391833374399041890e-04,-6.998277301862760604e-05,-3.114823133087908386e-03,-3.299999126076478717e+01,-2.211185029121782719e+01,-8.366807595832380429e+00,-4.270637006824616372e-04,1.013369157562182821e-02
5.800000000000000294e-02,3.719299212853922514e-06,2.070660370004354878e+00,-1.443222431403607731e+00,-6.230188105302326695e-01,-1.426615189016541671e-05,1.570797433791353281e+00,1.436531767611008345e-04,3.332504851824666381e-01,-5.912845865052014815e+00,5.706354863582500769e+00,-5.544194406127789070e-04,-6.980522704704761252e-05,-2.691149359841192319e-03,-3.299999191356937445e+01,-2.170794553805617966e+01,-8.246852954976642280e+00,-1.546179840419879370e-04,9.990390547414986638e-03
5.999999999999999778e-02,3.993955062277629493e-06,2.071277310309351360e+00,-1.454450846582959755e+00,-6.121671947970181993e-01,-1.531400174799756587e-05,1.570797293467914191e+00,1.466085162634587981e-04,3.456260525153573848e-01,-6.057896308990639689e+00,5.842616012572309891e+00,-5.692723322031808782e-04,-6.949357709795931151e-05,-2.264094220052859530e-03,-3.299999505403640399e+01,-2.130414495439793043e+01,-8.124780174095732832e+00,1.183559879460649640e-04,9.844263972922042208e-03
6.199999999999999956e-02,4.275349947696758699e-06,2.071919040290964631e+00,-1.465986416546734450e+00,-6.010270098222993962e-01,-1.639312585544486095e-05,1.570797153233475907e+00,1.493574243152397910e-04,3.579789990755960494e-01,-6.198674088562410311e+00,5.974863716131991964e+00,-5.837285235504686498e-04,-6.904821439248153101e-05,-1.833931070688913289e-03,-3.300000086083641548e+01,-2.090109690036383583e+01,-8.000710831903505849e+00,3.914789770812776570e-04,9.695408781653324509e-03
6.400000000000000133e-02,4.563070468542130316e-06,2.072585571210724176e+00,-1.477820643912134857e+00,-5.896062762166782711e-01,-1.750275333887018350e-05,1.570797013355990313e+00,1.519032906400538793e-04,3.702656685109414481e-01,-6.335152216570137718e+00,6.103091531418423088e+00,-5.977739837328408575e-04,-6.846815489298448837e-05,-1.400979998362550513e-03,-3.300000683762290521e+01,-2.049944075680972233e+01,-7.874782368627499807e+00,6.643723248308214084e-04,9.543951815157099977e-03
6.600000000000000311e-02,4.856702056243276610e-06,2.073276863161318762e+00,-1.489944982256324879e+00,-5.779130194130422948e-01,-1.864209106496773978e-05,1.570796874102145635e+00,1.542503150206211700e-04,3.824398305208610571e-01,-6.467304178835181716e+00,6.227292310042689572e+00,-6.113945462510084238e-04,-6.775207071621377987e-05,-9.655727731499889541e-04,-3.300000981923499666e+01,-2.009981365957322197e+01,-7.747136190230510699e+00,9.366575175918064652e-04,9.390027393664046249e-03
6.800000000000000488e-02,5.155830142229729851e-06,2.073992876235439820e+00,-1.502350885156469529e+00,-5.659552648442788270e-01,-1.981034590043172585e-05,1.570796735738630101e+00,1.564026972396617698e-04,3.944552548048219642e-01,-6.595103461178897675e+00,6.347458903615879500e+00,-6.245760446056818375e-04,-6.689863397891502889e-05,-5.280411651274460405e-04,-3.300000664051177068e+01,-1.970285274449196322e+01,-7.617913702675329191e+00,1.207956041761343996e-03,9.233769837404818409e-03
7.000000000000000666e-02,5.460040157931022307e-06,2.074733570525773896e+00,-1.515029806189732486e+00,-5.537410379432748941e-01,-2.100672471195634460e-05,1.570796598532131716e+00,1.583646370798957317e-04,4.062657110622914791e-01,-6.718523549422638297e+00,6.463584163749077405e+00,-6.373043122975716960e-04,-6.590651679783380461e-05,-8.871694437113854942e-05,-3.299999413629232947e+01,-1.930919514740355325e+01,-7.487256311924742391e+00,1.477889383736543652e-03,9.075313466610085422e-03
7.200000000000000844e-02,5.768924551817193415e-06,2.075498829042561777e+00,-1.527973154778524689e+00,-5.412783760656572074e-01,-2.223041075851877387e-05,1.570796462751561595e+00,1.601409411112172715e-04,4.178234190129412884e-01,-6.837538318592913278e+00,6.575660258998834884e+00,-6.495652615880194262e-04,-6.477428690795835600e-05,3.520544743095314574e-04,-3.299997163670033729e+01,-1.891947263295330828e+01,-7.355310735226004759e+00,1.746080539914214580e-03,8.914801139099539154e-03
7.399999999999999634e-02,6.082103843466938173e-06,2.076288226433877782e+00,-1.541172163707706266e+00,-5.285753642630184324e-01,-2.348049285831471260e-05,1.570796328674727071e+00,1.617388433070222518e-04,4.290743978063891739e-01,-6.952123200700259353e+00,6.683676625416748784e+00,-6.613451198139632531e-04,-6.350009447341525468e-05,7.938730914426679521e-04,-3.299994845404560095e+01,-1.853429547876180550e+01,-7.222244937194557401e+00,2.012158547324040259e-03,8.752409866634152519e-03
7.599999999999999811e-02,6.399205570972851383e-06,2.077101260249158976e+00,-1.554618021598111577e+00,-5.156400995121925845e-01,-2.475603621686588949e-05,1.570796196581657256e+00,1.631661845552895783e-04,4.399631162870030754e-01,-7.062254017042083554e+00,6.787622015856454638e+00,-6.726301930895098920e-04,-6.208198525465625280e-05,1.236325259958173184e-03,-3.299993639644637966e+01,-1.815426859012948668e+01,-7.088232194845525136e+00,2.275753953312468179e-03,8.588325200356581104e-03
7.799999999999999989e-02,6.719857272427524460e-06,2.077937428037844647e+00,-1.568301917070575868e+00,-5.024806787900150118e-01,-2.605610603969398919e-05,1.570796066752383258e+00,1.644308057439981027e-04,4.504340432991512655e-01,-7.167906588915799126e+00,6.887485183171588865e+00,-6.834067875287655166e-04,-6.051800501213322448e-05,1.678997332785940513e-03,-3.299994727202100364e+01,-1.777999687235681137e+01,-6.953445785194037221e+00,2.536497305225938245e-03,8.422732691409494377e-03
8.000000000000000167e-02,7.043686485923545432e-06,2.078796227349372305e+00,-1.582215038745933278e+00,-4.891051990733201182e-01,-2.737976753232070653e-05,1.570795939466933522e+00,1.655405477611267035e-04,4.604316476872017394e-01,-7.269056737618806885e+00,6.983254880215785221e+00,-6.936612092458366253e-04,-5.880619950629796251e-05,2.121475662855865519e-03,-3.299999288888773918e+01,-1.741208523074421066e+01,-6.818058985255221138e+00,2.794019150410893826e-03,8.255817890935544454e-03
8.200000000000000344e-02,7.370333811287501951e-06,2.079677063202971965e+00,-1.596348534943682340e+00,-4.755217760792783133e-01,-2.872606307966289786e-05,1.570795815008593665e+00,1.665036224564324277e-04,4.698998503497490709e-01,-7.365680712255388229e+00,7.074919102028270679e+00,-7.033800643936297288e-04,-5.694472692274359972e-05,2.563327497929527264e-03,-3.300007574224311924e+01,-1.705112149741321304e+01,-6.682248593013260241e+00,3.047951489750292103e-03,8.087772288009666480e-03
8.400000000000000522e-02,7.699492101550486472e-06,2.080578970452635179e+00,-1.610693392758634879e+00,-4.617386004953944467e-01,-3.009394377326596692e-05,1.570795693673663562e+00,1.673297257048149769e-04,4.787803801393252234e-01,-7.457756473362598726e+00,7.162462812026926251e+00,-7.125511594242438414e-04,-5.493219520158300145e-05,3.004043655926355409e-03,-3.300016107112716668e+01,-1.669762520357584279e+01,-6.546205492018325245e+00,3.297932138970723331e-03,7.918811126285571836e-03
8.600000000000000699e-02,8.030867274612044969e-06,2.081500891399937103e+00,-1.625240558974593741e+00,-4.477638817540062210e-01,-3.148233787859417039e-05,1.570795575761699814e+00,1.680289244319728361e-04,4.870144178311966998e-01,-7.545262409387021307e+00,7.245870215633370748e+00,-7.211626009005792049e-04,-5.276732473504926012e-05,3.443095845012750494e-03,-3.300020479942330098e+01,-1.635209880316811137e+01,-6.410124087634581969e+00,3.543600367684101096e-03,7.749155588774175873e-03
8.799999999999999489e-02,8.364165248371713249e-06,2.082441768346454225e+00,-1.639980980375361552e+00,-4.336058292874508946e-01,-3.289017366111172773e-05,1.570795461572256801e+00,1.686112855636043815e-04,4.945431442006295031e-01,-7.628176908775242460e+00,7.325125518269214098e+00,-7.292024953855354109e-04,-5.044883591537546139e-05,3.879955773355107853e-03,-3.300016285101492031e+01,-1.601504475012601603e+01,-6.274198785226188235e+00,3.784595445502336383e-03,7.579026858486394812e-03
8.999999999999999667e-02,8.699091940729043217e-06,2.083400543593763921e+00,-1.654905603744741605e+00,-4.192726525280660033e-01,-3.431637938628290241e-05,1.570795351404891349e+00,1.690868760254080711e-04,5.013077400228903580e-01,-7.706478359973846004e+00,7.400212925356079552e+00,-7.366589494420129180e-04,-4.797544913479469091e-05,4.314095149119834098e-03,-3.299999114978544412e+01,-1.568696549838555399e+01,-6.138623990157307198e+00,4.020556642037346681e-03,7.408646118433147472e-03
9.199999999999999845e-02,9.035370046847081125e-06,2.084376061421663984e+00,-1.670005339854328197e+00,-4.047725872296774052e-01,-3.575986349987959911e-05,1.570795245561291020e+00,1.694658546972490558e-04,5.072498251141582815e-01,-7.780145692210103547e+00,7.471115720799356374e+00,-7.435205933472343112e-04,-4.534618018987891661e-05,4.744975206652395083e-03,-3.299968037430022605e+01,-1.536836220753568760e+01,-6.003605263573046358e+00,4.251132561339469179e-03,7.238247783256527949e-03
9.400000000000000022e-02,9.372789380001131089e-06,2.085366773969922427e+00,-1.685270955407440319e+00,-3.901139744462767123e-01,-3.721945515820372007e-05,1.570795144351678774e+00,1.697587483253070178e-04,5.123127756913060660e-01,-7.849159998125994520e+00,7.537813501942031813e+00,-7.497781525184754863e-04,-4.256122665404706744e-05,5.172015279359631207e-03,-3.299936024061686624e+01,-1.505973085907838538e+01,-5.869392795765406845e+00,4.476009150252510498e-03,7.068119201267241032e-03
9.600000000000000200e-02,9.711156535259405392e-06,2.086371035330064405e+00,-1.700693181085464412e+00,-3.753051815604499519e-01,-3.869396369251405755e-05,1.570795048088410972e+00,1.699761756347534724e-04,5.164404071306485378e-01,-7.913502911290186681e+00,7.600284944362088346e+00,-7.554228762287233190e-04,-3.962108158480805430e-05,5.594624223999812053e-03,-3.299919522885771528e+01,-1.476156613981915200e+01,-5.736247935819090316e+00,4.694881692578743194e-03,6.898560955979347528e-03
9.800000000000000377e-02,1.005027810769011632e-05,2.087387199593614184e+00,-1.716262747569787361e+00,-3.603545759547832628e-01,-4.018219843406939704e-05,1.570794957083843757e+00,1.701287553507599621e-04,5.195765348084998569e-01,-7.973156065271343351e+00,7.658508723637503124e+00,-7.604460137509643598e-04,-3.652623803967072709e-05,6.012210897331202869e-03,-3.299934981914513088e+01,-1.447436273656346728e+01,-5.604432032818795761e+00,4.907445472120440695e-03,6.729873630906902174e-03
1.000000000000000056e-01,1.038996069236147446e-05,2.088413620852098695e+00,-1.731970385541797164e+00,-3.452705250118627278e-01,-4.168296871412855114e-05,1.570794871650333047e+00,1.702271061984979750e-04,5.216649741011748498e-01,-8.028101093638129626e+00,7.712463515346260401e+00,-7.648388143581860265e-04,-3.327718907614399669e-05,6.424184156112069770e-03,-3.299998849160147785e+01,-1.419861533611683235e+01,-5.474206435849226615e+00,5.113395772679875557e-03,6.562357809563970114e-03
1.020000000000000073e-01,1.073002857923198558e-05,2.089448559570721287e+00,-1.747806795076125796e+00,-3.300614316494913658e-01,-4.319506928156506570e-05,1.570794792099413639e+00,1.702816922162058691e-04,5.226505226790862935e-01,-8.078320497197639227e+00,7.762126788410201428e+00,-7.685932084651102237e-04,-2.987479137747940899e-05,6.829909577976471698e-03,-3.300114601950680537e+01,-1.393472949361292557e+01,-5.345812308181860928e+00,5.312418946322304547e-03,6.396293223702573770e-03
1.040000000000000091e-01,1.107037684843651060e-05,2.090489901653228788e+00,-1.763762553802026734e+00,-3.147358409476581076e-01,-4.471723654696345299e-05,1.570794718739331630e+00,1.703023586015923465e-04,5.224819079783202813e-01,-8.123800246230944211e+00,7.807471184402756670e+00,-7.717038514620172063e-04,-2.632135634803897171e-05,7.228579598098389992e-03,-3.300233827096050021e+01,-1.368275418402790677e+01,-5.219410057725776042e+00,5.504165612806733408e-03,6.231876185517590781e-03
1.059999999999999970e-01,1.141091828030819857e-05,2.091535439348962910e+00,-1.779828208732817219e+00,-2.993023335322284595e-01,-4.624819233414867713e-05,1.570794651877511994e+00,1.702987958190308880e-04,5.211088400237231522e-01,-8.164527178517692718e+00,7.848468137879244466e+00,-7.741660800852465541e-04,-2.261955912700553016e-05,7.619343359544999451e-03,-3.300295136831103093e+01,-1.344264922392898676e+01,-5.095139900521618692e+00,5.688277457475863011e-03,6.069282149186882094e-03
1.079999999999999988e-01,1.175156565518020191e-05,2.092582964907261811e+00,-1.795994306881814495e+00,-2.837694900290675393e-01,-4.778665846694569547e-05,1.570794591821378594e+00,1.702806943328949744e-04,5.184810288401411338e-01,-8.200488131837536443e+00,7.885089083394992038e+00,-7.759752310711377386e-04,-1.877207485356181108e-05,8.001350005383484412e-03,-3.300237143390686612e+01,-1.321437442988335675e+01,-4.973142052610028507e+00,5.864396165672396827e-03,5.908686568888306921e-03
1.100000000000000006e-01,1.209223175338566799e-05,2.093630270577465868e+00,-1.812251395262335807e+00,-2.681458910640409643e-01,-4.933135676917942467e-05,1.570794538878355739e+00,1.702577446075581136e-04,5.145481844524208981e-01,-8.231669943970123526e+00,7.917305455505320388e+00,-7.771266411560305565e-04,-1.478157866689064961e-05,8.373748678681019672e-03,-3.299998459009645302e+01,-1.299788961845822577e+01,-4.853556730031653998e+00,6.032163422739035726e-03,5.750264898799732280e-03
1.120000000000000023e-01,1.243284550347719231e-05,2.094675064805825659e+00,-1.828589998954420537e+00,-2.524401648643344598e-01,-5.088100129384640774e-05,1.570794493351410859e+00,1.702390798538295027e-04,5.092624143430329875e-01,-8.258060174320524638e+00,7.945087358732926042e+00,-7.776165762870279347e-04,-1.065129712283383059e-05,8.735789774998573010e-03,-3.299566101738714963e+01,-1.279336762479790046e+01,-4.736612872394342588e+00,6.191295099226780743e-03,5.594286850099098284e-03
1.140000000000000041e-01,1.277340043754129827e-05,2.095714720770934125e+00,-1.845000555290523980e+00,-2.366611300938276374e-01,-5.243427500550143023e-05,1.570794455525675870e+00,1.702316039005324357e-04,5.025854174070186753e-01,-8.279649269271700973e+00,7.968399576592306133e+00,-7.774450198674704967e-04,-6.386662807746990370e-06,9.087128766688434833e-03,-3.299120744835006747e+01,-1.260183349892531801e+01,-4.622894372123123929e+00,6.341803855474386666e-03,5.441399224164529362e-03
1.160000000000000059e-01,1.311390624121246044e-05,2.096746527820639194e+00,-1.861473479662585362e+00,-2.208176530334273191e-01,-5.398985309530673199e-05,1.570794425681824036e+00,1.702416631390458307e-04,4.944812907881450115e-01,-8.296428397070144456e+00,7.987205562126446168e+00,-7.766128848180783818e-04,-1.993659906598660973e-06,9.427522412007513855e-03,-3.298891483344247177e+01,-1.242452537973139215e+01,-4.513073874486826398e+00,6.483776561508197700e-03,5.292343110476712548e-03
1.180000000000000077e-01,1.345437260012516184e-05,2.097767775302791904e+00,-1.877999187462543906e+00,-2.049185999640407152e-01,-5.554641075442448512e-05,1.570794404100529507e+00,1.702756039607486872e-04,4.849141316301796012e-01,-8.308388725962354115e+00,8.001468768378336094e+00,-7.751210840595722717e-04,2.521727395642605664e-06,9.756727469212720522e-03,-3.299107412312162779e+01,-1.226268140610705260e+01,-4.407824024754275705e+00,6.617300087354559789e-03,5.147859598516342679e-03
1.199999999999999956e-01,1.379480919991387873e-05,2.098775752565241959e+00,-1.894568094082340171e+00,-1.889728371665750084e-01,-5.710262317401689560e-05,1.570794391062464435e+00,1.703397727570199775e-04,4.738480370768898275e-01,-8.315521424194827205e+00,8.011152648390966746e+00,-7.729705305126726312e-04,7.153514914008232196e-06,1.007450069656096354e-02,-3.299997626784482918e+01,-1.211753971694322374e+01,-4.307817468194301114e+00,6.742461303039818873e-03,5.008689777764112859e-03
1.219999999999999973e-01,1.413523630161430733e-05,2.099767689128507531e+00,-1.911170600196915315e+00,-1.729892918226182685e-01,-5.865716706650750352e-05,1.570794386838331391e+00,1.704402397416658111e-04,4.612467123921286105e-01,-8.317820045219749048e+00,8.016218637717798856e+00,-7.701627132399956185e-04,1.189574780163581719e-05,1.038021550190192967e-02,-3.301610568888806085e+01,-1.198940590271075735e+01,-4.213394897774388248e+00,6.859129511436957288e-03,4.875221667336216563e-03
1.239999999999999991e-01,1.447571647548012019e-05,2.100740575160715995e+00,-1.927797047602624492e+00,-1.569771347603259037e-01,-6.020872523046021617e-05,1.570794391658936640e+00,1.705819702193828874e-04,4.470722950379811267e-01,-8.315287685029151277e+00,8.016620100501816282e+00,-7.667014262864972618e-04,1.674258858520741126e-05,1.067171161548580507e-02,-3.303271939029786353e+01,-1.187485468886685247e+01,-4.123568958287133768e+00,6.966303590180827898e-03,4.746430750718640297e-03
1.260000000000000009e-01,1.481632287097311981e-05,2.101691340981126199e+00,-1.944437763373527916e+00,-1.409455977304572838e-01,-6.175598198624787161e-05,1.570794405745110867e+00,1.707696532178772542e-04,4.312865304555497104e-01,-8.307929825679369884e+00,8.012308382670230600e+00,-7.625910400464287016e-04,2.168822914007224892e-05,1.094644527915784871e-02,-3.304126719662875900e+01,-1.176952791675173238e+01,-4.037020222728272323e+00,7.062764771433534261e-03,4.620939313935317969e-03
1.280000000000000027e-01,1.515712863755510359e-05,2.102616916908997435e+00,-1.961083074583684471e+00,-1.249039124837718895e-01,-6.329762165424332823e-05,1.570794429317686536e+00,1.710079777648548511e-04,4.138511640859373064e-01,-8.295751949226747968e+00,8.003234830150246282e+00,-7.578359249140404277e-04,2.672686134157956124e-05,1.120187273476331603e-02,-3.303319893243528327e+01,-1.166906742770563099e+01,-3.952429264093541228e+00,7.147294287357182536e-03,4.497369643010179149e-03
1.300000000000000044e-01,1.549820692468786723e-05,2.103514233263588551e+00,-1.977723308307153482e+00,-1.088613107710291045e-01,-6.483232855481943762e-05,1.570794462597494334e+00,1.713016328880216177e-04,3.947279413702462492e-01,-8.278759537727625073e+00,7.989350788869071351e+00,-7.524404512835826050e-04,3.185267706507858274e-05,1.143545022414746599e-02,-3.299996442227197235e+01,-1.156911506306877868e+01,-3.868476655378676465e+00,7.218673370113876282e-03,4.374344023967160350e-03
1.320000000000000062e-01,1.583963869537023832e-05,2.104380156618912867e+00,-1.994348800752995476e+00,-9.282710541738690979e-02,-6.635879429092719707e-05,1.570794505795687135e+00,1.716530559649013241e-04,3.738900524725884411e-01,-8.256955059711783562e+00,7.970607539735460989e+00,-7.464110709183492025e-04,3.705790673019618997e-05,1.164615151096528613e-02,-3.293975526413392885e+01,-1.146864827478990811e+01,-3.785060158436769129e+00,7.276575616517936065e-03,4.251777765384382596e-03
1.340000000000000080e-01,1.618153617284274730e-05,2.105211298518276486e+00,-2.010949924677394751e+00,-7.681093360882627896e-02,-6.787573960150967121e-05,1.570794559084697450e+00,1.720556760162561896e-04,3.513564753746998282e-01,-8.230328927252564597e+00,7.946956103533653781e+00,-7.397625626810396026e-04,4.232693340395644985e-05,1.183902162960578756e-02,-3.287773540759818758e+01,-1.137998955865021067e+01,-3.706947239819756490e+00,7.324244777935887303e-03,4.134759274467850361e-03
1.360000000000000098e-01,1.652401939693009654e-05,2.106004206734880313e+00,-2.027517061975098844e+00,-6.082251363734420685e-02,-6.938189251092817859e-05,1.570794622627275539e+00,1.725006695345647175e-04,3.271576372445540448e-01,-8.198868537721534011e+00,7.918347436004079754e+00,-7.325117876150911284e-04,4.764217793272987914e-05,1.202062372807295373e-02,-3.284581320484839750e+01,-1.131879832186539225e+01,-3.640123029617910344e+00,7.365817318392059443e-03,4.029670485232467875e-03
1.380000000000000115e-01,1.686720840745696808e-05,2.106755429041923477e+00,-2.044040594540854183e+00,-4.487156379493764669e-02,-7.087598104354402419e-05,1.570794696586170769e+00,1.729792130123051130e-04,3.013239652501251697e-01,-8.162561288490257638e+00,7.884732492887165378e+00,-7.246756067639413199e-04,5.298606116288701490e-05,1.219752095437075939e-02,-3.287589700806821469e+01,-1.130073397165115345e+01,-3.590572657921504707e+00,7.405429701910785402e-03,3.942893331693139367e-03
1.400000000000000133e-01,1.721122324424806090e-05,2.107461513212607773e+00,-2.060510904269409860e+00,-2.896780237360363150e-02,-7.235673322371848591e-05,1.570794781124133843e+00,1.734824829419559609e-04,2.738858865593868375e-01,-8.121394576930303089e+00,7.846062229923343345e+00,-7.162708811710280423e-04,5.834100394079835356e-05,1.237627645650319318e-02,-3.299989516944133072e+01,-1.134145591522320018e+01,-3.564281254820814926e+00,7.447218392516398097e-03,3.880809747864769933e-03
1.420000000000000151e-01,1.755616924435377048e-05,2.108119057721487000e+00,-2.076918352055515449e+00,-1.312102938869173438e-02,-7.382290517167994584e-05,1.570794876374622007e+00,1.740063992104897393e-04,2.448413527036493176e-01,-8.075373012442314646e+00,7.802280832623238460e+00,-7.073105900202770503e-04,6.369531773203354695e-05,1.255412578183979187e-02,-3.320559401065378324e+01,-1.143446849514943864e+01,-3.559056564956947444e+00,7.489773631673505086e-03,3.841108719464678568e-03
1.440000000000000169e-01,1.790209292137871365e-05,2.108724863891117351e+00,-2.093253214776303217e+00,2.658628182400020988e-03,-7.527336541472241587e-05,1.570794982353898694e+00,1.745658592667529178e-04,2.140583853918336943e-01,-8.024570066999377360e+00,7.753305399892069794e+00,-6.977921817972618452e-04,6.906088142638938860e-05,1.269098624111956140e-02,-3.330425467405986950e+01,-1.148463718774539366e+01,-3.539989923127694560e+00,7.509496112430030616e-03,3.786700137960739235e-03
1.459999999999999909e-01,1.824902607997823872e-05,2.109275783766701551e+00,-2.109505748300087635e+00,1.836096160459816870e-02,-7.670701058780680448e-05,1.570795099048921450e+00,1.751805059462430581e-04,1.813725170568992184e-01,-7.969076431832453622e+00,7.699046257561855455e+00,-6.877092214977182771e-04,7.445546700683675729e-05,1.273744362698944754e-02,-3.306299774090039989e+01,-1.137466309987147461e+01,-3.463991844297843681e+00,7.477237975940765995e-03,3.671797295610448961e-03
1.479999999999999927e-01,1.859700052480773463e-05,2.109768669393443652e+00,-2.125666208495184950e+00,3.397576214282991419e-02,-7.812273732589406080e-05,1.570795226446649151e+00,1.758699820844580473e-04,1.466192801318040029e-01,-7.908982798172511153e+00,7.639413731464607338e+00,-6.770552741173831721e-04,7.989684645634670119e-05,1.264408373209639953e-02,-3.224894379241619191e+01,-1.098724733838809087e+01,-3.287972843432179104e+00,7.363851363360504262e-03,3.450613484671297398e-03
1.499999999999999944e-01,1.894604806052255306e-05,2.110200372816547709e+00,-2.141724851229910076e+00,4.949282106202179676e-02,-7.951944226394513395e-05,1.570795364534039784e+00,1.766539305168957183e-04,1.096342070495071874e-01,-7.844379857250517674e+00,7.574318147432347992e+00,-6.658239046519931394e-04,8.540279175789016006e-05,1.236149234908736835e-02,-3.062921340984805951e+01,-1.020509101015564113e+01,-2.968843435495486016e+00,7.140188415844037594e-03,3.077361997400782003e-03
1.519999999999999962e-01,1.929623322250368012e-05,2.110567472029987623e+00,-2.157672083490785209e+00,6.490178020361890565e-02,-8.089601131431728702e-05,1.570795513327665427e+00,1.775125019359198608e-04,7.050959250012571455e-02,-7.775240111087573069e+00,7.503712651013792367e+00,-6.540419453128751325e-04,9.094444723025822729e-05,1.185789709909137665e-02,-2.805844933703686195e+01,-8.955374735737196445e+00,-2.480191027803418269e+00,6.787569117790563135e-03,2.524025014310607006e-03
1.539999999999999980e-01,1.964775149848835026e-05,2.110865448576213943e+00,-2.173498916873150666e+00,8.019168358067658986e-02,-8.225128748930419533e-05,1.570795672962577605e+00,1.782678429231742865e-04,3.036501125759609454e-02,-7.701063198509214835e+00,7.427721705157067866e+00,-6.418693271102167246e-04,9.630640457622641161e-05,1.117210879269217062e-02,-2.474146172765629004e+01,-7.343237216725634120e+00,-1.862325604274882584e+00,6.329194246378382765e-03,1.833676258794251666e-03
1.559999999999999998e-01,2.000083112166791229e-05,2.111089509823123045e+00,-2.189196514158555207e+00,9.535142571552945867e-02,-8.358410307377076899e-05,1.570795843603455033e+00,1.787025901460777147e-04,-9.423084106398835896e-03,-7.621230515947090112e+00,7.346512611795468217e+00,-6.294992632397284618e-04,1.012266068523822793e-04,1.036058800761159929e-02,-2.097062228212579527e+01,-5.518316683777157117e+00,-1.172241545623549541e+00,5.798737132460697781e-03,1.067166338331132242e-03
1.580000000000000016e-01,2.035570032523371841e-05,2.111234863138614415e+00,-2.204756038128545814e+00,1.103699011305119548e-01,-8.489329035258193169e-05,1.570796025414975094e+00,1.785993802720489188e-04,-4.747824102017612902e-02,-7.535123459832839821e+00,7.260252672862286261e+00,-6.171249668971205650e-04,1.054429971153134104e-04,9.479795321571511668e-03,-1.703830270086487886e+01,-3.630251367547980834e+00,-4.669332325630957681e-01,5.229871106890718151e-03,2.853458604006742097e-04
1.600000000000000033e-01,2.071258734237714453e-05,2.111296715890588427e+00,-2.220168651564673024e+00,1.252360043479587015e-01,-8.617768161060260711e-05,1.570796218561817392e+00,1.777408499685066722e-04,-8.242400691205287178e-02,-7.442123426598111990e+00,7.169109190290820166e+00,-6.049396512781037970e-04,1.086935184216074253e-04,8.586191312293777606e-03,-1.323687468429305447e+01,-1.828679498694326222e+00,1.966049541928019950e-01,4.656269500521652976e-03,-4.509345675176978235e-04
1.620000000000000051e-01,2.107135822063454714e-05,2.111272568986443776e+00,-2.235424486488859053e+00,1.399389086601484922e-01,-8.743643107774569162e-05,1.570796422772001710e+00,1.759571509505163242e-04,-1.132100808217035709e-01,-7.341765303298514844e+00,7.073195020944070599e+00,-5.930956836696666410e-04,1.107773147200175165e-04,7.724682223583159875e-03,-9.796233895182357543e+00,-2.309237686418803837e-01,7.737201064129212158e-01,4.104688045266497581e-03,-1.093993153851978385e-03
1.640000000000000069e-01,2.143042991726853638e-05,2.111169099693107398e+00,-2.250509550895125610e+00,1.544689027067223386e-01,-8.866998107314393550e-05,1.570796636026501991e+00,1.732685407323535012e-04,-1.400910812998170663e-01,-7.234198086817714035e+00,6.972405189143290549e+00,-5.815820085168431309e-04,1.117383922733173647e-04,6.893945872831239857e-03,-6.696311876373922445e+00,1.174986307063906610e+00,1.269137052097272456e+00,3.574205437230012616e-03,-1.648836011109573209e-03
1.660000000000000087e-01,2.178785703003892327e-05,2.110995279917895484e+00,-2.265408821523105853e+00,1.688165540310739288e-01,-8.987909601551040027e-05,1.570796855869423858e+00,1.697428146829883225e-04,-1.636479350600124061e-01,-7.119724338338276226e+00,6.866580248005997866e+00,-5.703467047500594212e-04,1.116819876126492035e-04,6.081100197474764713e-03,-3.854534144793343664e+00,2.433352263447984054e+00,1.699928015589680319e+00,3.056979453154715608e-03,-2.133644388688466040e-03
1.680000000000000104e-01,2.214169415670555271e-05,2.110760081568125557e+00,-2.280107275112436938e+00,1.829724301765972005e-01,-9.106454032355826940e-05,1.570797079844874489e+00,1.654477681713910158e-04,-1.844615688159089995e-01,-6.998646619042773409e+00,6.755560750649725499e+00,-5.593378512997418828e-04,1.107133372691553616e-04,5.273263134950478999e-03,-1.188326217366184157e+00,3.588475635535321562e+00,2.083165221233977960e+00,2.545167869783127122e-03,-2.566599535986649732e-03
1.700000000000000122e-01,2.248999589502824925e-05,2.110472476551114696e+00,-2.294589888402753353e+00,1.969270986866859252e-01,-9.222707841600063150e-05,1.570797305496959728e+00,1.604511965665318088e-04,-2.031129092811261305e-01,-6.871267490113770471e+00,6.639187250191995737e+00,-5.485035270963166702e-04,1.089376777739781675e-04,4.457552622695120335e-03,1.384886388981998007e+00,4.684657958350885387e+00,2.435920893373996421e+00,2.030928463857760782e-03,-2.965882702402115184e-03
1.720000000000000140e-01,2.283092980631567831e-05,2.110140468808873404e+00,-2.308842142274313503e+00,2.106708614273732627e-01,-9.336738819843248111e-05,1.570797530545135601e+00,1.548082698481003392e-04,-2.200857799448948660e-01,-6.737842491271023526e+00,6.517319978530820457e+00,-5.378026048873194714e-04,1.064420725133624970e-04,3.624054108422396746e-03,3.931743127447203445e+00,5.757904934196363733e+00,2.772122931131272505e+00,1.508164747549393687e-03,-3.346328003984170175e-03
1.740000000000000158e-01,2.316311542128059419e-05,2.109768189434973795e+00,-2.322851534684031272e+00,2.241929572842919216e-01,-9.448580143574327763e-05,1.570797753410435149e+00,1.485236435623354630e-04,-2.354754923656698085e-01,-6.598439028426983377e+00,6.389897902756048964e+00,-5.272371436970752423e-04,1.032408737596141079e-04,2.774726107445640855e-03,6.455127079961147096e+00,6.811030473761706006e+00,3.093118725917119782e+00,9.777649551750613316e-04,-3.709377609727259814e-03
1.759999999999999898e-01,2.348528529179634433e-05,2.109358801064018518e+00,-2.336606067986558344e+00,2.374823593302176905e-01,-9.558256333558252146e-05,1.570797972689331967e+00,1.415893414272108742e-04,-2.492802053545931928e-01,-6.453077462050211821e+00,6.256879678774264875e+00,-5.168200018718966011e-04,9.933025137178513506e-05,1.914496158793951635e-03,8.941978171665940778e+00,7.838548424114987867e+00,3.397109740305635839e+00,4.423639468101634538e-04,-4.053124848229495286e-03
1.779999999999999916e-01,2.379617196973627278e-05,2.108915466330607114e+00,-2.350093744536545959e+00,2.505280406379269409e-01,-9.665791910559964526e-05,1.570798186978298094e+00,1.339973871606999411e-04,-2.614980777228076980e-01,-6.301778152609266215e+00,6.118223962492036705e+00,-5.065640377580957329e-04,9.470637520892761878e-05,1.048291801496392499e-03,1.137923632770379712e+01,8.834972632324324948e+00,3.682297436870926699e+00,-9.540341746992254436e-05,-4.375663048088999918e-03
1.799999999999999933e-01,2.409450800697370663e-05,2.108441347869340898e+00,-2.363302566688644468e+00,2.633189742801952393e-01,-9.771211395344406813e-05,1.570798394873806014e+00,1.257398044807761679e-04,-2.721272682814553368e-01,-6.144561460572707468e+00,5.973889409815940077e+00,-4.964821097019848223e-04,8.936541513009368053e-05,1.810405745820641531e-04,1.375384147321680928e+01,9.794816945457782253e+00,3.946883278187084620e+00,-6.329022775897961669e-04,-4.675085537903878388e-03
1.819999999999999951e-01,2.437901266531147218e-05,2.107939611382501521e+00,-2.376220570722391567e+00,2.758440644416295662e-01,-9.874541451148556473e-05,1.570798594965947093e+00,1.168121647112467770e-04,-2.811795470795935281e-01,-5.981452495462965757e+00,5.823835677609032757e+00,-4.865840537009174399e-04,8.330634618225425453e-05,-6.831932658270702249e-04,1.605693343251360261e+01,1.071468500433130799e+01,4.189874304216856693e+00,-1.168013245162991334e-03,-4.950347174907205813e-03
1.839999999999999969e-01,2.464835203191871008e-05,2.107413434846408862e+00,-2.388835928653504581e+00,2.880919396797703702e-01,-9.975817313411136612e-05,1.570798785819277787e+00,1.072242334302233680e-04,-2.887211438163713173e-01,-5.812495368146353591e+00,5.668026427641200016e+00,-4.768676130926535360e-04,7.653936719330700384e-05,-1.543799527474913570e-03,1.829645616193356261e+01,1.159954188146769027e+01,4.413500734400221504e+00,-1.700679375203583126e-03,-5.203849861214871961e-03
1.859999999999999987e-01,2.490117889671727535e-05,2.106865999306720028e+00,-2.401136846440906414e+00,3.000511596267882997e-01,-1.007507636119986616e-04,1.570798965991968332e+00,9.698932573739467455e-05,-2.948319067790604042e-01,-5.637738941107588886e+00,5.506426323179334226e+00,-4.673275072338945011e-04,6.907748369389850860e-05,-2.401031767194093062e-03,2.048455578497108220e+01,1.245644357164758631e+01,4.620798800585832922e+00,-2.231359472774555649e-03,-5.438857492811997874e-03
1.880000000000000004e-01,2.513614604962902981e-05,2.106300485809093015e+00,-2.413111530043519970e+00,3.117102839148546689e-01,-1.017235597358245863e-04,1.570799134042190071e+00,8.612075673244944400e-05,-2.995916842549325443e-01,-5.457232076831392220e+00,5.339000027490330424e+00,-4.579584554813420508e-04,6.093370121467540993e-05,-3.255143541817235447e-03,2.263337842512053300e+01,1.329244606965164088e+01,4.814804734622347482e+00,-2.760512342938895285e-03,-5.658633965683709799e-03
1.900000000000000022e-01,2.535190628057582847e-05,2.105720075399185820e+00,-2.424748185420269042e+00,3.230578721761404037e-01,-1.026769352962663567e-04,1.570799288528114346e+00,7.463184151507642355e-05,-3.030803245312598260e-01,-5.271023637802484174e+00,5.165712203841084538e+00,-4.487551771916979551e-04,5.212102528628436928e-05,-4.106388408176970400e-03,2.475507020587631857e+01,1.411460537026052009e+01,4.998554768358423495e+00,-3.288596790759588419e-03,-5.866443175815133984e-03
1.920000000000000040e-01,2.554713456442219782e-05,2.105127816080487158e+00,-2.436035099944815041e+00,3.340824251645196918e-01,-1.036112552857782561e-04,1.570799428029582279e+00,6.253564488815218042e-05,-3.053643129918488519e-01,-5.079154278068726214e+00,4.986533212974035401e+00,-4.397125996860303605e-04,4.265061784855898321e-05,-4.950244558401197155e-03,2.684272151624735869e+01,1.492071358768795619e+01,5.171870280285379096e+00,-3.813325391199482318e-03,-6.062165944675666253e-03
1.940000000000000058e-01,2.572059464109135949e-05,2.104526223536162366e+00,-2.446960886742573393e+00,3.447722080535662315e-01,-1.045268494938943313e-04,1.570799551213138079e+00,4.984423018199764780e-05,-3.064566681746160870e-01,-4.881631808573951403e+00,4.801456212028217152e+00,-4.308264823799271112e-04,3.252626437661906687e-05,-5.763083282483331439e-03,2.881317808615843035e+01,1.567149675422051303e+01,5.321709570936431710e+00,-4.321422668463721986e-03,-6.232146939392046829e-03
1.960000000000000075e-01,2.587107244809504255e-05,2.103917680331371276e+00,-2.457514240400105798e+00,3.551154271049952182e-01,-1.054240389069105969e-04,1.570799656767010388e+00,3.656941028744783035e-05,-3.063570380969126150e-01,-4.678455827146169810e+00,4.610480058865874753e+00,-4.220927927718858951e-04,2.174990570389079994e-05,-6.516497783666499316e-03,3.056421904893032604e+01,1.631841174099583114e+01,5.431814254962019639e+00,-4.796865351255736286e-03,-6.359345824160698643e-03
1.980000000000000093e-01,2.599735392294495233e-05,2.103304569031274163e+00,-2.467683855503973511e+00,3.651002885805215703e-01,-1.063031445111230406e-04,1.570799743379424740e+00,2.272299809533775305e-05,-3.050650707760893532e-01,-4.469625931613394165e+00,4.413603611349254940e+00,-4.135074983604045628e-04,1.032348266380038243e-05,-7.182081265193824247e-03,3.199362353788381697e+01,1.681291541915154042e+01,5.485925947012582959e+00,-5.223630168278948875e-03,-6.426722263178041156e-03
2.000000000000000111e-01,2.609822500315281789e-05,2.102689272201031745e+00,-2.477458426640737787e+00,3.747149987418604833e-01,-1.071644872928277176e-04,1.570799809738609332e+00,8.316806496502408692e-06,-3.025804142294974408e-01,-4.255141719803637201e+00,4.210825727340603564e+00,-4.050665666439810190e-04,-1.751063910225983950e-06,-7.731426930308429694e-03,3.299917068633968853e+01,1.710646465982526720e+01,5.467786261738557307e+00,-5.585693848236787315e-03,-6.417235920640494695e-03
2.020000000000000129e-01,2.617249131069841991e-05,2.102074172990293643e+00,-2.486826647725442818e+00,3.839477619494568450e-01,-1.080083815181849234e-04,1.570799854536025331e+00,-6.614662697619803715e-06,-2.990130426491034998e-01,-4.035051661172975201e+00,4.002131989894515129e+00,-3.967487987290044759e-04,-1.445289189292725116e-05,-8.145784581579244496e-03,3.351789878317523375e+01,1.716959766434816714e+01,5.367873800430977838e+00,-5.872610866173098854e-03,-6.320967291313043385e-03
2.040000000000000147e-01,2.621903722905266626e-05,2.101461656887364526e+00,-2.495777209986253187e+00,3.927867749563912492e-01,-1.088351145647487440e-04,1.570799876476068890e+00,-2.194612476931741225e-05,-2.949143673029108181e-01,-3.809599770329551216e+00,3.787454866906881712e+00,-3.884643095559117600e-04,-2.768553131252289500e-05,-8.445042005586645556e-03,3.364392984555734500e+01,1.704920085002883212e+01,5.203623194482398517e+00,-6.096253375089557766e-03,-6.156488736338631453e-03
2.060000000000000164e-01,2.623676683796575390e-05,2.100854109965391459e+00,-2.504298803979412735e+00,4.012202326133335051e-01,-1.096449670859053034e-04,1.570799874266373575e+00,-3.752959246630436878e-05,-2.909461918322522322e-01,-3.579078962833886379e+00,3.566713543500696915e+00,-3.801060373727276434e-04,-4.133359956410689114e-05,-8.658749382459793309e-03,3.351066860277354920e+01,1.681125341368796100e+01,4.999210104301703872e+00,-6.274074621128199365e-03,-5.949497720121333863e-03
2.080000000000000182e-01,2.622458421718785269e-05,2.100253918297517952e+00,-2.512380120261165306e+00,4.092363297709529779e-01,-1.104382197350406170e-04,1.570799846614570949e+00,-5.321707853629456926e-05,-2.877703198784604122e-01,-3.343782154246495608e+00,3.339827204798951676e+00,-3.715669204274764641e-04,-5.528171404277315934e-05,-8.816456892327854261e-03,3.325151978411140874e+01,1.652173455214622422e+01,4.778810190297784644e+00,-6.423527850431059831e-03,-5.725691707065223846e-03
2.099999999999999922e-01,2.618139344646917653e-05,2.099663467956891516e+00,-2.520009849387754297e+00,4.168232612799193659e-01,-1.112151531655408633e-04,1.570799792228294134e+00,-6.886059572700176058e-05,-2.860485550828684165e-01,-3.104002260127902257e+00,3.106715035924644042e+00,-3.627398969681833738e-04,-6.941449214361551602e-05,-8.947714715320003592e-03,3.299988811885850737e+01,1.624662346222434550e+01,4.566599112879536904e+00,-6.562066309140180548e-03,-5.510768161574385905e-03
2.119999999999999940e-01,2.610634516534622945e-05,2.099084042364172120e+00,-2.527177169960132197e+00,4.239690873352869316e-01,-1.119758696554316770e-04,1.570799710007421357e+00,-8.433442144199765605e-05,-2.863015779907049363e-01,-2.859964781524667377e+00,2.867321088249024097e+00,-3.535356643146216863e-04,-8.363848135801551435e-05,-9.075409924436863424e-03,3.286099562768809079e+01,1.603800719966690025e+01,4.381782263382402398e+00,-6.703312539215183254e-03,-5.325155747375707148e-03
2.139999999999999958e-01,2.599957656313544042e-05,2.098512512940876373e+00,-2.533873213372953348e+00,4.306613293399984554e-01,-1.127197577565663050e-04,1.570799599621056419e+00,-9.960191975897830015e-05,-2.884853989652446660e-01,-2.611625476493657949e+00,2.621688909464780615e+00,-3.439359784477817464e-04,-9.794797719169506388e-05,-9.195768769479148799e-03,3.282729799011084282e+01,1.589238675354527608e+01,4.223677694927618909e+00,-6.845561439675500875e-03,-5.168201287454232164e-03
2.159999999999999976e-01,2.586147154428135615e-05,2.097944647761327719e+00,-2.540089599373069884e+00,4.368873739565435343e-01,-1.134460275330545286e-04,1.570799460930672131e+00,-1.146487334390536761e-04,-2.924148163608903950e-01,-2.358872646104154924e+00,2.369886929179519708e+00,-3.339403656092745356e-04,-1.123592190634349532e-04,-9.298350195115207342e-03,3.286305042087479222e+01,1.579236221929228456e+01,4.086630060109709639e+00,-6.983274791872893031e-03,-5.033979484578603864e-03
2.179999999999999993e-01,2.569241401322851654e-05,2.097376214899847824e+00,-2.545817947707331719e+00,4.426346078474120427e-01,-1.141538890490061294e-04,1.570799293797738860e+00,-1.294605052433337941e-04,-2.979046285320447462e-01,-2.101594591425437031e+00,2.111983577000847045e+00,-3.235483520407114147e-04,-1.268884463920160659e-04,-9.372713146013374533e-03,3.293250813472792515e+01,1.572053369234071241e+01,3.964984011523191576e+00,-7.110914377159115868e-03,-4.916565041517463423e-03
2.200000000000000011e-01,2.549278787442145475e-05,2.096802982430757911e+00,-2.551049878122588321e+00,4.478904176750932997e-01,-1.148425523685308073e-04,1.570799098083728529e+00,-1.440228779329286374e-04,-3.047696338331100652e-01,-1.839679613526781443e+00,1.848047282536367630e+00,-3.127594639837030939e-04,-1.415518985962190956e-04,-9.408416566841980647e-03,3.299992634641822065e+01,1.565950126812334275e+01,3.853084201762579042e+00,-7.222941976885922065e-03,-4.810032661039444213e-03
2.220000000000000029e-01,2.526300098382638828e-05,2.096221026968787093e+00,-2.555776824242088630e+00,4.526423041379172840e-01,-1.155112267481733779e-04,1.570798873623048264e+00,-1.583116963255279007e-04,-3.128654719221694025e-01,-1.573032697343135666e+00,1.578143783960078261e+00,-3.015661634194238458e-04,-1.563562649768914133e-04,-9.396742750726248122e-03,3.303711509439310134e+01,1.559562273919476993e+01,3.746624582009018045e+00,-7.314821438143859732e-03,-4.709884773519335509e-03
2.240000000000000047e-01,2.500355703510928661e-05,2.095627659697527623e+00,-2.559989474949014188e+00,4.568782242280890471e-01,-1.161591182131526561e-04,1.570798620141814261e+00,-1.722636005330583947e-04,-3.222112015775298599e-01,-1.301625585292762510e+00,1.302328050159178741e+00,-2.899326459633432148e-04,-1.712700217581639606e-04,-9.335869659227162554e-03,3.304611368333688404e+01,1.553029164629530534e+01,3.646698078698522139e+00,-7.386026193582316372e-03,-4.617336604181567286e-03
2.260000000000000064e-01,2.471498368926692478e-05,2.095020500544631403e+00,-2.563678332880090949e+00,4.605862490489228689e-01,-1.167854319805895107e-04,1.570798337339057937e+00,-1.858054262569190174e-04,-3.328667498383771073e-01,-1.025446714671736093e+00,1.020652356810785255e+00,-2.778160383077464177e-04,-1.862520887427031053e-04,-9.225699739854341386e-03,3.303652122817540260e+01,1.546866170754545244e+01,3.555747807454816556e+00,-7.437032403000398348e-03,-4.535032048224676461e-03
2.280000000000000082e-01,2.439780860729608459e-05,2.094397169437749451e+00,-2.566833900672050639e+00,4.637544497037332514e-01,-1.173893732676047156e-04,1.570798024913813595e+00,-1.988640091985087747e-04,-3.448920437438969810e-01,-7.444845227761296425e-01,7.331689795920156572e-01,-2.651734671449191053e-04,-2.012613857331754590e-04,-9.066135440117403799e-03,3.301793684383451222e+01,1.541588664106570938e+01,3.476216883901628307e+00,-7.468316226197217224e-03,-4.465615000847201685e-03
2.300000000000000100e-01,2.405255945019354108e-05,2.093755286304533225e+00,-2.569446680961620544e+00,4.663708972958344745e-01,-1.179701472913190989e-04,1.570797682565114428e+00,-2.113661850592265645e-04,-3.583470103332749845e-01,-4.587274469020165002e-01,4.399301941799864668e-01,-2.519620591671464945e-04,-2.162568325322473896e-04,-8.857079207525963768e-03,3.299995964524003256e+01,1.537712016497658496e+01,3.410548423662682183e+00,-7.480353822971881964e-03,-4.411729357247682476e-03
2.320000000000000118e-01,2.367988566309949444e-05,2.093092371331162216e+00,-2.571507157195408677e+00,4.684237499351307510e-01,-1.185268879059365701e-04,1.570797310060463525e+00,-2.232376596021372502e-04,-3.732836841769703873e-01,-1.681573165257439773e-01,1.409944321343100104e-01,-2.381386421927905251e-04,-2.311944558416170531e-04,-8.597696399443426410e-03,3.299014787682264682e+01,1.535658962466444954e+01,3.360852992937580108e+00,-7.473266557632340587e-03,-4.375658055519262082e-03
2.340000000000000135e-01,2.328092399577525205e-05,2.092405545600302119e+00,-2.573005736033069812e+00,4.699015138779440437e-01,-1.190584434155212578e-04,1.570796907441342816e+00,-2.343996172777905852e-04,-3.897225190798809247e-01,1.272704792732396728e-01,-1.635552429610444558e-01,-2.236588481321080885e-04,-2.460187059669792942e-04,-8.284202995552839011e-03,3.298789348487721895e+01,1.535481559629655024e+01,3.327910501351325934e+00,-7.445756122946903081e-03,-4.358239707256231742e-03
2.360000000000000153e-01,2.285693306616374751e-05,2.091691830384318607e+00,-2.573932804930895824e+00,4.707927824472261102e-01,-1.195635907119757741e-04,1.570796474817752753e+00,-2.447721118186786454e-04,-4.076760709319115494e-01,4.276071637949959148e-01,-4.736296073916924643e-01,-2.084780098151921485e-04,-2.606711381166510627e-04,-7.912077376755574654e-03,3.299054613688303306e+01,1.537139164405444802e+01,3.312168079626178319e+00,-7.396169171363006431e-03,-4.359951717865898600e-03
2.380000000000000171e-01,2.240917149220791104e-05,2.090948246955576906e+00,-2.574278751345178584e+00,4.710861489659283197e-01,-1.200411066872026766e-04,1.570796012299692235e+00,-2.542751969572932895e-04,-4.271568956229665481e-01,7.329039603395858249e-01,-7.891394374432485481e-01,-1.925514600721355061e-04,-2.750933074989492808e-04,-7.476797923953009024e-03,3.299545550031936614e+01,1.540591133211969677e+01,3.314072858484393258e+00,-7.322852355328085885e-03,-4.381271492755568070e-03
2.399999999999999911e-01,2.193889789185068641e-05,2.090171816586444464e+00,-2.574033962732209968e+00,4.707702067570023741e-01,-1.204897682331046178e-04,1.570795519997161716e+00,-2.628289264261264037e-04,-4.481775490429507069e-01,1.043212092207067121e+00,-1.109995509401324298e+00,-1.758345317330312063e-04,-2.892267693221909253e-04,-6.973843018046516941e-03,3.299997124266549520e+01,1.545796822467386278e+01,3.334071968648229856e+00,-7.224152327289580164e-03,-4.422676437332546430e-03
2.419999999999999929e-01,2.144750450602170278e-05,2.089359539247476416e+00,-2.573188740928989748e+00,4.698336981305317184e-01,-1.209082775691497683e-04,1.570794998117431396e+00,-2.703481636738196223e-04,-4.707567887430337827e-01,1.358585918386106872e+00,-1.436101055138246485e+00,-1.582794480856441848e-04,-3.030073846512305663e-04,-6.399264678280644318e-03,3.300205162363039335e+01,1.552746490106738975e+01,3.372684887060601433e+00,-7.098575529253335799e-03,-4.484718471743029573e-03
2.439999999999999947e-01,2.093691825999881499e-05,2.088508329671318275e+00,-2.571733045172066134e+00,4.682659615596522773e-01,-1.212950381175491256e-04,1.570794447256995685e+00,-2.767270035402148829e-04,-4.949381878491073139e-01,1.679092345134771680e+00,-1.767329118010070754e+00,-1.398259897710554497e-04,-3.163482297781752611e-04,-5.751410303244395075e-03,3.300209014814303998e+01,1.561554044627172999e+01,3.430720579717092100e+00,-6.945267791537020584e-03,-4.568247682381219345e-03
2.459999999999999964e-01,2.040919979826460345e-05,2.087615081273465290e+00,-2.569656749017042774e+00,4.660564846119131799e-01,-1.216483785743098923e-04,1.570793868109690239e+00,-2.818543468439321039e-04,-5.207715256139624493e-01,2.004801416657648883e+00,-2.103545191527050662e+00,-1.204108256489279372e-04,-3.291566827514834869e-04,-5.029201342930124906e-03,3.300108935159156687e+01,1.572364318294001251e+01,3.509060410928340090e+00,-6.763534849076497345e-03,-4.674188724036089024e-03
2.479999999999999982e-01,1.986640976530162485e-05,2.086676687469416258e+00,-2.566949726019522871e+00,4.631947548548636662e-01,-1.219666276354391629e-04,1.570793261369350269e+00,-2.856190944035913123e-04,-5.483065812903904490e-01,2.335783177159323820e+00,-2.444614769199438875e+00,-9.997062457892465128e-05,-3.413401216196138835e-04,-4.231559247330192973e-03,3.300005176936411999e+01,1.585322143372535031e+01,3.608585745004981860e+00,-6.552682436807628040e-03,-4.803466251496611022e-03
2.500000000000000000e-01,1.931060880559245624e-05,2.085690041674666428e+00,-2.563601849735111848e+00,4.596702598560528652e-01,-1.222481139969441399e-04,1.570792627729811208e+00,-2.879101470378126436e-04,-5.775931341311824063e-01,2.672107670844382721e+00,-2.790403344537487396e+00,-7.844205542070852813e-05,-3.528059244310248737e-04,-3.357405466436953236e-03,3.299997993684882402e+01,1.600572352128087061e+01,3.730177946257652533e+00,-6.312016289666278097e-03,-4.957004919551759488e-03
2.520000000000000018e-01,1.874404106604625321e-05,2.084651955799050604e+00,-2.559602878059323849e+00,4.554727100290723030e-01,-1.224910617898225431e-04,1.570791968039600972e+00,-2.886181078434721424e-04,-6.086809055308499694e-01,3.013847320129230845e+00,-3.140768737227810359e+00,-5.576241659254603555e-05,-3.634513743510860866e-04,-2.403415759688398018e-03,3.300148283258051407e+01,1.618284186953800941e+01,3.874834563920821040e+00,-6.040226565206900482e-03,-5.135809982889953315e-03
2.540000000000000036e-01,1.816968497851127100e-05,2.083558915607512496e+00,-2.554942106073843977e+00,4.505927075059272813e-01,-1.226932767281987589e-04,1.570791283766254987e+00,-2.876403915836938871e-04,-6.416193853640054234e-01,3.361084063844597125e+00,-3.495538060152613369e+00,-3.187152569138380909e-05,-3.731333598716394802e-04,-1.357279756025623263e-03,3.300359461739054012e+01,1.638724567366559270e+01,4.044018061188404012e+00,-5.733540188162539880e-03,-5.341209216688066336e-03
2.560000000000000053e-01,1.759070261490448247e-05,2.082407325298197165e+00,-2.549608713113513225e+00,4.450210774318181794e-01,-1.228524598827552855e-04,1.570790576532114846e+00,-2.848761165767088317e-04,-6.764580056035829347e-01,3.713902220816886590e+00,-3.854530746614452053e+00,-6.709830344993492217e-06,-3.816986670294324788e-04,-2.044397093799151595e-04,3.300495560005644080e+01,1.662184841320710049e+01,4.239307173326539946e+00,-5.387568044150390506e-03,-5.574611056479069834e-03
2.580000000000000071e-01,1.701025604714286388e-05,2.081193589069249228e+00,-2.543591878513172144e+00,4.387486449519455434e-01,-1.229663123241745402e-04,1.570789847959523478e+00,-2.802244011407476051e-04,-7.132461982225164476e-01,4.072386109872502047e+00,-4.217566229915882481e+00,1.978222181885329532e-05,-3.889940818612125611e-04,1.069662126317445523e-03,3.300420608935574052e+01,1.688956356770600920e+01,4.462280635601372225e+00,-4.997921018787640501e-03,-5.837423937795935963e-03
2.600000000000000089e-01,1.643150734714340840e-05,2.079914111118814635e+00,-2.536880781607662616e+00,4.317662352115102520e-01,-1.230325351231390755e-04,1.570789099670824918e+00,-2.735843635940414867e-04,-7.520333951937403505e-01,4.436620049837852520e+00,-4.584463943359464722e+00,4.766418317238488295e-05,-3.948663904037273686e-04,2.479583497135177689e-03,3.299998639406599921e+01,1.719330461670581656e+01,4.714517183279042456e+00,-4.560209997691487549e-03,-6.131056296171642078e-03
2.620000000000000107e-01,1.585779260507651269e-05,2.078565207958388950e+00,-2.529464457386475296e+00,4.240649788393380248e-01,-1.230487265991682074e-04,1.570788333542195936e+00,-2.648346655802298524e-04,-7.928810909828323261e-01,4.806708764529187938e+00,-4.955018266221514089e+00,7.700761952069056979e-05,-3.991631142135666234e-04,4.031935802105144837e-03,3.299190244224120505e+01,1.753550203327187873e+01,4.997089576685136869e+00,-4.071980524653814534e-03,-6.456471100225784354e-03
2.640000000000000124e-01,1.529314425557564219e-05,2.077142845216095157e+00,-2.521331363232539591e+00,4.156372288752779864e-01,-1.230120739068484221e-04,1.570787552465552794e+00,-2.537721101344247825e-04,-8.358990488421081944e-01,5.182838629551700826e+00,-5.328923322591867517e+00,1.079321691399369562e-04,-4.017347180740202207e-04,5.701532656684550095e-03,3.298342414530107902e+01,1.791665351112013482e+01,5.309045887117780360e+00,-3.538519794019217082e-03,-6.812848756045070120e-03
2.660000000000000142e-01,1.474176888727879533e-05,2.075642900765002352e+00,-2.512469812070831754e+00,4.064756440811110316e-01,-1.229196613694471163e-04,1.570786759586843662e+00,-2.401730276589552238e-04,-8.812091039264426939e-01,5.565216441418304072e+00,-5.705848162989553884e+00,1.405694931107952814e-04,-4.024324028619967854e-04,7.455235130371752617e-03,3.297898778721857838e+01,1.833677336069647623e+01,5.648927816224977860e+00,-2.967051167528142030e-03,-7.198923855295399910e-03
2.680000000000000160e-01,1.420787308882398915e-05,2.074061252478179185e+00,-2.502868116826328038e+00,3.965728832186184993e-01,-1.227685733102318495e-04,1.570785958052017151e+00,-2.238137485561501232e-04,-9.289330913907103415e-01,5.954048996641909675e+00,-6.085461837933598517e+00,1.750512525139369131e-04,-4.011073694544052136e-04,9.259904292665089437e-03,3.298302965196665326e+01,1.879587589244678725e+01,6.015277065654732525e+00,-2.364798006921043153e-03,-7.613430989642675124e-03
2.700000000000000178e-01,1.369566344884922716e-05,2.072393778228694750e+00,-2.492514590424005583e+00,3.859216050495815620e-01,-1.225558940524700457e-04,1.570785151007022096e+00,-2.044706032283382920e-04,-9.791928463897857648e-01,6.349543091735429634e+00,-6.467433397943028517e+00,2.115091084300329887e-04,-3.976108187281545098e-04,1.108240121306289933e-02,3.299998602351825383e+01,1.929397541681695216e+01,6.406635337055050172e+00,-1.738983673938372275e-03,-8.055104750752795431e-03
2.720000000000000195e-01,1.320969699208611532e-05,2.070636172812260423e+00,-2.481397215704832071e+00,3.745150023187684418e-01,-1.222785017685129941e-04,1.570784341851012123e+00,-1.819867745117631573e-04,-1.032080150483760006e+00,6.751868363195231204e+00,-6.851453818594841927e+00,2.500394508341154511e-04,-3.917467459943908803e-04,1.291885372735555870e-02,3.303082430747168985e+01,1.983389118564531373e+01,6.823413118756099571e+00,-1.089387884885604932e-03,-8.524236953552753390e-03
2.740000000000000213e-01,1.275593305531023627e-05,2.068783398418585495e+00,-2.469502654639049055e+00,3.623484045678924126e-01,-1.219324496931044067e-04,1.570783534996373687e+00,-1.564729632722353624e-04,-1.087566522169928884e+00,7.161045747256183702e+00,-7.237301811214227776e+00,2.905975281431775440e-04,-3.831302478331602163e-04,1.488250414558390557e-02,3.306263077670868711e+01,2.042966676005001148e+01,7.273499073054547459e+00,-3.860037164058263150e-04,-9.027350828551772288e-03
2.760000000000000231e-01,1.234068169528301536e-05,2.066830234011709511e+00,-2.456817238845482976e+00,3.494176757542392653e-01,-1.215135847430664405e-04,1.570782735108902095e+00,-1.281067769673979544e-04,-1.145593402004043249e+00,7.577058990032848662e+00,-7.624778029946080338e+00,3.331032890950489105e-04,-3.713291770169793574e-04,1.711588525342142009e-02,3.307902001555846283e+01,2.109815291485658761e+01,7.766652162854587260e+00,4.086254304747799254e-04,-9.572528091044450044e-03
2.780000000000000249e-01,1.197025296876590164e-05,2.064771458555669792e+00,-2.443327299942962050e+00,3.357186798350947909e-01,-1.210177538352214015e-04,1.570781946854393762e+00,-9.706582305489411602e-05,-1.206102230541855835e+00,7.999891837639795611e+00,-8.013683128935298328e+00,3.774766824275589770e-04,-3.559113863183651434e-04,1.976152983654165876e-02,3.306360660835020582e+01,2.185620042489059855e+01,8.312631351060423057e+00,1.331956154730047377e-03,-1.016785045632540366e-02
2.800000000000000266e-01,1.165095693252033569e-05,2.062601851014506771e+00,-2.429019169550315826e+00,3.212472807677450581e-01,-1.204408038863916228e-04,1.570781174898645771e+00,-6.352770899236713834e-05,-1.269034448339119159e+00,8.429528036191596740e+00,-8.403817762326781349e+00,4.236376568785373865e-04,-3.364447285098346851e-04,2.296197068061819543e-02,3.300000513941315461e+01,2.272066006497762203e+01,8.921195600576265150e+00,2.421445055333810818e-03,-1.082139963968924840e-02
2.820000000000000284e-01,1.138889059030934605e-05,2.060316213646630423e+00,-2.413879152483558777e+00,3.059997394632863466e-01,-1.197786659303712076e-04,1.570780424607591375e+00,-2.742289503871983534e-05,-1.334455072183817315e+00,8.866141303684079489e+00,-8.794810467669595511e+00,4.716449372460811596e-04,-3.126243203425090370e-04,2.674878979042401989e-02,3.288473990616696341e+01,2.369915191612617278e+01,9.595008124351018353e+00,3.686842635088384730e-03,-1.153521813972614544e-02
2.840000000000000302e-01,1.118929837599457539e-05,2.057909441927072258e+00,-2.397893446302430842e+00,2.899739053148994161e-01,-1.190276076101501389e-04,1.570779704148893563e+00,1.230716252473754683e-05,-1.402923631388605319e+00,9.310665564771934299e+00,-9.185601026990763529e+00,5.221125856992900978e-04,-2.846545482727125113e-04,3.070957966088977420e-02,3.276599574542299820e+01,2.476235777743220368e+01,1.030833721536056835e+01,5.027028468633225333e-03,-1.228718144292707641e-02
2.860000000000000320e-01,1.105721149144779250e-05,2.055376454644806561e+00,-2.381048221741341120e+00,2.731680250030666945e-01,-1.181839807563592399e-04,1.570779022390940138e+00,5.696836225033847774e-05,-1.475123335318033524e+00,9.764224875591525077e+00,-9.574956961121774413e+00,5.757935570569733654e-04,-2.528671696532107946e-04,3.432088879335774834e-02,3.270487805287471872e+01,2.587172099922443991e+01,1.102834945529814625e+01,6.313152757811518224e-03,-1.304912074537278692e-02
2.880000000000000338e-01,1.099766113854077127e-05,2.052712170588808949e+00,-2.363329649534701371e+00,2.555803452082710536e-01,-1.172441371996293339e-04,1.570778388202121123e+00,1.078666026904172401e-04,-1.551737393336654502e+00,1.022794329227921750e+01,-9.961645790894118946e+00,6.334408061379406688e-04,-2.175939418367700616e-04,3.705926568916994429e-02,3.276249222421571972e+01,2.698868493183159956e+01,1.172221142585697429e+01,7.416365704466381346e-03,-1.379286724314399484e-02
2.899999999999999800e-01,1.101567851914527880e-05,2.049911508548053263e+00,-2.344723900416920248e+00,2.372091126109954484e-01,-1.162044287705911899e-04,1.570777810450824319e+00,1.663077823973062362e-04,-1.633449014809015942e+00,1.070294487097136127e+01,-1.034443503713926837e+01,6.958072877609991665e-04,-1.791666221761574083e-04,3.840125884966830855e-02,3.299994365513948935e+01,2.807469292558234031e+01,1.235708970873024626e+01,8.207817510440904019e-03,-1.449025213232140244e-02
2.919999999999999818e-01,1.111816124703186479e-05,2.046968526275430023e+00,-2.325215473592883608e+00,2.180543851131601096e-01,-1.150601367051031019e-04,1.570777297526663618e+00,2.326515125959852494e-04,-1.720483549174722793e+00,1.118970714449170600e+01,-1.072262903707334303e+01,7.631300711356461949e-04,-1.373937701481624783e-04,3.804852936209095204e-02,3.341763903493796306e+01,2.910165616736201954e+01,1.291119488387301573e+01,8.621820418092429258e-03,-1.512227179230127456e-02
2.939999999999999836e-01,1.131947583094790567e-05,2.043873835881379275e+00,-2.304782179241085860e+00,1.981234686537972356e-01,-1.138022579971989550e-04,1.570776855903324609e+00,3.034706087507705154e-04,-1.811234109540224901e+00,1.168612042752349645e+01,-1.109768032746105426e+01,8.335817854415188046e-04,-8.999024341043041300e-05,3.660358033205351330e-02,3.377308461723846733e+01,3.008337540333651816e+01,1.340693273980898503e+01,8.845444727863562007e-03,-1.570659928230155183e-02
2.959999999999999853e-01,1.163585681558351125e-05,2.040617187691029510e+00,-2.283400154556026518e+00,1.774254819693974472e-01,-1.124207181145702746e-04,1.570776491575299749e+00,3.743907755939813444e-04,-1.903635550683728361e+00,1.218942794887005476e+01,-1.147157872855837724e+01,9.048187253550436576e-04,-3.414724648802281977e-05,3.489422333105302032e-02,3.376303513275409074e+01,3.104412832473579797e+01,1.387776267317382484e+01,9.128977740674894606e-03,-1.627008081986945631e-02
2.979999999999999871e-01,1.208353874562880323e-05,2.037188332029514104e+00,-2.261045536732207761e+00,1.559695437964515319e-01,-1.109054425249086402e-04,1.570776210537083717e+00,4.410377178579350682e-04,-1.995622727383441042e+00,1.269687293733471023e+01,-1.184631406062130488e+01,9.744971855526471990e-04,3.294401609400015094e-05,3.374826993058722274e-02,3.308424531219782949e+01,3.200819262278988475e+01,1.435714408060325198e+01,9.722706757447232770e-03,-1.683956262255227251e-02
2.999999999999999889e-01,1.267875616577389988e-05,2.033577019221963766e+00,-2.237694462964129993e+00,1.337647728714501660e-01,-1.092463566959056315e-04,1.570776018783170080e+00,4.990371402749481508e-04,-2.085130494417567704e+00,1.320569862172079212e+01,-1.222387614390581234e+01,1.040273460710754898e-03,1.140923398105783487e-04,3.399353170215386327e-02,3.143346988628258742e+01,3.299984598872877228e+01,1.487853635873296554e+01,1.087691907910136660e-02,-1.744189090789724852e-02
3.019999999999999907e-01,1.343161011505505272e-05,2.029775405626836449e+00,-2.213326912555998671e+00,1.108178762673093648e-01,-1.074366046310689732e-04,1.570775926711427406e+00,5.451740405047581254e-04,-2.170823759667807273e+00,1.371388755632294121e+01,-1.260558622700499321e+01,1.100450263460996721e-03,2.115356497044166770e-04,3.616286194248580915e-02,2.861266820175118042e+01,3.399361334269068635e+01,1.544564778066653865e+01,1.273363867945796236e-02,-1.807274770244499812e-02
3.039999999999999925e-01,1.432765657011718178e-05,2.025785276066550011e+00,-2.187938240166294346e+00,8.712591006186183595e-02,-1.054822102702550557e-04,1.570775962341149468e+00,5.808726745430621043e-04,-2.254288957461807463e+00,1.422238092812254528e+01,-1.299009006848962144e+01,1.155917141751825134e-03,3.252273615722334524e-04,3.960874995005713578e-02,2.484480742860963787e+01,3.476491896979285912e+01,1.594312857594837318e+01,1.500164135937974083e-02,-1.860310217588048709e-02
3.059999999999999942e-01,1.534631248082161210e-05,2.021610823562661974e+00,-2.161527646021711213e+00,6.268351649848523388e-02,-1.033924189863301706e-04,1.570776158098970088e+00,6.087176348608291021e-04,-2.337843232394511972e+00,1.473285991510273263e+01,-1.337536425344684510e+01,1.208210643365775511e-03,4.545495069044089113e-04,4.338846123925962917e-02,2.045815405376575669e+01,3.503938959866083280e+01,1.622585106985197712e+01,1.728134213843138950e-02,-1.887273125415801084e-02
3.079999999999999960e-01,1.646699479702966196e-05,2.017256241136730299e+00,-2.134094330348944357e+00,3.748533782055713665e-02,-1.011764761521606230e-04,1.570776546411522867e+00,6.312935139290324705e-04,-2.423803729060866274e+00,1.524700569524664040e+01,-1.375938536696381753e+01,1.258867316085385615e-03,5.988841171913221245e-04,4.655926132448411081e-02,1.578097456412766242e+01,3.454265195791998622e+01,1.614868758765076961e+01,1.917315603617725933e-02,-1.872141186323175027e-02
3.099999999999999978e-01,1.766912046860262252e-05,2.012725721810311619e+00,-2.105637493374686642e+00,1.152601627145515006e-02,-9.884362714061265031e-05,1.570777159705440074e+00,6.511849042186446937e-04,-2.514487592055814513e+00,1.576649944653739333e+01,-1.414012999412767257e+01,1.309423707693191906e-03,7.576132239233510784e-04,4.817841572012134671e-02,1.114153544660348771e+01,3.300033277619566263e+01,1.556651045461813787e+01,2.027749807218166139e-02,-1.798892092905587242e-02
3.119999999999999996e-01,1.893210644540181036e-05,2.008023458604963452e+00,-2.076156335325632707e+00,-1.519980590544312525e-02,-9.640311732455257132e-05,1.570778030407355530e+00,6.709763982006389064e-04,-2.612211965974301719e+00,1.629302234695812501e+01,-1.451557472002556715e+01,1.361416365971732144e-03,9.301188585908750067e-04,4.730318994056214449e-02,6.868103188101374101e+00,3.013805878211325506e+01,1.433419199602750105e+01,2.019478326600893103e-02,-1.651503537758457207e-02
3.140000000000000013e-01,2.023536967728853527e-05,2.003153644542244649e+00,-2.045650056428478081e+00,-4.269748646676010256e-02,-9.386419207684667762e-05,1.570779190943902393e+00,6.932525883459886773e-04,-2.719293995411274256e+00,1.682825557449197973e+01,-1.488369612974464573e+01,1.416381838703544525e-03,1.115783052684272275e-03,4.299084950019731871e-02,3.288944275529456451e+00,2.568145670429814587e+01,1.230660453715227476e+01,1.852542663722341054e-02,-1.413953213477202840e-02
3.160000000000000031e-01,2.155832711412409690e-05,1.998120472643710954e+00,-2.014117856909915183e+00,-7.097238316911816391e-02,-9.123609677036122016e-05,1.570780673741713818e+00,7.205980671256661651e-04,-2.838050824961675822e+00,1.737388030712207510e+01,-1.524247080837205104e+01,1.475856673671165509e-03,1.313987837693921142e-03,3.429865991341763537e-02,7.323251957958654135e-01,1.935615327137567832e+01,9.338620403265849745e+00,1.486984320538941098e-02,-1.070218812657241017e-02
3.180000000000000049e-01,2.288039570576980166e-05,1.992928135930920552e+00,-1.981558936996638653e+00,-1.000298537691397538e-01,-8.852807677796250413e-05,1.570782511227422518e+00,7.555974270106447215e-04,-2.970799599220451892e+00,1.793157772283154472e+01,-1.558987534099492933e+01,1.541377418657132641e-03,1.524115245110200297e-03,2.028388669461389168e-02,-4.734875641912607014e-01,1.088777521197122411e+01,5.285111919641638067e+00,8.828447990071271179e-03,-6.042780278939900891e-03
3.200000000000000067e-01,2.418119762455206271e-05,1.987579959920776851e+00,-1.947967042341269606e+00,-1.298800932757925575e-01,-8.574892784336545935e-05,1.570784736216194410e+00,8.008434533384561601e-04,-3.119882733574046441e+00,1.850312159627937802e+01,-1.592393856035838517e+01,1.614493003182750118e-03,1.745583597032582864e-03,2.959333628293124227e-02,-3.299990975585320996e+01,3.868650722182698232e+00,3.057419313866043264e+00,1.949444072996413257e-02,-3.307873973267907042e-03
3.220000000000000084e-01,2.580513026385353799e-05,1.981292429213519002e+00,-1.910801093024530051e+00,-1.619389768117584227e-01,-8.250958333622190226e-05,1.570788286545665935e+00,7.859065156840163834e-04,-3.076188750234086999e+00,1.842415067396732908e+01,-1.580506627231688910e+01,1.606832871528914236e-03,1.709750557561467597e-03,-3.795696455963940563e-01,-3.300124167573808620e+01,-1.038524791747863816e+02,-2.283915419610180564e+01,-8.715109144055949164e-02,5.686390573744670024e-02
3.240000000000000102e-01,2.745859700875901197e-05,1.974939739194985888e+00,-1.873427345483876572e+00,-1.942747113731490283e-01,-7.925639170399367795e-05,1.570791914870333095e+00,7.487159997912715310e-04,-2.989851235679042762e+00,1.817377728700503070e+01,-1.547231113586343199e+01,1.588561614142109182e-03,1.614832832508184641e-03,-5.068419279441436220e-01,-3.300164964826470282e+01,-1.380605405004835404e+02,-3.149831469841056730e+01,-1.208086706446078046e-01,7.604162754216445275e-02
3.260000000000000120e-01,2.910226405415980067e-05,1.968609322161753994e+00,-1.836120966919085884e+00,-2.265198124600108498e-01,-7.600783025780660329e-05,1.570795517520879203e+00,6.959483248328109843e-04,-2.872890081734249978e+00,1.780643472829314078e+01,-1.500099084100905955e+01,1.562073972569978306e-03,1.481221218162597376e-03,-4.206984259245367119e-01,-3.300135911927388577e+01,-1.165633994827364148e+02,-2.706404776852812333e+01,-9.917228474970402052e-02,6.415617502038852005e-02
3.280000000000000138e-01,3.069654772468683937e-05,1.962389258111261414e+00,-1.799158648715999842e+00,-2.583046349705107048e-01,-7.278249870595745270e-05,1.570798990198527534e+00,6.343745999066480613e-04,-2.737497278404014800e+00,1.737730916208465359e+01,-1.446738003915136694e+01,1.529806869036555049e-03,1.329568018859235293e-03,-2.254793400541122150e-01,-3.300071190706576374e+01,-6.661465659199188849e+01,-1.591760013536664076e+01,-4.927202856914524032e-02,3.638209846566600042e-02
3.300000000000000155e-01,3.220186434497108367e-05,1.956367627040946244e+00,-1.762817082260462076e+00,-2.892595338028155494e-01,-6.959899675674297351e-05,1.570802228604502471e+00,5.707659341107962966e-04,-2.595864815692641603e+00,1.694158675263257052e+01,-1.394775338168796175e+01,1.494197225765872637e-03,1.180525538932629187e-03,-2.552487084941025205e-02,-3.300004982994045832e+01,-1.546791229869694462e+01,-4.440218527838324825e+00,1.862003083771356267e-03,7.893948171544012959e-03
3.320000000000000173e-01,3.358419191444759967e-05,1.950620699119317791e+00,-1.727331627494337329e+00,-3.190771387316629348e-01,-6.647405600714747479e-05,1.570805145588496377e+00,5.108900503832388773e-04,-2.458387244647339820e+00,1.654601679675123904e+01,-1.350649726736893186e+01,1.457346680642870613e-03,1.051577334715711465e-03,9.089810777098315808e-02,-3.299966204837093642e+01,1.382288200530732070e+01,1.969634791202457436e+00,3.136398122472772859e-02,-8.471169207388421288e-03
3.340000000000000191e-01,3.483958987199212918e-05,1.945160868674200128e+00,-1.692714094912100231e+00,-3.477869057566627675e-01,-6.341430399750099998e-05,1.570807746751148537e+00,4.550876553275606242e-04,-2.325737305342808092e+00,1.619171609279676716e+01,-1.314369808376663507e+01,1.419543418609428044e-03,9.430681501386835265e-04,1.224585492598539022e-01,-3.299955291235576738e+01,2.091842364094325291e+01,3.229085478041021862e+00,3.889134814311572680e-02,-1.251868217865657537e-02
3.360000000000000209e-01,3.597424129871431127e-05,1.939979033184511703e+00,-1.658901061420037237e+00,-3.755316467626148014e-01,-6.042296783728378479e-05,1.570810068907606993e+00,4.018730412271397231e-04,-2.195315948405463402e+00,1.586444422560024670e+01,-1.283780261872345996e+01,1.380465323067841350e-03,8.495748134899090828e-04,9.708289042113077416e-02,-3.299963092144882637e+01,1.312382393697144423e+01,1.044173262114747702e+00,3.168155375267316803e-02,-8.308752576722483116e-03
3.380000000000000226e-01,3.699433690371271697e-05,1.935066073931669184e+00,-1.625829047237231428e+00,-4.024542590460139513e-01,-5.750327207381042280e-05,1.570812148896541638e+00,3.497591241938248713e-04,-2.064521659225090566e+00,1.554994920859861907e+01,-1.256724135501851336e+01,1.339789817568776001e-03,7.656698070333014779e-04,4.271961306527739116e-02,-3.299980450298237145e+01,-2.250045844406348472e+00,-2.877714211395194344e+00,1.697775937148558040e-02,9.525189614460543523e-05
3.400000000000000244e-01,3.790606739608589699e-05,1.930412872197088348e+00,-1.593434572582764996e+00,-4.286976399033542440e-01,-5.465844125439547370e-05,1.570814023556620143e+00,2.972588203394644951e-04,-1.930752923191474180e+00,1.523397905522880080e+01,-1.231044477543089677e+01,1.297194325662897251e-03,6.859256130327740560e-04,-1.268280099724236609e-02,-3.299998208428862512e+01,-1.789231444098830437e+01,-6.829189297307612705e+00,2.023126317638525816e-03,8.629963537675379090e-03
3.420000000000000262e-01,3.871453084670593034e-05,1.926012665281574554e+00,-1.561664582073702956e+00,-4.543866252796172622e-01,-5.189179904718260224e-05,1.570815725260762186e+00,2.431474582570521592e-04,-1.791886660288965150e+00,1.490453913410379627e+01,-1.204904457077500801e+01,1.252443426556258200e-03,6.057502040272255131e-04,-4.548484314287020575e-02,-3.300008619408065158e+01,-2.761823161805870797e+01,-9.366288101592317616e+00,-7.055757313350922641e-03,1.385837518006497945e-02
3.440000000000000280e-01,3.941891548418322710e-05,1.921871433681830110e+00,-1.530522403626052741e+00,-4.795483612020337572e-01,-4.920720524329832762e-05,1.570817262227625077e+00,1.876196985137976191e-04,-1.648387539052134310e+00,1.456184435647947062e+01,-1.178198706911413574e+01,1.205773105418094871e-03,5.250705375377467217e-04,-5.535330250312241185e-02,-3.300011563237015366e+01,-3.133399058297287709e+01,-1.046984844370876822e+01,-1.017160487012548978e-02,1.573132740601624821e-02
3.460000000000000298e-01,4.001642060357156824e-05,1.917999446565691324e+00,-1.500030340727472433e+00,-5.041771165503655672e-01,-4.660870006389479178e-05,1.570818634546845782e+00,1.313478721233336485e-04,-1.501591124344012762e+00,1.421021870590117864e+01,-1.151404576978267968e+01,1.157577997191600256e-03,4.453344172391362284e-04,-4.979860863710587615e-02,-3.300009486796646030e+01,-3.099566697085154843e+01,-1.060021940821190434e+01,-9.269632223162571627e-03,1.533982728274448093e-02
3.480000000000000315e-01,4.050424400109742056e-05,1.914406976332866162e+00,-1.470210711165295114e+00,-5.282671354287017396e-01,-4.410032386609316537e-05,1.570819842301933722e+00,7.500467006380904676e-05,-1.352833637320641547e+00,1.385398926244291040e+01,-1.124999856337453608e+01,1.108252856375801544e-03,3.679907928905989402e-04,-3.633710194110067321e-02,-3.300004838902246718e+01,-2.856088117417222705e+01,-1.021811143138316424e+01,-6.296586903087861287e-03,1.377574108799387367e-02
3.499999999999999778e-01,4.087958347298727119e-05,1.911104295383063478e+00,-1.441085832726854976e+00,-5.518126619411318767e-01,-4.168611700701465293e-05,1.570820885576400538e+00,1.926278331337258646e-05,-1.203451299138061925e+00,1.349748310617865776e+01,-1.099462334048360646e+01,1.058192437469726794e-03,2.944886142513393847e-04,-2.248512281138677349e-02,-3.300000068369107709e+01,-2.598725358541242869e+01,-9.784234949503993306e+00,-3.199216440527036243e-03,1.213093509950859822e-02
3.519999999999999796e-01,4.114026276402233523e-05,1.908100268280999767e+00,-1.412674612495472770e+00,-5.748115626593796046e-01,-3.936971868153836871e-05,1.570821765643832579e+00,-3.530919091059326622e-05,-1.054631079221673762e+00,1.314439008536175812e+01,-1.075186896260825442e+01,1.007746344909744764e-03,2.260518248692045245e-04,-1.459533697124630255e-02,-3.299997249033719982e+01,-2.492914139698035214e+01,-9.688022974125926723e+00,-1.622783934927841997e-03,1.132880327236877004e-02
3.539999999999999813e-01,4.128749128880565751e-05,1.905396144805133085e+00,-1.384977509524567552e+00,-5.972812975854193684e-01,-3.715259825303478443e-05,1.570822490214768496e+00,-8.870568425597890271e-05,-9.067526648704019587e-01,1.279495334878668444e+01,-1.052120018665200440e+01,9.570199726400785379e-04,1.626873405765702377e-04,-1.272625355031306062e-02,-3.299996426523678394e+01,-2.540059277452692754e+01,-9.933378709155622488e+00,-1.581864575780950579e-03,1.138149589093714019e-02
3.559999999999999831e-01,4.132361791171131082e-05,1.902990611971778989e+00,-1.357988774168971791e+00,-6.192459209051812685e-01,-3.503549482641865609e-05,1.570823069166108699e+00,-1.411106161664076465e-04,-7.599240519653516213e-01,1.244825605590580686e+01,-1.030057264068342526e+01,9.060365253768204279e-04,1.039924855962621786e-04,-1.481807845703454925e-02,-3.299996963871328148e+01,-2.686360862472207600e+01,-1.039445500652699472e+01,-2.542224287822246985e-03,1.199448348443434530e-02
3.579999999999999849e-01,4.125099235589835527e-05,1.900882354865738977e+00,-1.331702652104120421e+00,-6.407294917745249840e-01,-3.301914695622068768e-05,1.570823512376386510e+00,-1.927080488994058313e-04,-6.142530316181774586e-01,1.210338049190619714e+01,-1.008794081536495213e+01,8.548191458913646790e-04,4.956427544849944009e-05,-1.880942106880077042e-02,-3.299998223594553792e+01,-2.877977378509822515e+01,-1.094530692742116784e+01,-3.969215367074284059e-03,1.287300544248359824e-02
3.599999999999999867e-01,4.107196434452585774e-05,1.899070058571815212e+00,-1.306113389005449044e+00,-6.617560693493105273e-01,-3.110429319697160350e-05,1.570823829724135479e+00,-2.436820447125003061e-04,-4.698473949405336247e-01,1.175940894197492348e+01,-9.881259201359018363e+00,8.033909769551045603e-04,-1.000274346499196629e-06,-2.263889076300176773e-02,-3.299999568211238454e+01,-3.061067309318782748e+01,-1.145998953301926271e+01,-5.328190109559628740e-03,1.372230115470811709e-02
3.619999999999999885e-01,4.078871124567684590e-05,1.897552219431076992e+00,-1.281215850745205387e+00,-6.823478123816559826e-01,-2.929162296353166948e-05,1.570824030751105882e+00,-2.941065903247248457e-04,-3.268863223953112906e-01,1.141566393475676477e+01,-9.678700399136898724e+00,7.518358076971496827e-04,-4.807327519618976881e-05,-2.456415327648475352e-02,-3.300000449816505466e+01,-3.190069755414095454e+01,-1.183213976421959579e+01,-6.167137827034419734e-03,1.429319618811181365e-02
3.639999999999999902e-01,4.040247816865018699e-05,1.896326312880503462e+00,-1.257008257804857809e+00,-7.025166004481364634e-01,-2.758155987708412938e-05,1.570824123177411602e+00,-3.434602801401871654e-04,-1.859351353780385185e-01,1.107276746206876439e+01,-9.479616752696657045e+00,7.005654599394893793e-04,-9.185984781916089396e-05,-2.456863201261093657e-02,-3.300000805023666572e+01,-3.264213201494776229e+01,-1.206131183341508084e+01,-6.481026740193318071e-03,1.458308914537065695e-02
3.659999999999999920e-01,3.991419646587237701e-05,1.895389470766130735e+00,-1.233489959678240711e+00,-7.222708536116990707e-01,-2.597443810447378621e-05,1.570824114110084269e+00,-3.910213259721029028e-04,-4.768911316006844980e-02,1.073177885727687375e+01,-9.283757655273564779e+00,6.501021567290684753e-04,-1.325089112900582110e-04,-2.321656370370134975e-02,-3.300000733513320483e+01,-3.297800248304487525e+01,-1.218270699907283294e+01,-6.415258304427146757e-03,1.467236415398792161e-02
3.679999999999999938e-01,3.932479725326491640e-05,1.894738824675000322e+00,-1.210660306710220180e+00,-7.416189893275637601e-01,-2.447059174511616208e-05,1.570824010655691660e+00,-4.360677885884646000e-04,8.715636702705631400e-02,1.039375778340817469e+01,-9.090872799392322179e+00,6.009682043315256678e-04,-1.701693423196179271e-04,-2.107262288996203728e-02,-3.300000335088982695e+01,-3.305144859216734687e+01,-1.223155338983848850e+01,-6.115347369315593876e-03,1.464146789464065845e-02
3.699999999999999956e-01,3.863521164674935983e-05,1.894371506194155952e+00,-1.188518649245662528e+00,-7.605694250509513754e-01,-2.307035489842680284e-05,1.570823819920804221e+00,-4.778777287572652868e-04,2.179059279517938652e-01,1.005976390348975613e+01,-8.900711877577627718e+00,5.536859090125004126e-04,-2.049900176185766288e-04,-1.870148411159908153e-02,-3.299999709554170835e+01,-3.300560997605023772e+01,-1.224307913435771233e+01,-5.726808784438356184e-03,1.457084704800595647e-02
3.719999999999999973e-01,3.784723413764052164e-05,1.894283817550399318e+00,-1.167063182777673624e+00,-7.791301174312625921e-01,-2.177343272510200373e-05,1.570823548790164281e+00,-5.157646961393657064e-04,3.439012228915765412e-01,9.730782854875917209e+00,-8.712990720232317798e+00,5.087540575483689986e-04,-2.371266726952791929e-04,-1.659352842495557048e-02,-3.299998973479562636e+01,-3.296504719768252301e+01,-1.224823667381051173e+01,-5.376539028173974930e-03,1.452964646111480455e-02
3.739999999999999991e-01,3.696732923460822477e-05,1.894467574941930632e+00,-1.146285856179637630e+00,-7.973065306086285497e-01,-2.057612844184395013e-05,1.570823202948653963e+00,-5.492342006331843354e-04,4.646842039983636319e-01,9.407399868354703543e+00,-8.527241996763430976e+00,4.665442192572797015e-04,-2.667721424520473096e-04,-1.483728172384703690e-02,-3.299998334129818289e+01,-3.295382619917860723e+01,-1.225485115755967591e+01,-5.090727380961070601e-03,1.452587910293102504e-02
3.760000000000000009e-01,3.600353318889074473e-05,1.894913084747694265e+00,-1.126176515960560343e+00,-8.151032898434440455e-01,-1.947360030597139341e-05,1.570822787677329968e+00,-5.778563583374802040e-04,5.798642360788412997e-01,9.090065413749259804e+00,-8.342936731853358268e+00,4.273851471080268387e-04,-2.941317479753745561e-04,-1.338602139714706665e-02,-3.299998029293588075e+01,-3.296219042018082490e+01,-1.226296400606933368e+01,-4.861669075759576450e-03,1.454698337754068219e-02
3.780000000000000027e-01,3.496388343663801613e-05,1.895610652208404634e+00,-1.106725007044507825e+00,-8.325250197636857585e-01,-1.846100571163646057e-05,1.570822308256942579e+00,-6.012013340565959627e-04,6.890507347610197453e-01,8.779229859288571802e+00,-8.159545903711505233e+00,3.916055617908420386e-04,-3.194108197648890066e-04,-1.219292287203796281e-02,-3.299998296782533913e+01,-3.298035780208618206e+01,-1.227261077177450765e+01,-4.681633793347476404e-03,1.458038217819344028e-02
3.800000000000000044e-01,3.385641741399999388e-05,1.896550582564777487e+00,-1.087921174355547471e+00,-8.495763449973301462e-01,-1.753350205299130570e-05,1.570821769968243409e+00,-6.188392925948744787e-04,7.918531156729096132e-01,8.475343573201644887e+00,-7.976540490547285422e+00,3.595341839959571460e-04,-3.428146883202189523e-04,-1.121116157570203713e-02,-3.299999374408319142e+01,-3.299854628629169895e+01,-1.228382700711022224e+01,-4.542891214502757860e-03,1.461349839813897225e-02
3.820000000000000062e-01,3.268969845443425460e-05,1.897722702379629700e+00,-1.069754280132279467e+00,-8.662612894383894258e-01,-1.668584584497225347e-05,1.570821177853496176e+00,-6.304977664313660092e-04,8.879672156868030353e-01,8.178713791726790916e+00,-7.793460117974610135e+00,3.313983977691749121e-04,-3.645093562926867629e-04,-1.039860304893148145e-02,-3.300001343712953883e+01,-3.300853942792553397e+01,-1.229662023184367925e+01,-4.438486833379541759e-03,1.463569289200587417e-02
3.840000000000000080e-01,3.147513452387336335e-05,1.899114248997925580e+00,-1.052210434807852479e+00,-8.825806275492429354e-01,-1.591062520572176654e-05,1.570820535664955386e+00,-6.367555059378010108e-04,9.775563330489757119e-01,7.888873535484599131e+00,-7.610215732459071347e+00,3.068774468531353279e-04,-3.844480979685220914e-04,-9.738482138069201599e-03,-3.300003440959878986e+01,-3.301058934736249739e+01,-1.231084633416662655e+01,-4.365662598253647331e-03,1.464680914628553252e-02
3.860000000000000098e-01,3.022509099219160820e-05,1.900711588324330847e+00,-1.035274688027778778e+00,-8.985340401470708338e-01,-1.519969844675315629e-05,1.570819846720706403e+00,-6.384777516996402837e-04,1.060941097178009773e+00,7.605095251158364711e+00,-7.426843254096485047e+00,2.854660901083382789e-04,-4.025125906958432025e-04,-9.222572111678664641e-03,-3.300004617921286609e+01,-3.300779838827317292e+01,-1.232631016837829208e+01,-4.323072837296304191e-03,1.465021873524645531e-02
3.880000000000000115e-01,2.895193395112998628e-05,1.902501085606457476e+00,-1.018932088637752198e+00,-9.141212072244617737e-01,-1.454492332931761755e-05,1.570819114338504185e+00,-6.365299603112224052e-04,1.138442256117586204e+00,7.326651188962935990e+00,-7.243378697210710371e+00,2.666589472967358120e-04,-4.185844578398618910e-04,-8.842652676152338437e-03,-3.300003826154866005e+01,-3.300327104334930084e+01,-1.234281655029918312e+01,-4.309372943589796258e-03,1.464929589327692086e-02
3.900000000000000133e-01,2.766802949242952182e-05,1.904469106091918773e+00,-1.003167685483468130e+00,-9.293418087740052957e-01,-1.393815761466633668e-05,1.570818341836105692e+00,-6.317775883668866029e-04,1.210380557911386656e+00,7.052813599113171961e+00,-7.059858076125611781e+00,2.499506381802805164e-04,-4.325453227657902232e-04,-8.590503537882696050e-03,-3.300000017218309267e+01,-3.300011180528264987e+01,-1.236017029574980874e+01,-4.323218310216410919e-03,1.464741485476521617e-02
3.920000000000000151e-01,2.638469127616328180e-05,1.906602405817458212e+00,-9.879674210738867979e-01,-9.441955572922063888e-01,-1.337187345613457839e-05,1.570817532672144301e+00,-6.250156172514429159e-04,1.277047854111798220e+00,6.782916050370887184e+00,-6.876304798407465668e+00,2.348778246091791518e-04,-4.442968597826075800e-04,-8.456836556485415601e-03,-3.299992750586893209e+01,-3.300072782571662344e+01,-1.237812671882598181e+01,-4.362929809940402706e-03,1.464737197838128155e-02
3.940000000000000169e-01,2.510754016837926639e-05,1.908889854669192143e+00,-9.733220719048644165e-01,-9.586823410951528235e-01,-1.284186636542061675e-05,1.570816691067276283e+00,-6.166578151422862997e-04,1.338579689901872927e+00,6.516623794654506696e+00,-6.692674079381248475e+00,2.212045817243120231e-04,-4.538492023956008058e-04,-8.426587414427763947e-03,-3.299984874072516305e+01,-3.300375421191920111e+01,-1.239617336980450091e+01,-4.425018834373197450e-03,1.464883778808595029e-02
3.960000000000000187e-01,2.384028101262814056e-05,1.911321033991079998e+00,-9.592240414462189779e-01,-9.728021076744929330e-01,-1.234505039625360318e-05,1.570815821498633635e+00,-6.069896453671264373e-04,1.395059002462549991e+00,6.253713718413277611e+00,-6.508898182923502418e+00,2.087715251103546509e-04,-4.612489881991305293e-04,-8.482747707439274379e-03,-3.299980342241850195e+01,-3.300655651496994381e+01,-1.241370767774948725e+01,-4.505387758432145666e-03,1.465043074630415984e-02
3.980000000000000204e-01,2.258661720762216956e-05,1.913885525663579612e+00,-9.456657343946411887e-01,-9.865548045664981336e-01,-1.187834044583532475e-05,1.570814928443541758e+00,-5.962964745012705892e-04,1.446568689304008615e+00,5.993962792278062501e+00,-6.324909355603494987e+00,1.974193280697686729e-04,-4.665428823146405314e-04,-8.608307565248303830e-03,-3.299983110496149408e+01,-3.300649932859870717e+01,-1.243012700376624835e+01,-4.599938497785949210e-03,1.465076852211999459e-02
4.000000000000000222e-01,2.135025215207358136e-05,1.916572911567146598e+00,-9.326395554468204230e-01,-9.999403793074396196e-01,-1.143865141136756348e-05,1.570814016379324274e+00,-5.848636691200257993e-04,1.493191647936428224e+00,5.737147986879716832e+00,-6.140639843990492786e+00,1.869886639050154285e-04,-4.697775498635742676e-04,-8.786257117583197093e-03,-3.299997134236667762e+01,-3.300094724653529710e+01,-1.244482870896008997e+01,-4.704572968103307336e-03,1.464846878461751982e-02
4.020000000000000240e-01,2.013454282194374325e-05,1.919372873995195183e+00,-9.201381777036933274e-01,-1.012958700135461410e+00,-1.102309164501120502e-05,1.570813089727402856e+00,-5.729649736140170159e-04,1.535012502797943101e+00,5.483056802491002912e+00,-5.956030316311322181e+00,1.773258469808615184e-04,-4.710015330631513717e-04,-9.003912860281636926e-03,-3.300024093476639564e+01,-3.298848853182017393e+01,-1.245751079030359421e+01,-4.816467244013150455e-03,1.464256237660245021e-02
4.040000000000000258e-01,1.894097230237768109e-05,1.922275638400945841e+00,-9.081557261346148158e-01,-1.025609206344495483e+00,-1.062981594714772064e-05,1.570812152606792189e+00,-5.608112649522365096e-04,1.572125219729419765e+00,5.231533696958054591e+00,-5.771066995730292248e+00,1.683077056361724857e-04,-4.702735278301559412e-04,-9.271993729406773771e-03,-3.300053360063316177e+01,-3.297433059325567939e+01,-1.246949746241609347e+01,-4.939689657561107707e-03,1.463431510506959035e-02
4.060000000000000275e-01,1.777039297468663653e-05,1.925271613051352304e+00,-8.966868143708034422e-01,-1.037891192856798872e+00,-1.025733132592803307e-05,1.570811209034727041e+00,-5.485922605337075451e-04,1.604626908649528394e+00,4.982442298592856034e+00,-5.585751438041269168e+00,1.598213384348882277e-04,-4.676556475575603970e-04,-9.609095325255136849e-03,-3.300070163229340636e+01,-3.296590867521072710e+01,-1.248266028328156985e+01,-5.080628298773530449e-03,1.462574500893152121e-02
4.080000000000000293e-01,1.662365674451736050e-05,1.928351206351241132e+00,-8.857260564120164048e-01,-1.049803954485745150e+00,-9.904145055131260704e-06,1.570810263028364462e+00,-5.364976617993190509e-04,1.632614681848139737e+00,4.735646250165377324e+00,-5.400085210601688779e+00,1.517538516865515202e-04,-4.632100082157299408e-04,-1.003381918854930402e-02,-3.300059729083076832e+01,-3.297065970224420539e+01,-1.249887122367966086e+01,-5.245673007192848056e-03,1.461887069441939260e-02
4.100000000000000311e-01,1.550161551751658699e-05,1.931504826705440880e+00,-8.752680662580114568e-01,-1.061346786044708557e+00,-9.568764408536518541e-06,1.570809318604861726e+00,-5.247171701899603887e-04,1.656185651615125209e+00,4.491009194445586772e+00,-5.214069880768983367e+00,1.439923517007049764e-04,-4.569987257750303703e-04,-1.056476686001186702e-02,-3.300007283732890073e+01,-3.299602059891501682e+01,-1.252000225438999692e+01,-5.441213622361497707e-03,1.461571076776438556e-02
