prominentjohnson/z1_sdk/examples/nominal_trajectory.csv
t,q0,q1,q2,q3,q4,q5,qdot0,qdot1,qdot2,qdot3,qdot4,qdot5,tau0,tau1,tau2,tau3,tau4,tau5
0.000000000000000000e+00,6.437414035671045198e-01,2.292229859902122246e+00,-1.545202305100775719e+00,-7.470275508543359200e-01,-6.437413926104768036e-01,1.570799998693296562e+00,0.000000000000000000e+00,0.000000000000000000e+00,0.000000000000000000e+00,0.000000000000000000e+00,0.000000000000000000e+00,0.000000000000000000e+00,-1.163150256595226056e-01,-1.963650318255613314e+01,-1.129257736597139861e+01,-3.863274900106600906e+00,-1.786499820689281259e-01,1.916112014803099048e-02
2.000000000000000042e-03,6.437224602595312817e-01,2.292209409678207521e+00,-1.545057371297260840e+00,-7.471124223655570828e-01,-6.435536834957791275e-01,1.570831372276043414e+00,6.152340994721634121e-03,6.739367892301806676e-03,-4.696225297781834312e-02,2.739157217092424296e-02,-6.081156884824168163e-02,-1.019603486011094913e-02,-1.062962283894653137e-01,-1.953642908357861785e+01,-1.123256122850838779e+01,-3.842417356539987505e+00,-1.745925408342478558e-01,1.891817033751442417e-02
4.000000000000000083e-03,6.437159745566221059e-01,2.292202249169947414e+00,-1.545007926821042599e+00,-7.471411991161623911e-01,-6.434896639968510357e-01,1.570842124581625088e+00,1.225467598367521553e-02,1.354054567716420771e-02,-9.341280644782502807e-02,5.435424332612967535e-02,-1.209473955393672029e-01,-2.031711843664376488e-02,-9.562705470498292226e-02,-1.943754223062501296e+01,-1.117234453198999944e+01,-3.821420112730893326e+00,-1.705542589093737849e-01,1.867892325131016718e-02
6.000000000000000125e-03,6.437218464463743128e-01,2.292208501997178072e+00,-1.545052948273132776e+00,-7.471147389081161938e-01,-6.435479826293641903e-01,1.570832405512583074e+00,1.830700496873139890e-02,2.040353336556079492e-02,-1.393516604158825667e-01,8.088801348106340605e-02,-1.804074800700951331e-01,-3.036325073594772772e-02,-8.432632395465766706e-02,-1.933978971936626223e+01,-1.111192948637725308e+01,-3.800283448633749561e+00,-1.665333729572670007e-01,1.844322567250776881e-02
8.000000000000000167e-03,6.437399759167838909e-01,2.292228291779730309e+00,-1.545191412254540042e+00,-7.470338995433811746e-01,-6.437272879089895872e-01,1.570802364971454645e+00,2.430932795176082850e-02,2.732833096846512197e-02,-1.847788148878532766e-01,1.069928826511724607e-01,-2.391918224371439305e-01,-4.033443176437209732e-02,-7.241285548707164510e-02,-1.924311864547328810e+01,-1.105131830163115758e+01,-3.779007644202981631e+00,-1.625281196408883966e-01,1.821092438419676454e-02
1.000000000000000021e-02,6.437702629558483824e-01,2.292261742137438496e+00,-1.545422295366275289e+00,-7.468995388239211275e-01,-6.440262283513987773e-01,1.570752152860779738e+00,3.026164493463415900e-02,3.431493849685079284e-02,-2.296942698695996765e-01,1.326688508519039411e-01,-2.973004226372321646e-01,-5.023066152826616976e-02,-5.990546865080701583e-02,-1.914747610461701655e+01,-1.099051318771272712e+01,-3.757592979393019395e+00,-1.585367356231990321e-01,1.798186616946670022e-02
1.200000000000000025e-02,6.438126075515637758e-01,2.292308976690136557e+00,-1.545744574209348743e+00,-7.467125145516995133e-01,-6.444434524722633117e-01,1.570681919083097844e+00,3.616395591922204333e-02,4.136335596169136986e-02,-2.740980253669841882e-01,1.579159180987049771e-01,-3.547332806670783767e-01,-6.005194003397920643e-02,-4.682298279444593175e-02,-1.905280919246838067e+01,-1.092951635458297233e+01,-3.736039734158289605e+00,-1.545574575671598838e-01,1.775589781140712517e-02
1.400000000000000029e-02,6.438669096919271695e-01,2.292370119057657529e+00,-1.546157225384770628e+00,-7.464736845286796818e-01,-6.449776087872540753e-01,1.570591813540948012e+00,4.201626090739513097e-02,4.847358337396043271e-02,-3.179900813858692055e-01,1.827340844070225734e-01,-4.114903965234011363e-01,-6.979826728786051038e-02,-3.318421726657053150e-02,-1.895906500469829581e+01,-1.086833001220290740e+01,-3.714348188453221233e+00,-1.505885221357318449e-01,1.753286609310757832e-02
1.600000000000000033e-02,6.439330693649348847e-01,2.292445292859833561e+00,-1.546659225493550061e+00,-7.461839065568250939e-01,-6.456273458120423969e-01,1.570481986136869068e+00,4.781855990102405751e-02,5.564562074463154373e-02,-3.613704379321169835e-01,2.071233497923037625e-01,-4.675717702029188461e-01,-7.946964329625928747e-02,-1.900799141576296064e-02,-1.886619063697769150e+01,-1.080695637053353941e+01,-3.692518622232239700e+00,-1.466281659918759195e-01,1.731261779765759165e-02
1.800000000000000211e-02,6.440109865585861293e-01,2.292534621716512788e+00,-1.547249551136705703e+00,-7.458440384380811139e-01,-6.463913120622960529e-01,1.570352586773392956e+00,5.357085290221610951e-02,6.287946808456666703e-02,-4.042390950115884451e-01,2.310837142700886138e-01,-5.229774017029471533e-01,-8.906606806543171384e-02,-4.312956903938925182e-03,-1.877413334662055888e+01,-1.074539752470679588e+01,-3.670551248984695647e+00,-1.426746996373487453e-01,1.709500204731570841e-02
2.000000000000000042e-02,6.441005612608925457e-01,2.292638229247614845e+00,-1.547927178915293078e+00,-7.454549379742887449e-01,-6.472681560536602818e-01,1.570203765353009429e+00,5.927313991442315771e-02,7.017512540399323262e-02,-4.465960526301330780e-01,2.546151778564446078e-01,-5.777072910241942694e-01,-9.858754160110434761e-02,1.088318761324265707e-02,-1.868284130959973766e+01,-1.068365491725146121e+01,-3.648445904461870892e+00,-1.387268532186865522e-01,1.687988125843663256e-02
2.199999999999999872e-02,6.442016934598697731e-01,2.292756239073086455e+00,-1.548691085430383474e+00,-7.450174629672526860e-01,-6.482565263017726620e-01,1.570035671778191366e+00,6.492542094157151278e-02,7.753259271291482180e-02,-4.884413107935971499e-01,2.777177405676256039e-01,-6.317614381685656699e-01,-1.080340639088169796e-01,2.656307970409788055e-02,-1.859226302599416414e+01,-1.062172976045564354e+01,-3.626202291147722523e+00,-1.347835049345867120e-01,1.666712253757917858e-02
2.400000000000000050e-02,6.443142831435336726e-01,2.292888774812873010e+00,-1.549540247283046179e+00,-7.445324712187771921e-01,-6.493550713222705495e-01,1.569848455951412536e+00,7.052769598758802660e-02,8.495187002133477994e-02,-5.297748695078264847e-01,3.003914024198855448e-01,-6.851398431379678300e-01,-1.174056349941091509e-01,4.270935731775857280e-02,-1.850234699624986945e+01,-1.055962326634666049e+01,-3.603820111375263480e+00,-1.308435331514341271e-01,1.645659299661440811e-02
2.600000000000000228e-02,6.444382302999035472e-01,2.293035960086928782e+00,-1.550473641074357145e+00,-7.440008205306554157e-01,-6.505624396307934099e-01,1.569642267775143596e+00,7.607996505664307851e-02,9.243295733933609704e-02,-5.705967287785750353e-01,3.226361634296359693e-01,-7.378425059346034320e-01,-1.267022548624328337e-01,5.930473837642827317e-02,-1.841304190156659359e+01,-1.049733660901828181e+01,-3.581299059148579378e+00,-1.269058409490332329e-01,1.624816069093007465e-02
2.800000000000000058e-02,6.445734349170174626e-01,2.293197918515254674e+00,-1.551490243405418523e+00,-7.434233687046017947e-01,-6.518772797429912558e-01,1.569417257151827894e+00,8.158222815456543653e-02,9.997585467754399602e-02,-6.109068886109674246e-01,3.444520236143606140e-01,-7.898694265626858835e-01,-1.359239235186433248e-01,7.633248534121384044e-02,-1.832429765390118703e+01,-1.043487070427358709e+01,-3.558638771759806030e+00,-1.229694996815583197e-01,1.604170010034567870e-02
2.999999999999999889e-02,6.447197969829222552e-01,2.293374773717872461e+00,-1.552589030877344900e+00,-7.428009735422977933e-01,-6.532982401745192069e-01,1.569173573983898118e+00,8.703448528787514904e-02,1.075805620468098522e-01,-6.507053490098665405e-01,3.658389829919904690e-01,-8.412206050272680313e-01,-1.450706409673473973e-01,9.377608765517166101e-02,-1.823606467823104893e+01,-1.037222636025150457e+01,-3.535838862861655496e+00,-1.190336508455451803e-01,1.583708838259780677e-02
3.200000000000000067e-02,6.448772164856645395e-01,2.293566649314801698e+00,-1.553768980091250418e+00,-7.421344928454252088e-01,-6.548239694410321610e-01,1.568911368173786292e+00,9.243673646309451264e-02,1.152470794579857072e-01,-6.899921099801341606e-01,3.867970415804578010e-01,-8.918960413334049431e-01,-1.541424072131508116e-01,1.116190355129898226e-01,-1.814829340123240797e+01,-1.030940438473443344e+01,-3.512898946028558900e+00,-1.150974361698000881e-01,1.563420270429075401e-02
3.400000000000000244e-02,6.450455934132953706e-01,2.293773668926071263e+00,-1.555029067648253660e+00,-7.414247844156542921e-01,-6.564531160581883462e-01,1.568630789623923549e+00,9.778898168700683735e-02,1.229754069220543033e-01,-7.287671715265114925e-01,4.073261993978761764e-01,-9.418957354864038178e-01,-1.631392222605679565e-01,1.298448808162978585e-01,-1.806093444328303477e+01,-1.024640556503034006e+01,-3.489818639974640480e+00,-1.111600119731264713e-01,1.543292089647342602e-02
3.600000000000000422e-02,6.452248277538983334e-01,2.293995956171764217e+00,-1.556368270149496302e+00,-7.406727060545640340e-01,-6.581843285416704159e-01,1.568331988236714603e+00,1.030912209685378444e-01,1.307655444510704701e-01,-7.670305336527469819e-01,4.274264564638471930e-01,-9.912196874936355373e-01,-1.720610861133611558e-01,1.484376820459323287e-01,-1.797394001494113525e+01,-1.018323052036350340e+01,-3.466597605607993682e+00,-1.072206543499798909e-01,1.523312624491037805e-02
3.799999999999999906e-02,6.454148194955728890e-01,2.294233634671991595e+00,-1.557785564196133343e+00,-7.398791155636882388e-01,-6.600162554071740129e-01,1.568015113914553949e+00,1.083434543176639703e-01,1.386174920576150604e-01,-8.047821963621019092e-01,4.470978127987019213e-01,-1.039867897363483396e+00,-1.809079987749241114e-01,1.673817461304099863e-01,-1.788726310665606078e+01,-1.011987978752292783e+01,-3.443235524530407154e+00,-1.032786981378170654e-01,1.503470471058741993e-02
4.000000000000000083e-02,6.456154686264196085e-01,2.294486828046864879e+00,-1.559279926389320226e+00,-7.390448707445607113e-01,-6.619475451703946689e-01,1.567680316559836751e+00,1.135456817443689648e-01,1.465312497542725634e-01,-8.420221596578352230e-01,4.663402684227770933e-01,-1.087840365104338902e+00,-1.896799602486481384e-01,1.866613817092319938e-01,-1.780085671424807359e+01,-1.005635390272992780e+01,-3.419732078486181326e+00,-9.933347857863998598e-02,1.483754227291379964e-02
4.200000000000000261e-02,6.458266751345427270e-01,2.294755659916499546e+00,-1.560850333330212836e+00,-7.381708293987049307e-01,-6.639768463470315796e-01,1.567327746074954620e+00,1.186979032588846850e-01,1.545068175537892829e-01,-8.787504235430714239e-01,4.851538233565906855e-01,-1.135137090724780418e+00,-1.983769705378394810e-01,2.062609363368659854e-01,-1.771467401665764996e+01,-9.992653399110826840e+00,-3.396086965125992396e+00,-9.538433535818811870e-02,1.464152526827888247e-02
4.399999999999999745e-02,6.460483390080955513e-01,2.295040253901074578e+00,-1.562495761619983048e+00,-7.372578493275471212e-01,-6.661028074528251297e-01,1.566957552362284289e+00,1.238001188739217828e-01,1.625441954705289516e-01,-9.149669880196060756e-01,5.035384776224806069e-01,-1.181758074235275791e+00,-2.069990296449581990e-01,2.261651461533731866e-01,-1.762867002137360828e+01,-9.928778778887211942e+00,-3.372300040933755128e+00,-9.143065253516376167e-02,1.444654359769896590e-02
4.599999999999999922e-02,6.462803602352584775e-01,2.295340733620801821e+00,-1.564215187859812950e+00,-7.363067883324574403e-01,-6.683240770035387968e-01,1.566569885324192946e+00,1.288523286036158122e-01,1.706433835197849747e-01,-9.506718530884705753e-01,5.214942312438302086e-01,-1.227703315647378002e+00,-2.155461375719776584e-01,2.463589706930595369e-01,-1.754280078710015189e+01,-9.864730526513797670e+00,-3.348371253705130446e+00,-8.747183967787289238e-02,1.425248921146119244e-02
4.800000000000000100e-02,6.465226388042121242e-01,2.295657222695893118e+00,-1.566007588650882187e+00,-7.353185042148046024e-01,-6.706393035149358361e-01,1.566164894863046886e+00,1.338545324621193133e-01,1.788043817168618599e-01,-9.858650187506866613e-01,5.390210842440352756e-01,-1.272972814972651801e+00,-2.240182943208653688e-01,2.668273721587745007e-01,-1.745702238509872473e+01,-9.800509126233070134e+00,-3.324300552326538760e+00,-8.350730665934505415e-02,1.405925408433216124e-02
5.000000000000000278e-02,6.467750747031431047e-01,2.295989844746567421e+00,-1.567871940594372848e+00,-7.342938547759493284e-01,-6.730471355027843883e-01,1.565742730881213296e+00,1.388067304638090083e-01,1.870271900772289830e-01,-1.020546485007146620e+00,5.561190366466601809e-01,-1.317566572222816479e+00,-2.324154998935140382e-01,2.875553379982410118e-01,-1.737129104897119447e+01,-9.736115067197102846e+00,-3.300087904490784041e+00,-7.953646338888328837e-02,1.386673039549852181e-02
5.200000000000000455e-02,6.470375679203029806e-01,2.296338723393113845e+00,-1.569807220291472127e+00,-7.332336978171447583e-01,-6.755462214829063283e-01,1.565303543281049148e+00,1.437089226258149444e-01,1.953118086183809610e-01,-1.054716251857152232e+00,5.727880884773376424e-01,-1.361484587411480707e+00,-2.407377542908965551e-01,3.085281659140602373e-01,-1.728556500745343882e+01,-9.671548898895895974e+00,-3.275733509017660250e+00,-7.555872022158492685e-02,1.367481283643190611e-02
5.399999999999999939e-02,6.473100184439860572e-01,2.296703982255867693e+00,-1.571812404343368330e+00,-7.321388911395708687e-01,-6.781352099711577264e-01,1.564847481964905196e+00,1.485611089671168283e-01,2.036582373591727391e-01,-1.088374319298934356e+00,5.890282397630892675e-01,-1.404726860553518808e+00,-2.489850575133671917e-01,3.297313620420006530e-01,-1.719980382963768051e+01,-9.606811211355219982e+00,-3.251237720001007414e+00,-7.157348781203744237e-02,1.348339778638889958e-02
5.600000000000000117e-02,6.475923262624883048e-01,2.297085744955165154e+00,-1.573886469351250428e+00,-7.310102925444068589e-01,-6.808127494833962068e-01,1.564374696835132417e+00,1.533632895067288948e-01,2.120664763184848256e-01,-1.121520687330704424e+00,6.048394905309627534e-01,-1.447293391663830864e+00,-2.571574095612693678e-01,3.511504363828425457e-01,-1.711396710947063227e+01,-9.541902595352517835e+00,-3.226600894413941045e+00,-6.758017682038189311e-02,1.329238165592296940e-02
5.800000000000000294e-02,6.478843913641110230e-01,2.297484135111350412e+00,-1.576028391916308724e+00,-7.298487598328244896e-01,-6.835774885354837238e-01,1.563885337794081565e+00,1.581154642638573360e-01,2.205365255153510229e-01,-1.154155355950557293e+00,6.202218408081531242e-01,-1.489184180757443077e+00,-2.652548104348832481e-01,3.727709146472986124e-01,-1.702801457657455941e+01,-9.476823650136726229e+00,-3.201823407291691126e+00,-6.357819598882867573e-02,1.310166097218540271e-02
5.999999999999999778e-02,6.481861137372378900e-01,2.297899276344846697e+00,-1.578237148639723975e+00,-7.286551508058778381e-01,-6.864280756433468467e-01,1.563379554744102506e+00,1.628176332606604826e-01,2.290683849711628028e-01,-1.186278325154779489e+00,6.351752906241079355e-01,-1.530399227851318100e+00,-2.732772601335221596e-01,3.945785638751683200e-01,-1.694190804476040313e+01,-9.411575105092124360e+00,-3.176905911131787441e+00,-5.956692459718027077e-02,1.291113405345172514e-02
6.199999999999999956e-02,6.484973933703171989e-01,2.298331292276142523e+00,-1.580511716122670940e+00,-7.274303232645289441e-01,-6.893631593229625487e-01,1.562857497587543110e+00,1.674697965216087880e-01,2.376620547091580771e-01,-1.217889594938240672e+00,6.496998400100403304e-01,-1.570938532963935819e+00,-2.812247586557424239e-01,4.165593401375251026e-01,-1.685561096036853002e+01,-9.346157791537038406e+00,-3.151849275765903347e+00,-5.554571884755474948e-02,1.272070062097173555e-02
6.400000000000000133e-02,6.488181302517994631e-01,2.298780306525729067e+00,-1.582851070966325269e+00,-7.261751350097377378e-01,-6.923813880903093576e-01,1.562319316226752131e+00,1.720719540712345730e-01,2.463175347526243286e-01,-1.248989165295774306e+00,6.637954889972109696e-01,-1.610802096113817861e+00,-2.890973060000797679e-01,4.386992045598157031e-01,-1.676908681339035923e+01,-9.280572543515340556e+00,-3.126654376836859317e+00,-5.151393432501236852e-02,1.253026043350837643e-02
6.600000000000000311e-02,6.491482243701394150e-01,2.299246442714099725e+00,-1.585254189771860389e+00,-7.248904438424569330e-01,-6.954814104613692427e-01,1.561765160564076771e+00,1.766241059342276154e-01,2.550348251249826004e-01,-1.279577036222110387e+00,6.774622376170015281e-01,-1.649989917319587329e+00,-2.968949021650191256e-01,4.609841279068518372e-01,-1.668229920127943089e+01,-9.214820203968391965e+00,-3.101322105147046315e+00,-4.747092437340394433e-02,1.233971332399438903e-02
6.800000000000000488e-02,6.494875757138921513e-01,2.299729824461844707e+00,-1.587720049140428857e+00,-7.235771075635127891e-01,-6.986618749522000016e-01,1.561195180501872448e+00,1.811262521383658619e-01,2.638139258522740893e-01,-1.309653207709990719e+00,6.907000859031845463e-01,-1.688501996601913691e+00,-3.046175471480507269e-01,4.834002698040982815e-01,-1.659521382695653102e+01,-9.148901790162955905e+00,-3.075853648514942584e+00,-4.341599842536369991e-02,1.214896057854519991e-02
7.000000000000000666e-02,6.498360842717038066e-01,2.300230575389639931e+00,-1.590247625673164578e+00,-7.222359839736156584e-01,-7.019214300789279326e-01,1.560609525942498799e+00,1.855783927142430623e-01,2.726548369629296920e-01,-1.339217679750341450e+00,7.035090338917123765e-01,-1.726338333983330031e+00,-3.122652409457575828e-01,5.059339621138698728e-01,-1.650779831348323512e+01,-9.082818478346830204e+00,-3.050250465631310526e+00,-3.934842586744140974e-02,1.195790480854756407e-02
7.200000000000000844e-02,6.501936500322229584e-01,2.300748819118165311e+00,-1.592835895971201010e+00,-7.208679308734712299e-01,-7.052587243576817766e-01,1.560008346788315681e+00,1.899805276925562725e-01,2.815575584854675406e-01,-1.368270452334023668e+00,7.158890816186168626e-01,-1.763498929486436051e+00,-3.198379835546891758e-01,5.285715430042351448e-01,-1.642002035421929662e+01,-9.016571450588246606e+00,-3.024514025103799852e+00,-3.526747462006174505e-02,1.176644867390766631e-02
7.399999999999999634e-02,6.505601729841040681e-01,2.301284679268103428e+00,-1.595483836635669173e+00,-7.194738060637805299e-01,-7.086724063045938271e-01,1.559391792941684063e+00,1.943326571041260054e-01,2.905220904485162903e-01,-1.396811525451813640e+00,7.278402291200271046e-01,-1.799983783133917825e+00,-3.273357749713558529e-01,5.512993564645451983e-01,-1.633184772303608767e+01,-8.950161896644786452e+00,-2.998645807035755340e+00,-3.117241078358172837e-02,1.157449488875635091e-02
7.599999999999999811e-02,6.509355531161160613e-01,2.301838279460244774e+00,-1.598190424267666332e+00,-7.180544673451079163e-01,-7.121611244358811987e-01,1.558760014304976460e+00,1.986347809829408506e-01,2.995484328835354426e-01,-1.424840899092334912e+00,7.393624764345654299e-01,-1.835792894950641241e+00,-3.347586151912583796e-01,5.741038958611812681e-01,-1.624325025977356418e+01,-8.883591203586508556e+00,-2.972647586515803741e+00,-2.706245375450381033e-02,1.138194755865630514e-02
7.799999999999999989e-02,6.513196904171518753e-01,2.302409743315495305e+00,-1.600954635468254006e+00,-7.166107725178740839e-01,-7.157235272678520444e-01,1.558113160780582040e+00,2.028868993663519582e-01,3.086365858249894290e-01,-1.452358573241927298e+00,7.504558236035013818e-01,-1.870926264963787888e+00,-3.421065042088262675e-01,5.969718130846757287e-01,-1.615419999675013329e+01,-8.816860967878414002e+00,-2.946521451681317849e+00,-2.293677336555994054e-02,1.118871226580659718e-02
8.000000000000000167e-02,6.517124848761095546e-01,2.302999194454765863e+00,-1.603775446838489716e+00,-7.151435793824924003e-01,-7.193582633168182916e-01,1.557451382270887308e+00,2.070890122918724319e-01,3.177865493074870651e-01,-1.479364547886818704e+00,7.611202706682310692e-01,-1.905383893200648604e+00,-3.493794420184369587e-01,6.198897676782925137e-01,-1.606466907212579898e+01,-8.749972796094011684e+00,-2.920269505782055131e+00,-1.879453705679762568e-02,1.099469466369069892e-02
8.200000000000000344e-02,6.521138364818911404e-01,2.303606756498969510e+00,-1.606651834979431426e+00,-7.136537457393723471e-01,-7.230639810990947547e-01,1.556774828678281875e+00,2.112411197971075516e-01,3.269983233657239308e-01,-1.505858823013171977e+00,7.713558176702250968e-01,-1.939165779688581948e+00,-3.565774286144389738e-01,6.428444226727518807e-01,-1.597462968077339696e+01,-8.682928300614632278e+00,-2.893893859987708428e+00,-1.463491110471421171e-02,1.079980044977545822e-02
8.400000000000000522e-02,6.525236452235290141e-01,2.304232553069140987e+00,-1.609582776492089140e+00,-7.121421293887797432e-01,-7.268393291310912829e-01,1.556083649905173116e+00,2.153432219228637035e-01,3.362719080373973712e-01,-1.531841398604841142e+00,7.811624646535303418e-01,-1.972271924457273284e+00,-3.637004639901645353e-01,6.658225625182876417e-01,-1.588405599208370056e+01,-8.615729296027001993e+00,-2.867396901209003257e+00,-1.045702127556370244e-02,1.060393685285569709e-02
8.600000000000000699e-02,6.529418110902162065e-01,2.304876707786462919e+00,-1.612567247977413576e+00,-7.106095881308032158e-01,-7.306829559293344101e-01,1.555377995853993944e+00,2.193953187139018879e-01,3.456073033639137648e-01,-1.557312274642828065e+00,7.905402116653763578e-01,-2.004702327539280571e+00,-3.707485481376905367e-01,6.888111216605120601e-01,-1.579292461466469355e+01,-8.548377846711940009e+00,-2.840781356992856388e+00,-6.259943291343465430e-03,1.040701299344951210e-02
8.799999999999999489e-02,6.533682340711548520e-01,2.305539344272125923e+00,-1.615604226036350788e+00,-7.090569797655199569e-01,-7.345935100103573312e-01,1.554658016427177047e+00,2.233974102152275765e-01,3.550045093869085844e-01,-1.582271451107956972e+00,7.994890587531887638e-01,-2.036456988967338511e+00,-3.777216810490157672e-01,7.117970438278148348e-01,-1.570121230808039847e+01,-8.480876032509277351e+00,-2.814049975967166439e+00,-2.042749776957262803e-03,1.020893810914825367e-02
8.999999999999999667e-02,6.538028141555516370e-01,2.306220586147324614e+00,-1.618692687269847719e+00,-7.074851620930048268e-01,-7.385696398906966831e-01,1.553923861527157557e+00,2.273494964719110500e-01,3.644635261480811406e-01,-1.606718927981005240e+00,8.080090059644484679e-01,-2.067535908774233544e+00,-3.846198627161190875e-01,7.347672748196758530e-01,-1.560889586902352555e+01,-8.413225937151459277e+00,-2.787205511685514114e+00,2.195487213194217361e-03,1.000962147365628933e-02
9.199999999999999845e-02,6.542454513327535803e-01,2.306920557033385943e+00,-1.621831608278789583e+00,-7.058949929131825840e-01,-7.426099940869911320e-01,1.553175681056395030e+00,2.312515775322153688e-01,3.739843536922741740e-01,-1.630654705240280888e+00,8.161000533492831499e-01,-2.097939086995200153e+00,-3.914430931299575089e-01,7.577088631008515041e-01,-1.551595393467926698e+01,-8.345429837329536582e+00,-2.760250961870778674e+00,6.455723904926905996e-03,9.808974150824293844e-03
9.400000000000000022e-02,6.546960455923128697e-01,2.307639380551821162e+00,-1.625019965663973665e+00,-7.042873300257622704e-01,-7.467132211160281141e-01,1.552413624917384105e+00,2.351036534490011376e-01,3.835669920688565271e-01,-1.654078782860541885e+00,8.237622009616347718e-01,-2.127666523668999776e+00,-3.981913722800174971e-01,7.806090049530128860e-01,-1.542236779216403697e+01,-8.277490287555338000e+00,-2.733189675799478913e+00,1.073895724176090680e-02,9.606909781945990878e-03
9.600000000000000200e-02,6.551544969237981242e-01,2.308377180324163280e+00,-1.628256736026192808e+00,-7.026630312304369408e-01,-7.508779694946078331e-01,1.551637843012624751e+00,2.389057242754861199e-01,3.932114413275489273e-01,-1.676991160816270865e+00,8.309954488557420582e-01,-2.156718218834670076e+00,-4.048647001556717195e-01,8.034549081370431223e-01,-1.532811893438344342e+01,-8.209409863915787753e+00,-2.706025030049201696e+00,1.504618732928436446e-02,9.403342208474978897e-03
9.800000000000000377e-02,6.556207053167790733e-01,2.309134079971942199e+00,-1.631540895966236970e+00,-7.010229543268968744e-01,-7.551028877395307148e-01,1.550848485244614938e+00,2.426577900649295183e-01,4.029177015181147903e-01,-1.699391839081915156e+00,8.377997970858788168e-01,-2.185094172531281131e+00,-4.114630767462789662e-01,8.262337816170413074e-01,-1.523318887640006558e+01,-8.141191144794280632e+00,-2.678760403910519727e+00,1.937841444122767945e-02,9.198185299584703614e-03
1.000000000000000056e-01,6.560945707609769917e-01,2.309910203116829486e+00,-1.634871422084823056e+00,-6.993679571146783625e-01,-7.593866243677084293e-01,1.550045701515884389e+00,2.463598508737400716e-01,4.126857726935792559e-01,-1.721280817629293525e+00,8.441752457090354600e-01,-2.212794384800416569e+00,-4.179865020401735687e-01,8.489329252588867503e-01,-1.513756080721550568e+01,-8.072836882070463460e+00,-2.651399381637830288e+00,2.373665155430223703e-02,8.991355018656698936e-03
1.020000000000000073e-01,6.565759932463678394e-01,2.310705673380737402e+00,-1.638247290982548510e+00,-6.976988973930592364e-01,-7.637278278962399414e-01,1.549229641729013451e+00,2.500119067636228376e-01,4.225156549124514105e-01,-1.742658096425804048e+00,8.501217947867705238e-01,-2.239818855687892629e+00,-4.244349760239678471e-01,8.715397917879480483e-01,-1.504122073070977628e+01,-8.004350119373494721e+00,-2.623945892150561843e+00,2.812193300642010924e-02,8.782770850671009835e-03
1.040000000000000091e-01,6.570648727629514463e-01,2.311520614385596861e+00,-1.641667479259996565e+00,-6.960166329612912373e-01,-7.681251468422406470e-01,1.548400455786586249e+00,2.536139577967901348e-01,4.324073482337658092e-01,-1.763523675438420479e+00,8.556394443810801942e-01,-2.266167585239926119e+00,-4.308084986841084207e-01,8.940418485835859297e-01,-1.494415492061336437e+01,-7.935733928301305973e+00,-2.596403897409717665e+00,3.253529518330126880e-02,8.572352618208415112e-03
1.059999999999999970e-01,6.575611093007288632e-01,2.312355149753343664e+00,-1.645130963517752232e+00,-6.943220216186257732e-01,-7.725772297228281627e-01,1.547558293591188683e+00,2.571660040354788457e-01,4.423608527165838744e-01,-1.783877554634095697e+00,8.607281945539825285e-01,-2.291840573502758271e+00,-4.371070700070340265e-01,9.164265636845213558e-01,-1.484634966231622677e+01,-7.866991381610711542e+00,-2.568777360651683495e+00,3.697777444062431973e-02,8.360020162537893859e-03
1.079999999999999988e-01,6.580646028498591260e-01,2.313209403106060602e+00,-1.648636720356314145e+00,-6.926159211641574887e-01,-7.770827250552367893e-01,1.546703305045439736e+00,2.606680455449998379e-01,4.523761684233323921e-01,-1.803719733976980821e+00,8.653880453702851305e-01,-2.316837820525109670e+00,-4.433306899781386812e-01,9.386814891224165569e-01,-1.474779272645294625e+01,-7.798125699681320633e+00,-2.541070407577482371e+00,4.145040330723510219e-02,8.145695705530735936e-03
1.100000000000000006e-01,6.585752534008108006e-01,2.314083498066125788e+00,-1.652183726376018402e+00,-6.908991893966711650e-01,-7.816402813569306440e-01,1.545835640052026339e+00,2.641200823967193023e-01,4.624532954230665682e-01,-1.823050213425706723e+00,8.696189969002882103e-01,-2.341159326360590320e+00,-4.494793585807577707e-01,9.607943423707593356e-01,-1.464847480916095535e+01,-7.729140393667032427e+00,-2.513287483896533114e+00,4.595420677422433486e-02,7.929306158157007137e-03
1.120000000000000023e-01,6.590929609440886461e-01,2.314977558255950640e+00,-1.655770958177181340e+00,-6.891726841149165006e-01,-7.862485471454011554e-01,1.544955448513643637e+00,2.675221146627110858e-01,4.725922337856167665e-01,-1.841868992938261895e+00,8.734210492149346861e-01,-2.364805091063381326e+00,-4.555530757979862067e-01,9.827528602383760470e-01,-1.454838694848388414e+01,-7.660039008704797148e+00,-2.485433072717933456e+00,5.049020895173841894e-02,7.710778979406068129e-03
1.140000000000000041e-01,6.596176254701987540e-01,2.315891707297948798e+00,-1.659397392360119072e+00,-6.874372631176418613e-01,-7.909061709381404182e-01,1.544062880332986776e+00,2.708741424150609145e-01,4.827929835808268400e-01,-1.860176072472621067e+00,8.767942023851786892e-01,-2.387775114687672673e+00,-4.615518416129152368e-01,1.004544779851136438e+00,-1.444752018755375467e+01,-7.590825090401922992e+00,-2.457511657627634793e+00,5.505943387330528016e-02,7.490041638570406855e-03
1.160000000000000059e-01,6.601491469698065329e-01,2.316826068814687112e+00,-1.663062005525053566e+00,-6.856937842034380726e-01,-7.956118012527603200e-01,1.543158085412787983e+00,2.741761657288248610e-01,4.930555448819829989e-01,-1.877971451983795559e+00,8.797384564848260702e-01,-2.410069397289934301e+00,-4.674756560076026579e-01,1.026157918386209733e+00,-1.434586685428279118e+01,-7.521502303127044264e+00,-2.429527842613898425e+00,5.966288622685521348e-02,7.267024206408724714e-03
1.180000000000000077e-01,6.606874254339498709e-01,2.317780766429094363e+00,-1.666763774271991183e+00,-6.839431051705299192e-01,-8.003640866071528581e-01,1.542241213655867416e+00,2.774281846859376066e-01,5.033799177703429661e-01,-1.895255131419932182e+00,8.822538115942863968e-01,-2.431687938931915038e+00,-4.733245189617148463e-01,1.047580278384532715e+00,-1.424342225157180586e+01,-7.452074586248048860e+00,-2.401486510464037050e+00,6.430152590438220628e-02,7.041662777536777766e-03
1.199999999999999956e-01,6.612323608537186148e-01,2.318755923764149962e+00,-1.670501675200906755e+00,-6.821860838170910046e-01,-8.051616755192493313e-01,1.541312414965056776e+00,2.806301993693045560e-01,5.137661023282893424e-01,-1.912027110728207857e+00,8.843402677949017132e-01,-2.452630739676110672e+00,-4.790984304545807260e-01,1.068799888550043597e+00,-1.414018210222368488e+01,-7.382545917947346936e+00,-2.373392583316203286e+00,6.897630647519840952e-02,6.813894296802164470e-03
1.219999999999999973e-01,6.617838532202029445e-01,2.319751664442832428e+00,-1.674274684911775779e+00,-6.804235779412947105e-01,-8.100032165069808165e-01,1.540371839243188212e+00,2.837822098618354438e-01,5.242140986382101131e-01,-1.928287389855795952e+00,8.859978251680177275e-01,-2.472897799585018763e+00,-4.847973904655273336e-01,1.089804777702296557e+00,-1.403614213065583627e+01,-7.312920276541320597e+00,-2.345250983430456237e+00,7.368818146029734728e-02,6.583655713118171174e-03
1.239999999999999991e-01,6.623418025246529117e-01,2.320768112088279711e+00,-1.678081780004470724e+00,-6.786564453411565445e-01,-8.148873580883991830e-01,1.539419636393134061e+00,2.868842162492810099e-01,5.347239067860456441e-01,-1.944035968746700149e+00,8.872264837979436658e-01,-2.492489118723056229e+00,-4.904213989727159717e-01,1.110583052183336639e+00,-1.393129914385151658e+01,-7.243201730180097719e+00,-2.317066714807856531e+00,7.843807198230781652e-02,6.350886701501520966e-03
1.260000000000000009e-01,6.629061087587578838e-01,2.321805390324067186e+00,-1.681921937078586726e+00,-6.768855438142631353e-01,-8.198127487818874792e-01,1.538455956317876350e+00,2.899362186251583373e-01,5.452955268674459788e-01,-1.959272847336266610e+00,8.880262437770872763e-01,-2.511404697159901556e+00,-4.959704559511219912e-01,1.131123030229287618e+00,-1.382565290779715816e+01,-7.173394592558552496e+00,-2.288845004874107136e+00,8.322681060863233726e-02,6.115534388292774397e-03
1.280000000000000027e-01,6.634766719142799474e-01,2.322863622773840842e+00,-1.685794132733668960e+00,-6.751117311581271707e-01,-8.247780371058832660e-01,1.537480948920413759e+00,2.929382170842983468e-01,5.559289589797041797e-01,-1.973998025558370006e+00,8.883971051992263224e-01,-2.529644534966114744e+00,-5.014445613751805642e-01,1.151413065949938641e+00,-1.371920368943838220e+01,-7.103503218942258890e+00,-2.260591118880697081e+00,8.805521491427403813e-02,5.877547161341566302e-03
1.300000000000000044e-01,6.640533919829821885e-01,2.323942933061248883e+00,-1.689697343569264820e+00,-6.733358651702622266e-01,-8.297818715788253252e-01,1.536494764103746746e+00,2.958902117215335137e-01,5.666242032201154188e-01,-1.988211503346889009e+00,8.883390681581406767e-01,-2.547208632212262014e+00,-5.068437152193274731e-01,1.171441513476694674e+00,-1.361195175597578810e+01,-7.033531964614906151e+00,-2.232310322093056243e+00,9.292410246214367897e-02,5.636873409285162763e-03
1.320000000000000062e-01,6.646361689567849007e-01,2.325043444810099835e+00,-1.693630546184810459e+00,-6.715588036480258927e-01,-8.348229007192692341e-01,1.535497551770917957e+00,2.987922026343853288e-01,5.773812596894912774e-01,-2.001913280632475090e+00,8.878521327505511929e-01,-2.564096988970075763e+00,-5.121679174571148740e-01,1.191196802183184245e+00,-1.350389826214985867e+01,-6.963485247862765348e+00,-2.204007928300876440e+00,9.783424871972271064e-02,5.393464262586802720e-03
1.340000000000000080e-01,6.652249028281173038e-01,2.326165281644725358e+00,-1.697592717179388533e+00,-6.697814043882723833e-01,-8.398997730461490452e-01,1.534489461825105927e+00,3.016441899290877582e-01,5.882001285000366675e-01,-2.015103357335329193e+00,8.869362990827089899e-01,-2.580309605315076027e+00,-5.174171680592341005e-01,1.210667605210706821e+00,-1.339504723812820330e+01,-6.893367691086143445e+00,-2.175689408501398248e+00,1.027862927748881688e-01,5.147279734601481471e-03
1.360000000000000098e-01,6.658194935895117572e-01,2.327308567189562361e+00,-1.701582833152008201e+00,-6.680045251877533286e-01,-8.450111370784757492e-01,1.533470644169518726e+00,3.044461737136360258e-01,5.990808097662603249e-01,-2.027781733373539730e+00,8.855915672627915347e-01,-2.595846481323548449e+00,-5.225914669957976155e-01,1.229842644978094590e+00,-1.328540329534482467e+01,-6.823183957946921119e+00,-2.147360265471306207e+00,1.077808461464368900e-01,4.898281634357065130e-03
1.380000000000000115e-01,6.664198412335010646e-01,2.328473425069048641e+00,-1.705599870701679288e+00,-6.662290238432212464e-01,-8.501556413352604480e-01,1.532441248707363535e+00,3.071981540960256329e-01,6.100233036026709854e-01,-2.039948408665195334e+00,8.838179373989768495e-01,-2.610707617071778230e+00,-5.276908142369184374e-01,1.248710643904317852e+00,-1.317497104523506302e+01,-6.752938712107053654e+00,-2.119026001987325269e+00,1.128185203530746444e-01,4.646431770886443567e-03
1.400000000000000133e-01,6.670258457527690199e-01,2.329659978907781426e+00,-1.709642806427297712e+00,-6.644557581512762212e-01,-8.553319343356213800e-01,1.531401425341889722e+00,3.099001311867710662e-01,6.210276101277012462e-01,-2.051603383124671165e+00,8.816154096028159248e-01,-2.624893012636738909e+00,-5.327152097507219519e-01,1.267260396911953801e+00,-1.306375580723502772e+01,-6.682636657266534996e+00,-2.090692142786371388e+00,1.178998788029647221e-01,4.391694606628572702e-03
1.420000000000000151e-01,6.676374071405841715e-01,2.330868352330978777e+00,-1.713710616927314634e+00,-6.626855859079334721e-01,-8.605386645990895644e-01,1.530351323976508304e+00,3.125521051060923261e-01,6.320937294749021662e-01,-2.062746656652031607e+00,8.789839839988560222e-01,-2.638402668098054793e+00,-5.376646534976762259e-01,1.285480978242544037e+00,-1.295176562834221023e+01,-6.612282651371264031e+00,-2.062364297206641162e+00,1.230252995591895188e-01,4.134044826226050164e-03
1.440000000000000169e-01,6.682544253903552889e-01,2.332098668964006194e+00,-1.717802278800074856e+00,-6.609193649090669975e-01,-8.657744806452944974e-01,1.529291094514668936e+00,3.151540759765463773e-01,6.432216617814643378e-01,-2.073378229143895357e+00,8.759236607147719011e-01,-2.651236583535985680e+00,-5.425391454364059118e-01,1.303361529391407148e+00,-1.283900921229006897e+01,-6.541881589506108874e+00,-2.034048094956429686e+00,1.281951160578688464e-01,3.873459575600160087e-03
1.459999999999999909e-01,6.688768004954915858e-01,2.333351052432231398e+00,-1.721916768643924067e+00,-6.591579529505511292e-01,-8.710380309938670074e-01,1.528220886859821714e+00,3.177060439206900178e-01,6.544114071845786862e-01,-2.083498100496882000e+00,8.724344398782405419e-01,-2.663394759030794923e+00,-5.473386855255353289e-01,1.320891191853863278e+00,-1.272549526281206766e+01,-6.471438366755945637e+00,-2.005749165744035167e+00,1.334096617351226421e-01,3.609916000672198314e-03
1.479999999999999927e-01,6.695044324495458277e-01,2.334625626361181094e+00,-1.726053063057085613e+00,-6.574022078281096526e-01,-8.763279641645314033e-01,1.527140850915465142e+00,3.202080090634175091e-01,6.656629658243926606e-01,-2.093106270604800923e+00,8.685163216193736435e-01,-2.674877194661224866e+00,-5.520632737248685196e-01,1.338059176068694178e+00,-1.261123303175717147e+01,-6.400957899129873674e+00,-1.977473141324097572e+00,1.386692193556331720e-01,3.343393726814515750e-03
1.499999999999999944e-01,6.701372212467324729e-01,2.335922514377124060e+00,-1.730210138637225059e+00,-6.556529873367779038e-01,-8.816429286774452034e-01,1.526051136585321100e+00,3.226599715403428714e-01,6.769763378546120869e-01,-2.102202739348577598e+00,8.641693060794597425e-01,-2.685683890499051873e+00,-5.567129099996178665e-01,1.354855008689494378e+00,-1.249623428495087119e+01,-6.330445198607690394e+00,-1.949225662836985506e+00,1.439738392754022489e-01,3.073883751603973848e-03
1.519999999999999962e-01,6.707750668814551620e-01,2.337241840106540902e+00,-1.734386971981849435e+00,-6.539111492713938212e-01,-8.869815730528902709e-01,1.524951893773175415e+00,3.250619314901519452e-01,6.883515234328285715e-01,-2.110787506605444452e+00,8.593933934029887034e-01,-2.695814846614056570e+00,-5.612875943165450687e-01,1.371268306973825180e+00,-1.238051150853987714e+01,-6.259905304667355175e+00,-1.921012374112328835e+00,1.493235052591532774e-01,2.801380331056985661e-03
1.539999999999999980e-01,6.714178693481175353e-01,2.338583727175910454e+00,-1.738582539688463768e+00,-6.521775514267952323e-01,-8.923425458111478026e-01,1.523843272382813474e+00,3.274138890515306266e-01,6.997885227166332767e-01,-2.118860572252633467e+00,8.541885837344511678e-01,-2.705270063076017806e+00,-5.657873266424120473e-01,1.387288688186747443e+00,-1.226407718873053021e+01,-6.189343256789101133e+00,-1.892838918979977469e+00,1.547182010660985430e-01,2.525877721459628307e-03
1.559999999999999998e-01,6.720655286412581253e-01,2.339948299211865201e+00,-1.742795818354454740e+00,-6.504530515976794103e-01,-8.977244954725672743e-01,1.522725422318053301e+00,3.297158443653090409e-01,7.112873358699437487e-01,-2.126421936161158044e+00,8.485548772241803261e-01,-2.714049539955921464e+00,-5.702121069349330718e-01,1.402905834184430711e+00,-1.214694422685087005e+01,-6.118764102659256743e+00,-1.864710930281887391e+00,1.601578602988635858e-01,2.247372420914486944e-03
1.580000000000000016e-01,6.727179447561548731e-01,2.341335679841880069e+00,-1.747025784576554219e+00,-6.487385075779734667e-01,-9.031260705578704195e-01,1.521598493482890335e+00,3.319677975840441553e-01,7.228479630912765241e-01,-2.133471598168012129e+00,8.424922740544639188e-01,-2.722153277331344157e+00,-5.745619351023368848e-01,1.418109780092924987e+00,-1.202912779466519133e+01,-6.048172934845985615e+00,-1.836633980763620944e+00,1.656421422373160757e-01,1.965873188750995662e-03
1.600000000000000033e-01,6.733750176883369631e-01,2.342745992693714197e+00,-1.751271414951273808e+00,-6.470347771613431664e-01,-9.085459195879053151e-01,1.520462635781380634e+00,3.341697488642824121e-01,7.344704045909167256e-01,-2.140009558098621589e+00,8.360007744184602130e-01,-2.729581275282107811e+00,-5.788368110360196939e-01,1.432890681204023409e+00,-1.191064383623306711e+01,-5.977574861184131727e+00,-1.808613622728784343e+00,1.711706128496657542e-01,1.681392954989397760e-03
1.620000000000000051e-01,6.740366474333332469e-01,2.344179361395124506e+00,-1.755531686075121334e+00,-6.453427181414531644e-01,-9.139826910835189278e-01,1.519317999117578255e+00,3.363216983625729184e-01,7.461546605791592457e-01,-2.146035815778398081e+00,8.290803785093354694e-01,-2.736333533888031244e+00,-5.830367346273634954e-01,1.447238692909377233e+00,-1.179150829625583796e+01,-5.906974989521221353e+00,-1.780655408463994060e+00,1.767428380265798349e-01,1.393944653115790442e-03
1.640000000000000069e-01,6.747027339867981421e-01,2.345635909574040667e+00,-1.759805574544468287e+00,-6.436631883118154596e-01,-9.194350335656239492e-01,1.518164733395626964e+00,3.384236462374033416e-01,7.579007312627684678e-01,-2.151550371036377474e+00,8.217310865162833489e-01,-2.742410053218092170e+00,-5.871617057894576996e-01,1.461144029493385510e+00,-1.167173741274540433e+01,-5.836378421659645710e+00,-1.752764870006256581e+00,1.823583362861715962e-01,1.103543175985339814e-03
1.660000000000000087e-01,6.753731773452018583e-01,2.347115760859483480e+00,-1.764092056954774446e+00,-6.419970454649334135e-01,-9.249015955555475177e-01,1.517002988520233853e+00,3.404755926599453697e-01,7.697086168253960414e-01,-2.156553223725274027e+00,8.139528986024855417e-01,-2.747810833270256214e+00,-5.912117245774795027e-01,1.474597290738155264e+00,-1.155134934365363542e+01,-5.765790219831735897e+00,-1.724947406843498232e+00,1.880163160572496384e-01,8.102162420101106238e-04
1.680000000000000104e-01,6.760478775053431200e-01,2.348619038880917831e+00,-1.768390109901132989e+00,-6.403451473929052673e-01,-9.303810255747849700e-01,1.515832914396335607e+00,3.424775378064735532e-01,7.815783174413968304e-01,-2.161044373707332156e+00,8.057458149206606635e-01,-2.752535874013932293e+00,-5.951867911037621584e-01,1.487589231492421726e+00,-1.143036301922915676e+01,-5.695215430352759789e+00,-1.697208365145718600e+00,1.937158610350587784e-01,5.139967286882713609e-04
1.700000000000000122e-01,6.767267344640224280e-01,2.350145867267811273e+00,-1.772698709978637766e+00,-6.387083518878290400e-01,-9.358719721448326423e-01,1.514654660928870022e+00,3.444294818532765978e-01,7.935098332851012737e-01,-2.165023820844822922e+00,7.971098356235002402e-01,-2.756585175418450717e+00,-5.990869054807945737e-01,1.500110607027884013e+00,-1.130879737182711864e+01,-5.624659099494572878e+00,-1.669553090937488271e+00,1.994560545746190128e-01,2.149175275899817825e-04
1.720000000000000140e-01,6.774096482181526380e-01,2.351696369649740159e+00,-1.777016833782292027e+00,-6.370875167417038298e-01,-9.413730837871659984e-01,1.513468378022701177e+00,3.463314249783595034e-01,8.055031645576499200e-01,-2.168491564973290320e+00,7.880449608901072267e-01,-2.759958737476399637e+00,-6.029120677491555114e-01,1.512152226244487752e+00,-1.118667156329194690e+01,-5.554126274261259155e+00,-1.641986910263072863e+00,2.052359377676080121e-01,-8.698680890764458589e-05
1.740000000000000158e-01,6.780965187655387805e-01,2.353270669657164138e+00,-1.781343457906402916e+00,-6.354834997457559087e-01,-9.468830090231061813e-01,1.512274215582124937e+00,3.481833673732550594e-01,8.175583116714530973e-01,-2.171447605717686358e+00,7.785511911077149794e-01,-2.762656560363643710e+00,-6.066622773827934356e-01,1.523705320617480874e+00,-1.106400656377816460e+01,-5.483622007426738776e+00,-1.614514991727659998e+00,2.110542186826266098e-01,-3.916686417426172898e-04
1.759999999999999898e-01,6.787872461044095473e-01,2.354868890920962521e+00,-1.785677558944947618e+00,-6.338971586908460631e-01,-9.524003963739003931e-01,1.511072323511166715e+00,3.499853092359040962e-01,8.296752751389979696e-01,-2.173891942603209504e+00,7.686285267621469908e-01,-2.764678644342867475e+00,-6.103375335872454066e-01,1.534761321795205857e+00,-1.094082420003326206e+01,-5.413151354498088708e+00,-1.587142429357851325e+00,2.169094476358944257e-01,-6.990741327158667747e-04
1.779999999999999916e-01,6.794817302329949626e-01,2.356491157072015508e+00,-1.790018113491901097e+00,-6.323293513678318600e-01,-9.579238943607955026e-01,1.509862851713850151e+00,3.517372507642859136e-01,8.418540554733716652e-01,-2.175824575154458707e+00,7.582769683398171701e-01,-2.766024989677274615e+00,-6.139378355664397713e-01,1.545311662625505900e+00,-1.081714630393768672e+01,-5.342719370998759487e+00,-1.559874316733349309e+00,2.228001739983295482e-01,-1.009149406481163165e-03
1.799999999999999933e-01,6.801798711496269689e-01,2.358137591741466199e+00,-1.794364098140995845e+00,-6.307809355673242857e-01,-9.634521515051724938e-01,1.508645950094605448e+00,3.534391921578601270e-01,8.540946531250499518e-01,-2.177245502958740087e+00,7.474965162641780125e-01,-2.766695596551905112e+00,-6.174631827295626874e-01,1.555347820085318578e+00,-1.069299478618557231e+01,-5.272331071104830791e+00,-1.532715715765179176e+00,2.287249095133156163e-01,-1.321839242390820523e-03
1.819999999999999951e-01,6.808815688536011823e-01,2.359808318562954810e+00,-1.798714489483648427e+00,-6.292527690775642224e-01,-9.689838163296945472e-01,1.507421768561739928e+00,3.550911336302451371e-01,8.663970679456924895e-01,-2.178154726203080482e+00,7.362871703565142534e-01,-2.766690464404227612e+00,-6.209135764488845632e-01,1.564861693203267956e+00,-1.056839231124678768e+01,-5.201991073545124245e+00,-1.505671385484384839e+00,2.346818060536268735e-01,-1.637075553302966150e-03
1.839999999999999969e-01,6.815867233447490126e-01,2.361503461171511109e+00,-1.803068264109989327e+00,-6.277457096854759389e-01,-9.745175373577362743e-01,1.506190457025714524e+00,3.566930754029272732e-01,8.787612994542054468e-01,-2.178552245407765042e+00,7.246489301034947372e-01,-2.766009592256297722e+00,-6.242890191875315464e-01,1.573845415535570780e+00,-1.044336196245272141e+01,-5.131703777304534420e+00,-1.478745916616291067e+00,2.406688155175082389e-01,-1.954783102364000390e-03
1.859999999999999987e-01,6.822952346229084197e-01,2.363223143202181298e+00,-1.807424398610135485e+00,-6.262606151779699371e-01,-9.800519631126815012e-01,1.504952165397015706e+00,3.582450176974772971e-01,8.911873471659275125e-01,-2.178438061096653389e+00,7.125817949882000679e-01,-2.764652979125718169e+00,-6.275895134203310910e-01,1.582291123153991341e+00,-1.031792682762749003e+01,-5.061473579010988821e+00,-1.451943898080975348e+00,2.466838876582747586e-01,-2.274886576032392194e-03
1.880000000000000004e-01,6.830070026880045164e-01,2.364967488289818842e+00,-1.811781869574411008e+00,-6.247983433421616661e-01,-9.855857421175244770e-01,1.503707043585148284e+00,3.597469607366966526e-01,9.036752107953278657e-01,-2.177812173594577683e+00,7.000857646925435773e-01,-2.762620624249887413e+00,-6.308150610176944673e-01,1.590190997271543560e+00,-1.019211025473083865e+01,-4.991304946033308987e+00,-1.425269922419220903e+00,2.527249444147955937e-01,-2.597309569211330750e-03
1.900000000000000022e-01,6.837219275409922581e-01,2.366736620067021235e+00,-1.816139653595573167e+00,-6.233597519675683207e-01,-9.911175228906916601e-01,1.502455241488112048e+00,3.611989047578312295e-01,9.162248923942595269e-01,-2.176674580890213040e+00,6.871608412323182424e-01,-2.759912529446185481e+00,-6.339656567554797784e-01,1.597537748963559601e+00,-1.006593864516191594e+01,-4.921203176088128295e+00,-1.398728624671230270e+00,2.587895812434748422e-01,-2.921962864265438466e-03
1.920000000000000040e-01,6.844399091834963977e-01,2.368530662164927136e+00,-1.820496727267965076e+00,-6.219456988452696233e-01,-9.966459539476442142e-01,1.501196908996434098e+00,3.626008500075132979e-01,9.288363955333083233e-01,-2.175025279454302574e+00,6.738070281397727790e-01,-2.756528698208351003e+00,-6.370412907998098673e-01,1.604324433587127396e+00,-9.939440384313520838e+00,-4.851174106416394238e+00,-1.372324667491501726e+00,2.648751814664489501e-01,-3.248748918522671638e-03
1.940000000000000058e-01,6.851608476171523465e-01,2.370349738214646784e+00,-1.824852067185953830e+00,-6.205570417663710536e-01,-1.002169683803790790e+00,1.499932196000512752e+00,3.639527967325340563e-01,9.415097238088578901e-01,-2.172864265731801137e+00,6.600243289729157414e-01,-2.752469134058599387e+00,-6.400419532384998833e-01,1.610544112347763512e+00,-9.812643891281208397e+00,-4.781223583424126566e+00,-1.346062714003626093e+00,2.709791248022573873e-01,-3.577570047890769444e-03
1.960000000000000075e-01,6.858846428436703446e-01,2.372193971848373995e+00,-1.829204649942838712e+00,-6.191946385209078363e-01,-1.007687360975602076e+00,1.498661252393730381e+00,3.652547451806575363e-01,9.542448802710113975e-01,-2.170191536714057179e+00,6.458127467432285274e-01,-2.747733839892597896e+00,-6.429676358628678701e-01,1.616189861731189836e+00,-9.685577140953592234e+00,-4.711357202137731015e+00,-1.319947339200108649e+00,2.770987595186416574e-01,-3.908327833818388969e-03
1.980000000000000093e-01,6.866111948658457642e-01,2.374063486714122373e+00,-1.833553452116279292e+00,-6.178593468832644930e-01,-1.013197633995040148e+00,1.497384228113069149e+00,3.665066956138647858e-01,9.670418599845397312e-01,-2.167007097379344494e+00,6.311722764732726754e-01,-2.742322809447381271e+00,-6.458183553653430442e-01,1.621254981583070132e+00,-9.558261614978951215e+00,-4.641576883016500510e+00,-1.293981829808354966e+00,2.832309741481081056e-01,-4.240913121724063789e-03
2.000000000000000111e-01,6.873404036872972078e-01,2.375958406471894602e+00,-1.837897450272085509e+00,-6.165520246159635898e-01,-1.018699151405810355e+00,1.496101273128556119e+00,3.677086483049117338e-01,9.799006519621761280e-01,-2.163310958759185443e+00,6.161029071308513627e-01,-2.736236029518709145e+00,-6.485941473107702526e-01,1.625732941032328238e+00,-9.430713873814783099e+00,-4.571881761585709469e+00,-1.268168496186803607e+00,2.893723087923806281e-01,-4.575208620248680420e-03
2.020000000000000129e-01,6.880721693116633730e-01,2.377878854781990459e+00,-1.842235620975771981e+00,-6.152735294812338163e-01,-1.024190561751909589e+00,1.494812537411040143e+00,3.688606035268219840e-01,9.928212450663689292e-01,-2.159103132035418593e+00,6.006046275334158135e-01,-2.729473486729972809e+00,-6.512950477326364673e-01,1.629617213411550525e+00,-9.302950355714978414e+00,-4.502270904214819680e+00,-1.242509624448580707e+00,2.955192949009078918e-01,-4.911096835979686728e-03
2.040000000000000147e-01,6.888063917426439087e-01,2.379824955302234368e+00,-1.846566940795341338e+00,-6.140247192437906509e-01,-1.029670513574359347e+00,1.493518170923354926e+00,3.699625615533354006e-01,1.005803629686201184e+00,-2.154383626863346723e+00,5.846774280248651090e-01,-2.722035169433741242e+00,-6.539210879526328180e-01,1.632901344288924861e+00,-9.174988883361592684e+00,-4.432744023991544324e+00,-1.217007680404067926e+00,3.016684659248536349e-01,-5.248459491955786461e-03
2.060000000000000164e-01,6.895429709850642297e-01,2.381796831644487078e+00,-1.850890386344935745e+00,-6.128064517144944379e-01,-1.035137655358981279e+00,1.492218323479639341e+00,3.710145226714792743e-01,1.018847824536020408e+00,-2.149152424574856557e+00,5.683213272708971253e-01,-2.713921098065780413e+00,-6.564722118695195396e-01,1.635580219496119092e+00,-9.046872966195989463e+00,-4.363312833251104195e+00,-1.191668463976806924e+00,3.078163924553158348e-01,-5.587163773207393970e-03
2.080000000000000182e-01,6.902818070447457321e-01,2.383794607380049779e+00,-1.855204934279426787e+00,-6.116195847449350520e-01,-1.040590635542878672e+00,1.490913144762794351e+00,3.720164871800094031e-01,1.031953873330400340e+00,-2.143409481503249836e+00,5.515363689343767417e-01,-2.705131321378888121e+00,-6.589482862215152448e-01,1.637649907797681603e+00,-8.918668785106270036e+00,-4.293999635010774973e+00,-1.166500717819236366e+00,3.139596778635517782e-01,-5.927064033341707117e-03
2.099999999999999922e-01,6.910227999275428967e-01,2.385818406078827891e+00,-1.859509561255083598e+00,-6.104649761881004721e-01,-1.046028102561481044e+00,1.489602784451213413e+00,3.729684553780839851e-01,1.045121820642287647e+00,-2.137154753123505557e+00,5.343225975364372937e-01,-2.695665889098113333e+00,-6.613491750975561967e-01,1.639106518573756333e+00,-8.790443299396935473e+00,-4.224827095915283159e+00,-1.141513285621389207e+00,3.200949266463140597e-01,-6.268014185403360770e-03
2.119999999999999940e-01,6.917658496393574996e-01,2.387868351317807836e+00,-1.863803243921097863e+00,-6.093434838899036698e-01,-1.051448704858119143e+00,1.488287392244886265e+00,3.738704275653370601e-01,1.058351706995944053e+00,-2.130388198959375590e+00,5.166800535493849544e-01,-2.685524846342790095e+00,-6.636747551332586870e-01,1.639946056222163495e+00,-8.662259849874006434e+00,-4.155816118740266241e+00,-1.116714484001377183e+00,3.262186761373168098e-01,-6.609868271260617781e-03
2.139999999999999958e-01,6.925108561872400648e-01,2.389944566844998342e+00,-1.868084958755832137e+00,-6.082559655254404785e-01,-1.056851091066908888e+00,1.486967118365265739e+00,3.747224040529009703e-01,1.071643475155296121e+00,-2.123109876297071708e+00,4.986086796817630895e-01,-2.674708127021739212e+00,-6.659252059188395245e-01,1.640161990216845167e+00,-8.534094404365976771e+00,-4.086945015530497827e+00,-1.092099902794832378e+00,3.323258419383079421e-01,-6.952483443382033099e-03
2.159999999999999976e-01,6.932577195794195069e-01,2.392047176584055634e+00,-1.872353682062182001e+00,-6.072032785943578537e-01,-1.062233910017921446e+00,1.485642113569399347e+00,3.755243851637163899e-01,1.084996967474139318e+00,-2.115319942835109046e+00,4.801083182284657247e-01,-2.663215550818902599e+00,-6.681010182106930095e-01,1.639745186398803511e+00,-8.405833189481091594e+00,-4.018148353179027410e+00,-1.067652060095733324e+00,3.384096739620581773e-01,-7.295720049149224951e-03
2.179999999999999993e-01,6.940063398241780313e-01,2.394176304466647309e+00,-1.876608390135043658e+00,-6.061862805883022620e-01,-1.067595810550163504e+00,1.484312528638758844e+00,3.762763712212625622e-01,1.098412021727508625e+00,-2.107018560850865363e+00,4.611788069054644223e-01,-2.651046932209502938e+00,-6.702026969545769042e-01,1.638686391881824411e+00,-8.277358339574377055e+00,-3.949358703773867330e+00,-1.043352877918836352e+00,3.444633461649266315e-01,-7.639438581633751710e-03
2.200000000000000011e-01,6.947566169298341476e-01,2.396332074406792856e+00,-1.880848059286968965e+00,-6.052058290165772680e-01,-1.072935441482457009e+00,1.482978514299878148e+00,3.769783625492897361e-01,1.111888486061540116e+00,-2.098205882250663290e+00,4.418199937997617788e-01,-2.638202097446919581e+00,-6.722307150119823937e-01,1.636976685974675050e+00,-8.148561257737489072e+00,-3.880513115427586257e+00,-1.019185591479486952e+00,3.504801616057948155e-01,-7.983497914853802946e-03
2.220000000000000029e-01,6.955084509058485631e-01,2.398514609745177939e+00,-1.885071666404024571e+00,-6.042627819620244312e-01,-1.078251450977948167e+00,1.481640219494727795e+00,3.776303594803360753e-01,1.125426545506783116e+00,-2.088881722057925217e+00,4.220320638804988533e-01,-2.624681255374395228e+00,-6.741845030513221593e-01,1.634617938673992743e+00,-8.019634423387200783e+00,-3.811694030935758981e+00,-9.951760926811457075e-01,3.564576169801355054e-01,-8.327704331124957324e-03
2.240000000000000047e-01,6.962617417630491135e-01,2.400724033137108915e+00,-1.889278189057879587e+00,-6.033579981931165293e-01,-1.083542486415962847e+00,1.480297791031943033e+00,3.782323623574456173e-01,1.139026787818730346e+00,-2.079045492572934251e+00,4.018156048390386093e-01,-2.610485072198212464e+00,-6.760622458622159714e-01,1.631624919591138978e+00,-7.891130234477795824e+00,-3.743157703643990697e+00,-9.714012669180293047e-01,3.623982222223338656e-01,-8.671801242563087486e-03
2.260000000000000064e-01,6.970163895123441256e-01,2.402960467197608807e+00,-1.893466604860502001e+00,-6.024923365186256596e-01,-1.088807195129757321e+00,1.478951375594769413e+00,3.787843715242804610e-01,1.152689824423765774e+00,-2.068696582425194830e+00,3.811712280374751627e-01,-2.595614241007003109e+00,-6.778620550054920146e-01,1.628013156535795369e+00,-7.763622243830220704e+00,-3.675170602929087593e+00,-9.479409968195202651e-01,3.683047819290102831e-01,-9.015528365973734040e-03
2.280000000000000082e-01,6.977722941646655741e-01,2.405224034584818149e+00,-1.897635891380741846e+00,-6.016666557042078534e-01,-1.094044224501465878e+00,1.477601119999629509e+00,3.792863873246182238e-01,1.166416241690281019e+00,-2.057834405302257696e+00,3.600995197798229630e-01,-2.580069426410547262e+00,-6.795821196237885609e-01,1.623797417605032045e+00,-7.637661576967828658e+00,-3.607988346064630036e+00,-9.248719661963477057e-01,3.741797611026715931e-01,-9.358628546345015148e-03
2.300000000000000100e-01,6.985293557320538804e-01,2.407514859927791573e+00,-1.901785024216718689e+00,-6.008818125448153191e-01,-1.099252224147371004e+00,1.476247177150266543e+00,3.797384101075542695e-01,1.180205480644732630e+00,-2.046459520236360685e+00,3.385999210241454893e-01,-2.563849991317456389e+00,-6.812241749420733239e-01,1.618957746217209559e+00,-7.512774260324507125e+00,-3.541370526178038158e+00,-9.021246483728766474e-01,3.800101026966367090e-01,-9.700987610542775516e-03
2.320000000000000118e-01,6.992874742280921208e-01,2.409833070600686966e+00,-1.905912976221699084e+00,-6.001386610905844465e-01,-1.104429846795495385e+00,1.474889708428895885e+00,3.801404402295897600e-01,1.194055387070791285e+00,-2.034574081506357768e+00,3.166702774801263276e-01,-2.546953485614974255e+00,-6.827948952014113448e-01,1.613425820938656496e+00,-7.387058552889812724e+00,-3.474385869401754867e+00,-8.794258733626957314e-01,3.857611304112880113e-01,-1.004269053190778686e-02
2.340000000000000135e-01,7.000465496664775022e-01,2.412178794180967145e+00,-1.910018720045660645e+00,-5.994380551883661257e-01,-1.109575745404322022e+00,1.473528875845661723e+00,3.804924780477737523e-01,1.207963688606120245e+00,-2.022180361537389892e+00,2.943083167110292497e-01,-2.529377324915339731e+00,-6.843013204335959276e-01,1.607129738364286853e+00,-7.258506971115983752e+00,-3.406051935251922735e+00,-8.564873890590712913e-01,3.913965667936339377e-01,-1.038383703285892558e-02
2.360000000000000153e-01,7.008064820609225531e-01,2.414552158149574801e+00,-1.914101228435106883e+00,-5.987808487815372560e-01,-1.114688572822557511e+00,1.472164841111670119e+00,3.807945239191773412e-01,1.221928169255786623e+00,-2.009280576387147299e+00,2.715118226475911056e-01,-2.511118988868531243e+00,-6.857503162255662588e-01,1.599999330571535427e+00,-7.125162421530822243e+00,-3.335410656098467541e+00,-8.330281195269454431e-01,3.968808816425045682e-01,-1.072451937126268039e-02
2.380000000000000171e-01,7.015671714261786374e-01,2.416953283376107375e+00,-1.918159480748069967e+00,-5.981679024250369237e-01,-1.119766974379738267e+00,1.470797745455343586e+00,3.810465782023354508e-01,1.235950473931108462e+00,-1.995873081203624722e+00,2.482824401316468532e-01,-2.492180343413476606e+00,-6.871367994987753747e-01,1.592083302161241276e+00,-6.988519297711283329e+00,-3.263173392036140541e+00,-8.092585233909050935e-01,4.022297280493699057e-01,-1.106431851768072995e-02
2.399999999999999911e-01,7.023285177786861011e-01,2.419382279981011408e+00,-1.922192467092025625e+00,-5.976000874233037274e-01,-1.124809583180251371e+00,1.469427696803043748e+00,3.812486412581636008e-01,1.250038524851917687e+00,-1.981949953820701049e+00,2.246280913214264430e-01,-2.472570385998437814e+00,-6.884362602695104361e-01,1.583623628291667806e+00,-6.855683641803889117e+00,-3.192765765612529449e+00,-7.861882276250771184e-01,4.075419761790484152e-01,-1.140198415904775456e-02
2.419999999999999929e-01,7.030904211350398336e-01,2.421839257098865605e+00,-1.926199178560348724e+00,-5.970782760666791811e-01,-1.129815031207241693e+00,1.468054800026796780e+00,3.814007134477954697e-01,1.264200819968411160e+00,-1.967502696341378643e+00,2.005572741062455755e-01,-2.452298768146019547e+00,-6.896224067937467561e-01,1.574880010146188836e+00,-6.734276174573459173e+00,-3.127862340988656786e+00,-7.649001558216539376e-01,4.129241285432171393e-01,-1.173618974019184288e-02
2.439999999999999947e-01,7.038527815118438280e-01,2.424324324060290525e+00,-1.930178606050372059e+00,-5.966033404494632819e-01,-1.134781950666507999e+00,1.466679160605163901e+00,3.815027951323466393e-01,1.278445743046904060e+00,-1.952522925052667668e+00,1.760783721913514732e-01,-2.431375011624514304e+00,-6.906693007993291999e-01,1.566108646052077891e+00,-6.631815413409779758e+00,-3.072088244511649524e+00,-7.464626717237262676e-01,4.184811641101091051e-01,-1.206562365632552793e-02
2.459999999999999964e-01,7.046154989266391055e-01,2.426837612264392430e+00,-1.934129718391081942e+00,-5.961761305976296388e-01,-1.139708998828068864e+00,1.465300952294226633e+00,3.815548866708767806e-01,1.292768824176037112e+00,-1.937015109933641011e+00,1.511869155830056211e-01,-2.409794031760790656e+00,-6.915907943371208955e-01,1.557171417878554953e+00,-6.544314843324825048e+00,-3.023503388567911010e+00,-7.303051370816457943e-01,4.241465565855885300e-01,-1.239065726721306875e-02
2.479999999999999982e-01,7.053784733987521482e-01,2.429379295109243664e+00,-1.938051442412758840e+00,-5.957974545384843168e-01,-1.144594880662148872e+00,1.463920478790355473e+00,3.815569884185329164e-01,1.307141131358595443e+00,-1.921008183076603038e+00,1.258539721610621442e-01,-2.387522946076838348e+00,-6.924764652014130384e-01,1.547179776116872185e+00,-6.445892496770838420e+00,-2.969576417804630442e+00,-7.127376968370831012e-01,4.295273846500535231e-01,-1.271486481543487694e-02
2.500000000000000000e-01,7.061416049477086121e-01,2.431949550700258200e+00,-1.941942700238372677e+00,-5.954681155920270585e-01,-1.149438306485321748e+00,1.462538058353924475e+00,3.815091007300233095e-01,1.321530990830913188e+00,-1.904533818343377094e+00,1.000478680343787341e-01,-2.364525756453186744e+00,-6.934243787007694504e-01,1.535161061195542187e+00,-6.308212313870530608e+00,-2.896588883391578051e+00,-6.897208869878674875e-01,4.341941438840003498e-01,-1.304217952999240683e-02
2.520000000000000018e-01,7.069047935930392601e-01,2.434548556803597386e+00,-1.945802414330147112e+00,-5.951889174175114539e-01,-1.154237986228592083e+00,1.461154008194949894e+00,3.814112239600335186e-01,1.335906926859125043e+00,-1.887623491565766365e+00,7.373712734193275942e-02,-2.340766689749599561e+00,-6.945319872791495541e-01,1.520144853449322042e+00,-6.103009276200894284e+00,-2.790856713861679328e+00,-6.572255008379802588e-01,4.377182264239629639e-01,-1.337650735116773480e-02
2.540000000000000036e-01,7.076679393550862063e-01,2.437176418632984731e+00,-1.949629579702968130e+00,-5.949607362269205835e-01,-1.158992547365085501e+00,1.459768420893455820e+00,3.812633584582785784e-01,1.350279814385763721e+00,-1.870266327851636490e+00,4.693262496751681584e-02,-2.316258086910773617e+00,-6.957656760836936627e-01,1.501639759827247955e+00,-5.817211299161586524e+00,-2.646047784701937022e+00,-6.134159603993221133e-01,4.398627619867913063e-01,-1.371591825048605433e-02
2.560000000000000053e-01,7.084309422560082226e-01,2.439833079217067713e+00,-1.953423353557302233e+00,-5.947846104179669302e-01,-1.163700433040047111e+00,1.458380886887385097e+00,3.810655045633640770e-01,1.364755199847084821e+00,-1.852356780708861006e+00,1.973990744158726079e-02,-2.291119844006323181e+00,-6.967988399760639551e-01,1.480225212326828910e+00,-5.471708866435682772e+00,-2.472264651057571871e+00,-5.613603663051056625e-01,4.408194940607112478e-01,-1.404543636581601952e-02
2.580000000000000071e-01,7.091937023182105504e-01,2.442518459591509039e+00,-1.957182915086669084e+00,-5.946616003814363394e-01,-1.168360061403077133e+00,1.456990928522083451e+00,3.808176626123889186e-01,1.379451467535769860e+00,-1.833776465774479947e+00,-7.722640828235040680e-03,-2.265486442037364601e+00,-6.972651430914823534e-01,1.456625851367750801e+00,-5.091997930135064188e+00,-2.281838480399931868e+00,-5.047917788254879801e-01,4.408382879807932753e-01,-1.434831676460348107e-02
2.600000000000000089e-01,7.099561195640998745e-01,2.445232481243061251e+00,-1.960907443033496289e+00,-5.945927660570237139e-01,-1.172969851116202777e+00,1.455598069538780237e+00,3.805198329424411829e-01,1.394486938732327319e+00,-1.814407061697791201e+00,-3.533669844661435633e-02,-2.239492303952538954e+00,-6.967984031376445175e-01,1.431566052553311374e+00,-4.703560655851331873e+00,-2.087093789581849990e+00,-4.474412294591145756e-01,4.401689172455759969e-01,-1.460783017899110886e-02
2.620000000000000107e-01,7.107180940167547867e-01,2.447975301873480891e+00,-1.964595879925068900e+00,-5.945789311691916934e-01,-1.177528489174599180e+00,1.454202564637393058e+00,3.801720158849106745e-01,1.409946938199487132e+00,-1.794163243690896969e+00,-6.301694059482303156e-02,-2.213241453343198994e+00,-6.951128565202691068e-01,1.405631519571273191e+00,-4.324659855488549809e+00,-1.896872478643174542e+00,-3.919773772715805515e-01,4.390130648716577544e-01,-1.481545020772200190e-02
2.640000000000000124e-01,7.114795257010276819e-01,2.450747701925157340e+00,-1.968246545547664095e+00,-5.946202967011636753e-01,-1.182035369988103213e+00,1.452806595565969694e+00,3.797742117561653252e-01,1.425829800998905661e+00,-1.773046676785682063e+00,-9.076503231030207119e-02,-2.186757771071053735e+00,-6.921347498501746465e-01,1.379042371214636464e+00,-3.954525744134273602e+00,-1.710835121353180721e+00,-3.382681172902610722e-01,4.374456315079766067e-01,-1.498427591069588852e-02
2.660000000000000142e-01,7.122403146420593911e-01,2.453550563261171824e+00,-1.971857658266804370e+00,-5.947169622153708479e-01,-1.186490003177411934e+00,1.451412657915183813e+00,3.793264208701261908e-01,1.442119694888463366e+00,-1.751073193337138401e+00,-1.185968059595267354e-01,-2.160052085804481159e+00,-6.878248581127111017e-01,1.351959186443570493e+00,-3.589288852920299533e+00,-1.527147003685796589e+00,-2.857252069257458227e-01,4.355208697923398931e-01,-1.513092831045527442e-02
2.680000000000000160e-01,7.130003608649913005e-01,2.456384767732299856e+00,-1.975427436460322816e+00,-5.948690272865536643e-01,-1.190891898371642110e+00,1.450023247306204244e+00,3.788286435407108854e-01,1.458800789548461596e+00,-1.728258623777821468e+00,-1.465280919865417364e-01,-2.133135224900702731e+00,-6.821439610445280133e-01,1.324542521491069991e+00,-3.225080188507180257e+00,-1.343973632654100747e+00,-2.337604743623789838e-01,4.332930228718057108e-01,-1.527202631360786121e-02
2.700000000000000178e-01,7.137595643955033653e-01,2.459251170024144173e+00,-1.978954125671420039e+00,-5.950766186548377412e-01,-1.195240583779885624e+00,1.448640926663006923e+00,3.782808800738713950e-01,1.475861497472590100e+00,-1.704614555689463629e+00,-1.745704779980233601e-01,-2.106015121969860182e+00,-6.750633245797240667e-01,1.296902773324937419e+00,-2.859080257625752353e+00,-1.159968352440541306e+00,-1.819419466676746866e-01,4.307953876475659749e-01,-1.541951892250898772e-02
2.720000000000000195e-01,7.145178252609573066e-01,2.462150540008829935e+00,-1.982436056257390833e+00,-5.953399478744947348e-01,-1.199535645620523949e+00,1.447268469038378802e+00,3.776831307506900992e-01,1.493303477813454405e+00,-1.680139329878007404e+00,-2.027223048668663763e-01,-2.078690675937556964e+00,-6.665869540326615494e-01,1.268993734646779226e+00,-2.491746253532389321e+00,-9.753076033423594415e-01,-1.303253257462218817e-01,4.279958639012372834e-01,-1.557077504297811783e-02
2.740000000000000213e-01,7.152750434890423614e-01,2.465083631052236601e+00,-1.985871575081901597e+00,-5.956592430061761201e-01,-1.203776681401605320e+00,1.445908688380004969e+00,3.770353958474091938e-01,1.511130967765091704e+00,-1.654828709085218508e+00,-2.309793354099634599e-01,-2.051159027414999336e+00,-6.567252263982388261e-01,1.240738720111681292e+00,-2.124173072445105781e+00,-7.904642479406188693e-01,-7.906122392064796056e-02,4.248496239421837850e-01,-1.572032602812117874e-02
2.760000000000000231e-01,7.160311191074476556e-01,2.468051196520329338e+00,-1.989259029008526802e+00,-5.960347321104433327e-01,-1.207963288631117349e+00,1.444564398635350022e+00,3.763376756402707635e-01,1.529348204507432918e+00,-1.628678456066969815e+00,-2.593373324583131967e-01,-2.023417317022932149e+00,-6.454885186367486094e-01,1.212061044524591180e+00,-1.757455607099121853e+00,-6.059111471884387479e-01,-2.830025299533566602e-02,4.213118401425164916e-01,-1.586270324620903116e-02
2.780000000000000249e-01,7.167859521442646598e-01,2.471053995952053217e+00,-1.992596758727758210e+00,-5.964666370748932245e-01,-1.212095060651325218e+00,1.443238398634082431e+00,3.755899704025921770e-01,1.547958459411151066e+00,-1.601685299487722869e+00,-2.877930247021905918e-01,-1.995463338409182441e+00,-6.328848382788673232e-01,1.182894283903590082e+00,-1.392450281829341607e+00,-4.220096959626195576e-01,2.184245968075773994e-02,4.173419812347088920e-01,-1.599347641558174216e-02
2.800000000000000266e-01,7.175394426290769845e-01,2.474092811791532842e+00,-1.995883082024507482e+00,-5.969551568819883025e-01,-1.216171575347344547e+00,1.441933431110422603e+00,3.747922803968373739e-01,1.566961420156801399e+00,-1.573849552070628599e+00,-3.163467247075750777e-01,-1.967297308315666848e+00,-6.189134009520933510e-01,1.153210089080927370e+00,-1.029128670426156855e+00,-2.387076879324439571e-01,7.138345384606788191e-02,4.129154578403914089e-01,-1.611206811149001883e-02
2.820000000000000284e-01,7.182914905918147408e-01,2.477168431794394721e+00,-1.999116311372095556e+00,-5.975004852027010482e-01,-1.220192407019921044e+00,1.440652225790573837e+00,3.739446058829538622e-01,1.586355943400012292e+00,-1.545172357649235328e+00,-3.449995761084118651e-01,-1.938920005377639200e+00,-6.035713835220697376e-01,1.122988940089683085e+00,-6.672571579395322194e-01,-5.585700643370846569e-02,1.203698016311789409e-01,4.080113773593422311e-01,-1.621879435142908193e-02
2.840000000000000302e-01,7.190419960624079287e-01,2.480281643716265361e+00,-2.002294759243840705e+00,-5.981028157080028329e-01,-1.224157129969799751e+00,1.439397512400737211e+00,3.730469471208890941e-01,1.606140885796410345e+00,-1.515654860057092268e+00,-3.737527225386461094e-01,-1.910332208230350659e+00,-5.868559628544387508e-01,1.092211316962935497e+00,-3.066021294194323232e-01,1.266904651977900920e-01,1.688485751666750356e-01,4.026088471913390476e-01,-1.631397115289414182e-02
2.860000000000000320e-01,7.197908590711048493e-01,2.483433233914452920e+00,-2.005416739512020374e+00,-5.987623434675479750e-01,-1.228065319450025283e+00,1.438172024119894976e+00,3.720993043566447334e-01,1.626315321649058010e+00,-1.485297985168781532e+00,-4.026070898294989986e-01,-1.881534547615104858e+00,-5.687648515794018200e-01,1.060854495911981221e+00,5.301567607868461207e-02,3.090579470257320271e-01,2.168587258701003273e-01,3.966856621032515129e-01,-1.639766188520364737e-02
2.880000000000000338e-01,7.205379796495618994e-01,2.486623982569966085e+00,-2.008480572228044991e+00,-5.994792697289043071e-01,-1.231916554919909590e+00,1.436978509377797586e+00,3.711016777746249939e-01,1.646879286599514547e+00,-1.454101696144382228e+00,-4.315626417877982957e-01,-1.852527001032586718e+00,-5.492981287740433816e-01,1.028881602017869934e+00,4.115354404115187381e-01,4.912586919993290335e-01,2.644033363511434920e-01,3.902138190240826421e-01,-1.646881398255277060e-02
2.899999999999999800e-01,7.212832578298229436e-01,2.489854668159094064e+00,-2.011484579148820728e+00,-6.002537974447983427e-01,-1.235710416999728389e+00,1.435819720813540812e+00,3.700540675422329118e-01,1.667833081627187575e+00,-1.422065690426330464e+00,-4.606190766932043434e-01,-1.823309365683342342e+00,-5.284565266755305579e-01,9.962518545256515701e-01,7.688300815029489588e-01,6.732756011802063512e-01,3.114755891140922328e-01,3.831637146287593665e-01,-1.652606687126019491e-02
2.919999999999999818e-01,7.220265936439329568e-01,2.493126069158074554e+00,-2.014427082031308380e+00,-6.010861295680121064e-01,-1.239446486309797146e+00,1.434698411066358315e+00,3.689564738268703570e-01,1.689177007720163104e+00,-1.389189665448371969e+00,-4.897760928166987604e-01,-1.793881438762021441e+00,-5.062407775423847234e-01,9.629244725526726612e-01,1.124772515110378235e+00,8.550915746376471782e-01,3.580686663395536429e-01,3.755057455398878030e-01,-1.656805996757426680e-02
2.939999999999999836e-01,7.227678871241041136e-01,2.496438964348739464e+00,-2.017306402325140358e+00,-6.019764687449482565e-01,-1.243124343264446763e+00,1.433617332031809077e+00,3.678088968201555509e-01,1.710911316680958638e+00,-1.355473368792266653e+00,-5.190334380925322177e-01,-1.764243050144451486e+00,-4.826514961867873765e-01,9.288586690964097947e-01,1.479248438817491795e+00,1.036695807460213503e+00,4.041775711211827438e-01,3.672103278422885753e-01,-1.659347637891941604e-02
2.959999999999999853e-01,7.235070383034316599e-01,2.499794134121672950e+00,-2.020120859862065021e+00,-6.029250160091212951e-01,-1.246743567193638880e+00,1.432579231690491950e+00,3.666113368411850204e-01,1.733036001382575186e+00,-1.320916812035916488e+00,-5.483911218992680858e-01,-1.734394201751253251e+00,-4.576886791435277879e-01,8.940136249372516719e-01,1.832210838078366377e+00,1.218110633853839220e+00,4.498068924567494853e-01,3.582479800764774014e-01,-1.660122921789468700e-02
2.979999999999999871e-01,7.242439472153010538e-01,2.503192359394963429e+00,-2.022868773943332421e+00,-6.039319718651880997e-01,-1.250303737071775778e+00,1.431586856739311298e+00,3.653637942508553560e-01,1.755550969796296323e+00,-1.285520093320265733e+00,-5.778492393417774542e-01,-1.704334951915692065e+00,-4.313521202172690971e-01,8.583485102917627341e-01,2.183634761710007588e+00,1.399369254178632449e+00,4.949643625150031978e-01,3.485892543776911157e-01,-1.659030701466866070e-02
2.999999999999999889e-01,7.249785138930976425e-01,2.506634421087006626e+00,-2.025548463869885296e+00,-6.049975368174966839e-01,-1.253804431873052350e+00,1.430642953874421863e+00,3.640662694100873509e-01,1.778456129843845712e+00,-1.249283310836786232e+00,-6.074078855749722727e-01,-1.674065359003962694e+00,-4.036416130943366043e-01,8.218224953703407998e-01,2.533495271408264582e+00,1.580504875137501264e+00,5.396577152994274096e-01,3.382047029007763661e-01,-1.655969834343271746e-02
3.019999999999999907e-01,7.257106383705141939e-01,2.510121100039765185e+00,-2.028158249024594184e+00,-6.061219114494925675e-01,-1.257245230620331000e+00,1.429750269963827813e+00,3.627187625913089741e-01,1.801751402824226966e+00,-1.212206546452529565e+00,-6.370671409129927687e-01,-1.643585473883710790e+00,-3.745569750168274425e-01,7.843942830172351277e-01,2.881761225738157073e+00,1.761548158848861512e+00,5.838937970394900701e-01,3.270647174249807221e-01,-1.650836396944216009e-02
3.039999999999999925e-01,7.264402206831791498e-01,2.513653176614097262e+00,-2.030696449306024665e+00,-6.073052968424854647e-01,-1.260625712642802876e+00,1.428911552957216058e+00,3.613212735099409767e-01,1.825436794237909943e+00,-1.174289779282690294e+00,-6.668269922567579000e-01,-1.612895300223981865e+00,-3.440981714954385318e-01,7.460196343040760292e-01,3.228362438501859888e+00,1.942513750890326740e+00,6.276738659919292029e-01,3.151386802671682918e-01,-1.643508961838854171e-02
3.059999999999999942e-01,7.271671608674713516e-01,2.517231430984144591e+00,-2.033161384812881334e+00,-6.085478942710078609e-01,-1.263945457388545579e+00,1.428129551224073923e+00,3.598738016652285876e-01,1.849512342264068909e+00,-1.135532948564326627e+00,-6.966873902533865515e-01,-1.581994823375979964e+00,-3.122652255841162905e-01,7.066531685964527743e-01,3.573213570174839315e+00,2.123410080797771382e+00,6.709970117135029000e-01,3.023955819704496895e-01,-1.633859308286552195e-02
3.079999999999999960e-01,7.278913589597715283e-01,2.520856643323636348e+00,-2.035551375644311101e+00,-6.098499050100182339e-01,-1.267204044305899613e+00,1.427407013134817548e+00,3.583763465559399730e-01,1.873978085154029083e+00,-1.095935993446450762e+00,-7.266482854699544136e-01,-1.550884028650465041e+00,-2.790581604638540103e-01,6.662495027392352220e-01,3.916229247776234157e+00,2.304245564382960687e+00,7.138623189727972829e-01,2.888044122129563296e-01,-1.621759200548043151e-02
3.099999999999999978e-01,7.286127149961026950e-01,2.524529593831254193e+00,-2.037864741858068207e+00,-6.112115303016887324e-01,-1.270401052833172839e+00,1.426746687044310402e+00,3.568289079375424611e-01,1.898834050556423403e+00,-1.055498872577245173e+00,-7.567096434936406713e-01,-1.519562903560945477e+00,-2.444770021199225707e-01,6.247628160111305951e-01,4.257334468617793632e+00,2.485033697304650513e+00,7.562700921042341262e-01,2.743339550589576903e-01,-1.607081983362416630e-02
3.119999999999999996e-01,7.293311290097770350e-01,2.528251062894462553e+00,-2.040099803198705875e+00,-6.126329711401182765e-01,-1.273536062332764285e+00,1.426151321189742305e+00,3.552314875077199341e-01,1.924080185898594753e+00,-1.014221692138031150e+00,-7.868715435555935223e-01,-1.488031452287189804e+00,-2.085217977551029889e-01,5.821439770108098877e-01,4.596532692935634046e+00,2.665826409976078892e+00,7.982298628291120135e-01,2.589514388726533167e-01,-1.589712959564674316e-02
3.140000000000000013e-01,7.300465010328663906e-01,2.532021830987083888e+00,-2.042254879267506151e+00,-6.141144284059268932e-01,-1.276608652132346755e+00,1.425623663754473913e+00,3.535840878526099740e-01,1.949716401911212094e+00,-9.721046257981433847e-01,-8.171341168726087290e-01,-1.456289686632830316e+00,-1.711926042779797208e-01,5.383423398892625000e-01,4.933863273287864004e+00,2.846693214523050575e+00,8.397553838730263953e-01,2.426233803740075468e-01,-1.569542902138076207e-02
3.160000000000000031e-01,7.307587310974366090e-01,2.535842678583385634e+00,-2.044328289665011678e+00,-6.156561029791487449e-01,-1.279618401559416307e+00,1.425166462921589439e+00,3.518867115629401576e-01,1.975742609135355599e+00,-9.291478475755881039e-01,-8.474974949300607685e-01,-1.424337618440889131e+00,-1.324894786472812780e-01,4.933072509732370214e-01,5.269365747666658883e+00,3.027703713905520289e+00,8.808604297689667240e-01,2.253162926063462801e-01,-1.546462612326850866e-02
3.180000000000000049e-01,7.314677192370039327e-01,2.539714386112106759e+00,-2.046318354086254843e+00,-6.172581958087814957e-01,-1.282564889948218712e+00,1.424782466843425688e+00,3.501393604596807485e-01,2.002158743167831823e+00,-8.853514800086010883e-01,-8.779617710372347172e-01,-1.392175257217529660e+00,-9.241245406009844510e-02,4.469884105088711146e-01,5.603049385028001872e+00,3.208913878355668547e+00,9.215550394178101401e-01,2.069969518471294900e-01,-1.520356024337883409e-02
3.200000000000000067e-01,7.321733654983763051e-01,2.543637733584702687e+00,-2.048223393092256650e+00,-6.189209084758839907e-01,-1.285447696694884234e+00,1.424474423390540201e+00,3.483420293089451447e-01,2.028964969242184946e+00,-8.407151738213053394e-01,-9.085266886180581869e-01,-1.359802591051520126e+00,-5.096134593717685513e-02,3.993387624274542524e-01,5.934646037418454867e+00,3.390254733618477179e+00,9.618150145049335631e-01,1.876345469250263465e-01,-1.491044135710214123e-02
3.220000000000000084e-01,7.328755699354990716e-01,2.547613500788525442e+00,-2.050041727709110084e+00,-6.206444429009548847e-01,-1.288266401228773672e+00,1.424245080282158904e+00,3.464947090881129177e-01,2.056161575915827822e+00,-7.952383263552639248e-01,-9.391918031943895517e-01,-1.327219596529650936e+00,-8.135852744881136647e-03,3.503129926455582077e-01,6.263738573197551673e+00,3.571590205382135341e+00,1.001597769997291110e+00,1.671995623026852618e-01,-1.458314144540575480e-02
3.240000000000000102e-01,7.335742326023868554e-01,2.551642467508786538e+00,-2.051771678967361012e+00,-6.224290010077446755e-01,-1.291020582979568232e+00,1.424097185236060437e+00,3.445973907382771095e-01,2.083748852927330031e+00,-7.489203325252316024e-01,-9.699566684884279866e-01,-1.294426250128553058e+00,3.606432817057193818e-02,2.998658037638793905e-01,6.589908433811316080e+00,3.752783576674017407e+00,1.040860544760296325e+00,1.456624948518826512e-01,-1.421952925206493995e-02
3.260000000000000120e-01,7.342692535490815686e-01,2.555725413644926114e+00,-2.053411567640709645e+00,-6.242747845375887783e-01,-1.293709821365926382e+00,1.424033486097375345e+00,3.426500674393767598e-01,2.111727018143526813e+00,-7.017607361436615232e-01,-1.000820948340406469e+00,-1.261422534198382017e+00,8.163942699392760793e-02,2.479502378009761643e-01,6.912823869913428787e+00,3.933738342009074351e+00,1.079571100044347309e+00,1.229928179391592824e-01,-1.381764927309023921e-02
3.280000000000000138e-01,7.349605327810674327e-01,2.559863120377896095e+00,-2.054959711621477947e+00,-6.261819931854428756e-01,-1.296333695682867049e+00,1.424056732139906467e+00,3.406527574873847164e-01,2.140095483153144684e+00,-6.537607514009845522e-01,-1.031785541926905081e+00,-1.228208496980234710e+00,1.285888609310428254e-01,1.945007078787750476e-01,7.233126983266297216e+00,4.114809100143550502e+00,1.117815240295496837e+00,9.914852294964617008e-02,-1.337751764452672562e-02
3.300000000000000155e-01,7.356479702758291772e-01,2.564056369693886950e+00,-2.056414426991460154e+00,-6.281508253604120018e-01,-1.298891785147718192e+00,1.424169673535166103e+00,3.386054949600236785e-01,2.168853152917165961e+00,-6.049226420756151912e-01,-1.062852124652521546e+00,-1.194784228118013436e+00,1.769115363495786242e-01,1.394399215852883678e-01,7.552071798464119468e+00,4.296633902799234406e+00,1.155752942824531004e+00,7.408038652433528160e-02,-1.290038938949613322e-02
3.320000000000000173e-01,7.363314660104181009e-01,2.568305943591572493e+00,-2.057774029804378735e+00,-6.301814794516642504e-01,-1.301383668976602292e+00,1.424375060468586973e+00,3.365083141797136079e-01,2.197998924541263221e+00,-5.552486882199271223e-01,-1.094022383957339528e+00,-1.161149817897576320e+00,2.266063516966025648e-01,8.269040501314364744e-02,7.870921828021144151e+00,4.479855196662340333e+00,1.193545334999358554e+00,4.773907343894404770e-02,-1.238753874017880889e-02
3.340000000000000191e-01,7.370109199733737571e-01,2.572612623737053017e+00,-2.059036836853199937e+00,-6.322741543754301086e-01,-1.303808926417863390e+00,1.424675642771477735e+00,3.343612430828135085e-01,2.227531899520884373e+00,-5.047407459030763821e-01,-1.125297693856132542e+00,-1.127305340038792680e+00,2.776724129150169307e-01,2.417913389662160184e-02,8.190692026196757070e+00,4.665001341761566778e+00,1.231323273410498853e+00,2.007801357768971423e-02,-1.183972110543981236e-02
3.360000000000000209e-01,7.376862323131745391e-01,2.576977187166319183e+00,-2.060201175222569070e+00,-6.344290563856661569e-01,-1.306167137168404491e+00,1.425074165345058708e+00,3.321642206993583590e-01,2.257454024852469043e+00,-4.533947685276868977e-01,-1.156675064877042525e+00,-1.093250637630919897e+00,3.301117146911166644e-01,-3.610496841091569847e-02,8.508936935538054414e+00,4.851012391166781512e+00,1.268796186872233500e+00,-8.910867516141118827e-03,-1.125046886999733417e-02
3.380000000000000226e-01,7.383573032955766946e-01,2.581400407520264118e+00,-2.061265379543659737e+00,-6.366463971168279112e-01,-1.308457881254041721e+00,1.425573369475488850e+00,3.299171208674778200e-01,2.287769334039054581e+00,-4.012023812769646147e-01,-1.188148307955712690e+00,-1.058985384649836714e+00,3.839283699259352090e-01,-9.812755452844401649e-02,8.820673699420503056e+00,5.035663747872457741e+00,1.305364485914537021e+00,-3.920741677561569161e-02,-1.060801802698072005e-02
3.400000000000000244e-01,7.390240331890342018e-01,2.585883058361684750e+00,-2.062227784621240012e+00,-6.389263883271383282e-01,-1.310680738708158044e+00,1.426175996365770082e+00,3.276198159256958342e-01,2.318481908579471451e+00,-3.481551097723322163e-01,-1.219711160427743968e+00,-1.024509251181314973e+00,4.391265402456787093e-01,-1.618532321886344827e-01,9.120861093571878797e+00,5.216704024494143610e+00,1.340421472737502784e+00,-7.079083181769285638e-02,-9.900482736927191524e-03
3.420000000000000262e-01,7.396863222302109131e-01,2.590425914168433597e+00,-2.063086723216135177e+00,-6.412692403199345970e-01,-1.312835289476364187e+00,1.426884788214042965e+00,3.252721959391103312e-01,2.349595262270422147e+00,-2.942456569649794518e-01,-1.251358230032816321e+00,-9.898219532783790742e-01,4.957098114770946973e-01,-2.272590029097041053e-01,9.405146762374197777e+00,5.392198960611436220e+00,1.373444239601725014e+00,-1.036480718032136428e-01,-9.117403662546458287e-03
3.440000000000000280e-01,7.403440700965495669e-01,2.595029765514950348e+00,-2.063840492134582316e+00,-6.436751378059374362e-01,-1.314921111960296374e+00,1.427702504723735277e+00,3.228744627975813075e-01,2.381102922569381164e+00,-2.394874359882515624e-01,-1.283099435621859241e+00,-9.549240155951519426e-01,5.536716406690805892e-01,-2.945398849146077525e-01,9.681296106599747375e+00,5.565792815412090810e+00,1.405383813653365843e+00,-1.379026277229940256e-01,-8.273414792699483947e-03
3.460000000000000298e-01,7.409971759878291042e-01,2.599695416724776553e+00,-2.064487357471755047e+00,-6.461442436356135133e-01,-1.316937783242787319e+00,1.428631920550636591e+00,3.204270847400009781e-01,2.412989886976914189e+00,-1.839115498373504187e-01,-1.314957774223526332e+00,-9.198166534625289437e-01,6.129968332478883397e-01,-3.640771181292474790e-01,9.967425060635219936e+00,5.745894810578840328e+00,1.438450202008739520e+00,-1.737946109429491792e-01,-7.404583895526273968e-03
3.480000000000000315e-01,7.416455390884746368e-01,2.604423672563352721e+00,-2.065025584335766329e+00,-6.486767199568352904e-01,-1.318884880364281420e+00,1.429675810831108063e+00,3.179305385657845151e-01,2.445240878838677467e+00,-1.275496700639761893e-01,-1.346956663202307780e+00,-8.845011044099259090e-01,6.736699165744955975e-01,-4.362579276907251891e-01,1.028198222755592361e+01,5.941067314857506609e+00,1.474893875709138769e+00,-2.115678810364484685e-01,-6.547667626089023578e-03
3.500000000000000333e-01,7.422890586684153247e-01,2.609215335329203800e+00,-2.065453443335732775e+00,-6.512727328353277167e-01,-1.320761980602195296e+00,1.430836948037032874e+00,3.153852534307949318e-01,2.477842146741759954e+00,-7.043030453668892854e-02,-1.379117181138050929e+00,-8.489784824640076444e-01,7.356769661583603126e-01,-5.114360981622469993e-01,1.064156362951429990e+01,6.159020660808614878e+00,1.516739899277364634e+00,-2.514454742787655683e-01,-5.735578624338038591e-03
3.519999999999999796e-01,7.429276359432741561e-01,2.614071151183689157e+00,-2.065769330261717940e+00,-6.539325374915627709e-01,-1.322568666626482647e+00,1.432118044007340885e+00,3.127905743130302008e-01,2.510814647705327918e+00,-1.250996827159435790e-02,-1.411407185168882084e+00,-8.132470912197541368e-01,7.990392872143650127e-01,-5.892044395732100037e-01,1.102060791096547732e+01,6.388076224304201745e+00,1.560883980878194688e+00,-2.931765714542240997e-01,-4.913755026440582915e-03
3.539999999999999813e-01,7.435611740628508270e-01,2.618991810483348726e+00,-2.065971765343630473e+00,-6.566564777729388958e-01,-1.324304526467707133e+00,1.433521750306974596e+00,3.101447684312603759e-01,2.544213841696973510e+00,4.632639034977965864e-02,-1.443741626077076567e+00,-7.773024404790018771e-01,8.638132060930848732e-01,-6.683992926019335368e-01,1.135164592217004831e+01,6.597281212590789146e+00,1.599122839547010733e+00,-3.360393032136436697e-01,-3.940678338383135290e-03
3.559999999999999831e-01,7.441895762601431485e-01,2.623978001184276820e+00,-2.066059274164158133e+00,-6.594449013391410208e-01,-1.325969148387018848e+00,1.435050715908189556e+00,3.074460566444449650e-01,2.578096672828531943e+00,1.061969013845215498e-01,-1.476033178878132013e+00,-7.411399198685840739e-01,9.300565555791605599e-01,-7.478244583993386430e-01,1.156540584971796903e+01,6.754853754595909088e+00,1.623033861313550208e+00,-3.792915379874339799e-01,-2.671089626905599236e-03
3.579999999999999849e-01,7.448127455474836678e-01,2.629030417602017611e+00,-2.066030368114966098e+00,-6.622981457452939980e-01,-1.327562120034857074e+00,1.436707596671292331e+00,3.046927827892123575e-01,2.612516147303964420e+00,1.672115277991166604e-01,-1.508200556433951567e+00,-7.047552378644137416e-01,9.978231734239557671e-01,-8.263698278514939322e-01,1.159739634370695072e+01,6.831211278990803493e+00,1.624776037853695954e+00,-4.222448983754455432e-01,-9.696441614123333438e-04
3.599999999999999867e-01,7.454305782358171539e-01,2.634149947182592655e+00,-2.065883127619914550e+00,-6.652162416806378653e-01,-1.329083010514980012e+00,1.438495257640126868e+00,3.018870254170859524e-01,2.647405680808844863e+00,2.292322057828485304e-01,-1.540345835261589080e+00,-6.681537860858566269e-01,1.067045572016251942e+00,-9.055397552552635343e-01,1.152830418617459607e+01,6.863561856787038451e+00,1.614171171383793180e+00,-4.658434699992812233e-01,9.979178792126734438e-04
3.619999999999999885e-01,7.460429628834120974e-01,2.639337700800044928e+00,-2.065615134526519459e+00,-6.681988648286147914e-01,-1.330531367474931947e+00,1.440416805857966942e+00,2.990351836818753717e-01,2.682560337619962709e+00,2.918339352820241706e-01,-1.572783220902635337e+00,-6.313521583492105460e-01,1.137515905336315303e+00,-9.898632050603231036e-01,1.160676926571889389e+01,6.966382054742247476e+00,1.621474746942929146e+00,-5.129198958836777011e-01,2.717538389619121066e-03
3.639999999999999902e-01,7.466497876162133673e-01,2.644594801787740757e+00,-2.065223942879493624e+00,-6.712456710759867606e-01,-1.331906737365763149e+00,1.442475361863033712e+00,2.961438976731162742e-01,2.717767466932971221e+00,3.545757154200154249e-01,-1.605838748143134653e+00,-5.943675731543873741e-01,1.209018500364173798e+00,-1.084037807239393025e+00,1.209079727252345826e+01,7.258457269708357806e+00,1.678081721312634222e+00,-5.664121332942512188e-01,3.655735529732105638e-03
3.659999999999999920e-01,7.472509411010460623e-01,2.649922357881414392e+00,-2.064707141516824329e+00,-6.743563410866777463e-01,-1.333208668136367514e+00,1.444674029323207431e+00,2.932195060556564425e-01,2.752824067381749451e+00,4.170365606827640126e-01,-1.639823655287123039e+00,-5.572164676536299766e-01,1.281347479078430052e+00,-1.192586147774818528e+00,1.322219921536148846e+01,7.851191513623237306e+00,1.813424616575636916e+00,-6.291154896219899317e-01,3.317545301322004977e-03
3.679999999999999938e-01,7.478463348664323718e-01,2.655320817541996004e+00,-2.064063789904921453e+00,-6.775316027959266130e-01,-1.334436771045820036e+00,1.447015198837389605e+00,2.902556069943995065e-01,2.787934996252584341e+00,4.796414870143054232e-01,-1.674423768767583365e+00,-5.198822533037487092e-01,1.354710974597739259e+00,-1.312632122239468346e+00,1.455827569062963178e+01,8.543995329495855273e+00,1.973988538258743652e+00,-6.977958035679510118e-01,2.836060667403790710e-03
3.699999999999999956e-01,7.484359112464999964e-01,2.660789740872905540e+00,-2.063294929147898582e+00,-6.807735953127919126e-01,-1.335590742662199348e+00,1.449500300160560418e+00,2.872286311259177327e-01,2.823854690911119736e+00,5.439554777118921214e-01,-1.708482187019225274e+00,-4.823038402025440208e-01,1.429874990454584660e+00,-1.431330062392011770e+00,1.473396538200970340e+01,8.715875293422993053e+00,1.994488870923309287e+00,-7.610943445455017331e-01,5.538143605504033777e-03
3.719999999999999973e-01,7.490196147494698753e-01,2.666328625282127884e+00,-2.062401740203075207e+00,-6.840845573392987378e-01,-1.336670285574230066e+00,1.452130695236568458e+00,2.841137974960894486e-01,2.861376375093237279e+00,6.116239687628940436e-01,-1.740782533322223324e+00,-4.444169977841508912e-01,1.507644901638365287e+00,-1.535130702448713524e+00,1.231911169047202925e+01,7.716168158081879724e+00,1.701752900668973112e+00,-8.070789940956347719e-01,1.490548036791045777e-02
3.739999999999999991e-01,7.495973886458430213e-01,2.671937003851593939e+00,-2.061385324427345456e+00,-6.874666708975383234e-01,-1.337675098944452801e+00,1.454907784637257340e+00,2.808870149198366417e-01,2.901256778473952025e+00,6.842321810933340576e-01,-1.770156703360124872e+00,-4.061601323192728930e-01,1.588820202911410018e+00,-1.610496497646649150e+00,5.907158574475920076e+00,4.904723099976957990e+00,9.254400345857003440e-01,-8.239083138461887890e-01,3.435943954079832829e-02
3.760000000000000009e-01,7.501690990186646868e-01,2.677616634385009853e+00,-2.060241819084609904e+00,-6.909185832989119813e-01,-1.338604668269546938e+00,1.457835377878463401e+00,2.775672080353080440e-01,2.941976764501199160e+00,7.596101650281723572e-01,-1.798446987656723506e+00,-3.676360901861239205e-01,1.673833682512397614e+00,-1.644620857103575418e+00,-4.436656777242058425e+00,2.969718694538585058e-01,-3.281717593048932291e-01,-8.053959156501259153e-01,6.355982040454012660e-02
3.780000000000000027e-01,7.507344905979571603e-01,2.683372772362126568e+00,-2.058959556962115744e+00,-6.944333846327720439e-01,-1.339458143123753109e+00,1.460921071783630065e+00,2.742409303482767347e-01,2.978439111995998534e+00,8.296841448944868302e-01,-1.832228576838067280e+00,-3.292062481693768805e-01,1.762541597880765476e+00,-1.625846385268824967e+00,-1.633316471866657693e+01,-5.060956151959106641e+00,-1.775127314655838617e+00,-7.542462011767145924e-01,9.625253628872090794e-02
3.800000000000000044e-01,7.512932974720279988e-01,2.689210979981659033e+00,-2.057526186455254980e+00,-6.980036776633530282e-01,-1.340234643623530175e+00,1.464172795293598561e+00,2.710006658898065912e-01,3.005232829608191381e+00,8.858626254327311988e-01,-1.878491700029874867e+00,-2.912546541580381954e-01,1.854749649192380279e+00,-1.542616462077361916e+00,-2.720028173814831263e+01,-1.003254742308143577e+01,-3.107121336172637083e+00,-6.739432251592051282e-01,1.256648987567341724e-01
3.820000000000000062e-01,7.518452563033499736e-01,2.695136680051396283e+00,-2.055929586707021084e+00,-7.016222482334899535e-01,-1.340933300850944532e+00,1.467598471807678662e+00,2.679386752899893254e-01,3.016989876241145119e+00,9.195964278575603501e-01,-1.944178859449579910e+00,-2.541641711545255533e-01,1.950260978873113560e+00,-1.383521666844214515e+00,-3.447034276365828731e+01,-1.348753068226622176e+01,-4.017557101562434063e+00,-5.679893777691868983e-01,1.450629247263776067e-01
3.840000000000000080e-01,7.523903615124047928e-01,2.701141337802798859e+00,-2.054180742218008948e+00,-7.053002143226330123e-01,-1.341554343903030855e+00,1.471205469837172153e+00,2.651248494583796078e-01,3.012642931430173476e+00,9.265736320430107975e-01,-2.031453537813942223e+00,-2.181990163843828268e-01,2.048622615187216667e+00,-1.151892035788447011e+00,-3.701943859573923135e+01,-1.492069035850756187e+01,-4.370921748492024861e+00,-4.417230243235929499e-01,1.515882989541584291e-01
3.860000000000000098e-01,7.529290815568203676e-01,2.707190749392281326e+00,-2.052333130049436072e+00,-7.090824081439586202e-01,-1.342100021212265792e+00,1.475000137410917178e+00,2.625879396380324526e-01,2.999034036484171661e+00,9.102749681032585860e-01,-2.133690227019646724e+00,-1.834052082054485333e-01,2.148910572414786113e+00,-8.781646197383189412e-01,-3.637884005850712299e+01,-1.497633720650346589e+01,-4.346339020408035658e+00,-3.038590320967203273e-01,1.495103626230247507e-01
3.880000000000000115e-01,7.534619358247510723e-01,2.713247953092181142e+00,-2.050444792661011650e+00,-7.130172841661494010e-01,-1.342572798168421899e+00,1.478988712917168824e+00,2.603522770283882570e-01,2.983855014126943317e+00,8.750184080863367964e-01,-2.243319130249771476e+00,-1.498053217006377891e-01,2.250150259118118168e+00,-5.956888457526549052e-01,-3.436509037881241113e+01,-1.442228702920805183e+01,-4.156737201210905397e+00,-1.634750395564063541e-01,1.438642519492497607e-01
3.900000000000000133e-01,7.539894438121539366e-01,2.719276077857109897e+00,-2.048573713056472734e+00,-7.171532047265964938e-01,-1.342975139101704851e+00,1.483177422882520524e+00,2.584420599660328666e-01,2.974781712631977104e+00,8.251168877434738036e-01,-2.352784843895205924e+00,-1.174212754670014291e-01,2.351368936946836907e+00,-3.377600852034647883e-01,-3.279033989980722197e+01,-1.402447660525229267e+01,-4.014523203678738383e+00,-2.964411021673959978e-02,1.396718860479699287e-01
3.920000000000000151e-01,7.545121447640048551e-01,2.725254865242015434e+00,-2.046766982162887771e+00,-7.215216541085255342e-01,-1.343309314234276242e+00,1.487570320828333292e+00,2.568571468873528940e-01,2.976563530077307007e+00,7.639607150368852295e-01,-2.457168737756329602e+00,-8.615472273103845502e-02,2.451933345133003428e+00,-1.277709414697697499e-01,-3.266198167362574623e+01,-1.420461358545497887e+01,-4.036591006299334872e+00,8.939880414483579452e-02,1.395338682799488472e-01
3.940000000000000169e-01,7.550306205526683412e-01,2.731199914369021542e+00,-2.045048180838894947e+00,-7.261176860575778713e-01,-1.343577174814623687e+00,1.492166769939748283e+00,2.555448596246717163e-01,2.987633250505148830e+00,6.929487464252017670e-01,-2.557243541067388382e+00,-5.564772920642058890e-02,2.551942970339467376e+00,3.226067123894339750e-02,-3.325037553455812400e+01,-1.464140218813058247e+01,-4.133674119742734909e+00,1.872277790726105118e-01,1.408244984443946246e-01
3.960000000000000187e-01,7.555454586021936869e-01,2.737131494359987371e+00,-2.043437828050705285e+00,-7.309316096974273202e-01,-1.343780517525152263e+00,1.496965522544267513e+00,2.544456777745874865e-01,3.005600997966855203e+00,6.132204767111970600e-01,-2.654523211460202425e+00,-2.550855257933547227e-02,2.651592730419162880e+00,1.431006246936469828e-01,-3.359965446133311673e+01,-1.491677972553783249e+01,-4.189656231718558388e+00,2.576524932982041105e-01,1.402374156549312245e-01
3.980000000000000204e-01,7.560572463366297402e-01,2.743069874336772962e+00,-2.041956442764529811e+00,-7.359537341517471409e-01,-1.343921139048268154e+00,1.501965330969390555e+00,2.535000809336985794e-01,3.028076896513780980e+00,5.259154006976443085e-01,-2.750521706566591895e+00,4.654549464029312383e-03,2.751077543225023625e+00,2.055147906653134182e-01,-3.275395143267942899e+01,-1.461268350993546861e+01,-4.088421029936423423e+00,2.944826255532363435e-01,1.344662590251826106e-01
4.000000000000000222e-01,7.565665711800252380e-01,2.749035323421236576e+00,-2.040624543946577774e+00,-7.411743685442107044e-01,-1.344000836066375992e+00,1.507164947542617428e+00,2.526485486986029261e-01,3.052671070197277459e+00,4.321730131873168790e-01,-2.846752984018377397e+00,3.523331923748613398e-02,2.850592326609979299e+00,2.202690409249149495e-01,-2.975739942732581511e+01,-1.331105085358221629e+01,-3.713852202105947686e+00,2.915278545693267276e-01,1.202046676687726773e-01
4.020000000000000240e-01,7.570740205564299163e-01,2.755048110735240030e+00,-2.039462650563061530e+00,-7.465838219984917146e-01,-1.344021405261881963e+00,1.512563124591450148e+00,2.518315606658990680e-01,3.076993643068701267e+00,3.331328089829885264e-01,-2.944731001447379093e+00,6.661949905484744472e-02,2.950331998426965363e+00,1.881292472434241692e-01,-2.365413142400101520e+01,-1.059381906873682055e+01,-2.949833435936753290e+00,2.425978590780951405e-01,9.414628069932548526e-02
4.040000000000000258e-01,7.575801818898919571e-01,2.761128505400640698e+00,-2.038491281580190773e+00,-7.521724036382635425e-01,-1.343984643317190475e+00,1.518158614443388066e+00,2.509895964321849360e-01,3.098654739179402817e+00,2.299342828874322842e-01,-3.045969716485416257e+00,9.920483122992558578e-02,3.050491476528912838e+00,1.098612813918133368e-01,-1.348828040143374984e+01,-6.042925467658008643e+00,-1.680248419138456795e+00,1.415023178111611268e-01,5.298473723046495665e-02
4.060000000000000275e-01,7.580839342138399051e-01,2.767347500308592778e+00,-2.037825378266951315e+00,-7.580219916491515164e-01,-1.343895172081421174e+00,1.524046756489683574e+00,2.502811228167434732e-01,3.107815742615817722e+00,1.406290429739452397e-01,-3.137876303785815502e+00,1.323455112881126994e-01,3.134604693005530685e+00,-6.887409482345739908e-01,-3.299999932020792670e+01,-8.971751370000236037e+00,-2.735119397198069624e+00,-1.413623704698865113e+00,-4.647091217816655406e-02
4.080000000000000293e-01,7.585739708455759844e-01,2.774012272624772457e+00,-2.038064141264273488e+00,-7.647423031545510508e-01,-1.343780183586023469e+00,1.530844652026756680e+00,2.515185436151238241e-01,3.039426862681704922e+00,2.170877413110595400e-01,-3.085109355455939006e+00,1.567836017599467946e-01,3.055425546882033050e+00,-8.087915494272553962e-01,-3.299999864183840970e+01,-8.735052036166397471e+00,-2.656980395062393807e+00,-1.442639823062735749e+00,-6.011152246419508571e-02
4.100000000000000311e-01,7.590683756248605141e-01,2.780530266133012685e+00,-2.038136141517209232e+00,-7.713293015966444788e-01,-1.343614778634833584e+00,1.537471943908492955e+00,2.526287102748547286e-01,2.964263179357522926e+00,3.048615114911000790e-01,-3.009639948510664631e+00,1.816206564446512239e-01,2.966238905068469656e+00,-9.326273918192067303e-01,-3.299999829930328588e+01,-8.612204451544577921e+00,-2.616114623724343335e+00,-1.448675041158587584e+00,-6.836681564430636959e-02
