prominentjohnson/z1_sdk/examples/nominal_trajectory.csv
t,q0,q1,q2,q3,q4,q5,qdot0,qdot1,qdot2,qdot3,qdot4,qdot5,tau0,tau1,tau2,tau3,tau4,tau5
0.000000000000000000e+00,1.168251025037239143e-08,2.062630960228924337e+00,-1.286620325453555314e+00,-7.760106225370887456e-01,-1.099681652913384732e-08,1.570799990142405678e+00,0.000000000000000000e+00,0.000000000000000000e+00,0.000000000000000000e+00,0.000000000000000000e+00,0.000000000000000000e+00,0.000000000000000000e+00,8.399704830206408346e+00,1.536796427440558155e+01,9.104406855364223006e+00,2.142780030771941568e+00,-2.621112136730765485e+00,-5.681470648092172039e-03
2.000000000000000042e-03,-7.056000491337978539e-04,2.062346753221748763e+00,-1.287459482784771403e+00,-7.739376507563018315e-01,3.641472191205512125e-03,1.570873809099718299e+00,2.393787729427117039e-01,9.961390009340151397e-02,2.833642042090495639e-01,-7.032170232798705678e-01,-1.232543591781588344e+00,-2.498114813253723976e-02,7.797322171353163078e+00,1.474040996305982354e+01,8.073076335067828069e+00,2.781210983548638271e+00,-9.705785198177833140e-01,-4.246708977002851097e-03
4.000000000000000083e-03,-8.520171640092570739e-04,2.062276740864243507e+00,-1.287634048015329657e+00,-7.735186080857379132e-01,4.373589964388163720e-03,1.570887953511034274e+00,4.107977677825947471e-01,1.853790762262342295e-01,4.879222105173432467e-01,-1.189918455689457977e+00,-2.081496261239992318e+00,-4.113061826103626972e-02,7.273339465679129034e+00,1.408696948294470452e+01,7.139156877432085935e+00,3.130534073975922205e+00,1.483831942640987944e-01,-3.210582950211644197e-03
6.000000000000000125e-03,-5.291042188579643795e-04,2.062403211055871655e+00,-1.287250162080335381e+00,-7.744708887840396905e-01,2.699467580190997775e-03,1.570853789425040281e+00,5.258266892997044417e-01,2.598039970274396149e-01,6.266044197886916356e-01,-1.497893417995427745e+00,-2.613192972972925077e+00,-5.003038818283955108e-02,6.815577046334775346e+00,1.340759156448465461e+01,6.289829353911016163e+00,3.241780348724140115e+00,8.279479807958698423e-01,-2.502419062711586008e-03
8.000000000000000167e-03,1.732742295782408663e-04,2.062708451696096290e+00,-1.286413965914894320e+00,-7.765118871098501963e-01,-8.777697039264054785e-04,1.570782682890424553e+00,5.960352422740966549e-01,3.253971311259590271e-01,7.123412328869057619e-01,-1.664931030964444059e+00,-2.893968691578100660e+00,-5.326243569528952421e-02,6.411855246470577363e+00,1.270222493810411102e+01,5.512274635958648972e+00,3.165980854463639194e+00,1.160290815058518055e+00,-2.051543809495714240e-03
1.000000000000000021e-02,1.165253624557521794e-03,2.063174750684381387e+00,-1.285231600454112444e+00,-7.793589973218126854e-01,-5.854996630504469279e-03,1.570685999955875323e+00,6.329931314858270319e-01,3.846669471507342397e-01,7.580630506757969345e-01,-1.728820415363173879e+00,-2.990158381653233999e+00,-5.240873859572874743e-02,6.049994399237011322e+00,1.197081833422751806e+01,4.793673595029014578e+00,2.954166637864768408e+00,1.237586672333034210e+00,-1.787283685557065080e-03
1.200000000000000025e-02,2.356969409338039584e-03,2.063784395920188697e+00,-1.283809206633095279e+00,-7.827296136785695246e-01,-1.172908794208361340e-02,1.570575106670078824e+00,6.482700617149510514e-01,4.401219137307065821e-01,7.767002740191757404e-01,-1.727350691958280837e+00,-2.968097007796037357e+00,-4.905127468149961256e-02,5.717814837784542803e+00,1.121332048327930409e+01,4.121207102576134318e+00,2.657368745597873172e+00,1.152010527900406034e+00,-1.638965185888673634e-03
1.400000000000000029e-02,3.658557027177957582e-03,2.064519675302982638e+00,-1.282252925386948572e+00,-7.863411304387643019e-01,-1.799691838120427018e-02,1.570461369081723291e+00,6.534357377415245249e-01,4.942704994948176611e-01,7.811833037808532110e-01,-1.698310981516431006e+00,-2.894119534604226107e+00,-4.477202174994462242e-02,5.403136895263651596e+00,1.042968011568391340e+01,3.482056030054037965e+00,2.326618224333301566e+00,9.957373570416232500e-01,-1.535914805483577393e-03
1.600000000000000033e-02,4.981494723462840356e-03,2.065363167869905148e+00,-1.280667396923652390e+00,-7.899153277388750727e-01,-2.416306165362815464e-02,1.570355969632118320e+00,6.598830818322105607e-01,5.495787446924630393e-01,7.842493936886449912e-01,-1.678907774514960538e+00,-2.833545875202855502e+00,-4.112774121809029820e-02,5.093975902600523575e+00,9.619907571109651556e+00,2.863609183583872841e+00,2.012172812206207251e+00,8.595316985377611241e-01,-1.408573595753201966e-03
1.800000000000000211e-02,6.284622248489323861e-03,2.066307721273553444e+00,-1.279104329828847586e+00,-7.933286784809088221e-01,-3.000363890831419036e-02,1.570263614810884834e+00,6.727697819586562211e-01,6.070162130146478097e-01,7.918233722862685342e-01,-1.685797811958674952e+00,-2.815894416694615821e+00,-3.878579635873987547e-02,4.785224889172797091e+00,8.786186187350947918e+00,2.260589360317282637e+00,1.737015152056728073e+00,7.844110779249140464e-01,-1.226693738323896433e-03
2.000000000000000042e-02,7.585641502214940379e-03,2.067358945277455451e+00,-1.277549647847048941e+00,-7.966499118883957342e-01,-3.563225774596134876e-02,1.570180962621045229e+00,6.895042095339818378e-01,6.656926069146584801e-01,8.013634032280313457e-01,-1.710098054576862259e+00,-2.826188448596619995e+00,-3.730818255633010228e-02,4.480324672616355919e+00,7.933399962604646305e+00,1.676834238329969695e+00,1.490229666128223496e+00,7.495660972850389792e-01,-1.008884342708803866e-03
2.199999999999999872e-02,8.905931444010117479e-03,2.068523246881400102e+00,-1.275985165209769789e+00,-7.999597672443148344e-01,-4.118360820719381421e-02,1.570104168284741197e+00,7.070106439434222789e-01,7.246014451808938661e-01,8.097987461100855100e-01,-1.741330018657753387e+00,-2.846671696336882107e+00,-3.618784397270323472e-02,4.183250042320668882e+00,7.066601602612426092e+00,1.116750893160898706e+00,1.258783188844991630e+00,7.303250928439061207e-01,-7.768065616713716332e-04
2.400000000000000050e-02,1.026566422838344136e-02,2.069806666513324789e+00,-1.274393931595434237e+00,-8.033349085294512193e-01,-4.678542354015485794e-02,1.570029578758122213e+00,7.223736542864408472e-01,7.827770325872531743e-01,8.142319140760602147e-01,-1.769543330333298137e+00,-2.860505062137079335e+00,-3.494255749252040549e-02,3.897782380234699140e+00,6.190853150606746347e+00,5.845061886289839581e-01,1.030326152640026249e+00,7.032910032363750563e-01,-5.510790904291384615e-04
2.600000000000000228e-02,1.166864411751076733e-02,2.071210272787717077e+00,-1.272775753046827552e+00,-8.067967264077064993e-01,-5.247108202814751432e-02,1.569956141485335799e+00,7.348518187897747911e-01,8.398068541610868021e-01,8.141152578456379851e-01,-1.791950368666787474e+00,-2.863289115544685792e+00,-3.342690617870266306e-02,3.625079883513647072e+00,5.311343294191825493e+00,8.100899739390197973e-02,8.017806286004507399e-01,6.623541974503043273e-01,-3.381817742395543114e-04
2.800000000000000058e-02,1.310688711565440034e-02,2.072731553588083475e+00,-1.271142503644624444e+00,-8.103268033562035511e-01,-5.820600692163661882e-02,1.569884676798172007e+00,7.452694505822374804e-01,8.956767987906604223e-01,8.105934957835499999e-01,-1.810922171955667626e+00,-2.859583551925867884e+00,-3.173804299966071635e-02,3.364411515300471223e+00,4.433351931036518145e+00,-3.951782333916654677e-01,5.767461796684539843e-01,6.138555593915103747e-01,-1.344115706343460069e-04
2.999999999999999889e-02,1.457214939212691206e-02,2.074367917872014466e+00,-1.269506323471315756e+00,-8.139058444061955111e-01,-6.395412361680938296e-02,1.569816046310318569e+00,7.544853744781329086e-01,9.503815369202535113e-01,8.048486491592666825e-01,-1.828943484862877167e+00,-2.854145542306371741e+00,-2.997846761198114801e-02,3.115004596535505765e+00,3.562160969247757158e+00,-8.455447761215683089e-01,3.589695530244084720e-01,5.644104052815622774e-01,6.415901248419585362e-05
3.200000000000000067e-02,1.605697900620488630e-02,2.076116806032524575e+00,-1.267878304879879847e+00,-8.175169064765575033e-01,-6.968377559334107407e-02,1.569751014290713842e+00,7.632573859197798738e-01,1.003902819250312772e+00,7.979436181133050532e-01,-1.848178875948178979e+00,-2.851149729897613838e+00,-2.823748561894481521e-02,2.876176893232212262e+00,2.702924000082032485e+00,-1.271475122647226508e+00,1.517495783486999261e-01,5.198253881571339718e-01,2.608757921066118951e-04
3.400000000000000244e-02,1.755918297278174708e-02,2.077975867225855477e+00,-1.266262582232594580e+00,-8.211586654145188735e-01,-7.539264690350064302e-02,1.569689698540046363e+00,7.716723424573406209e-01,1.056136596228103519e+00,7.901502172077925490e-01,-1.868666618461727325e+00,-2.850902180128215502e+00,-2.651678067647180934e-02,2.647846818775489108e+00,1.859942460264211173e+00,-1.673657915336917545e+00,-4.458954292151143250e-02,4.805368141737961230e-01,4.552216702843809616e-04
3.600000000000000422e-02,1.907871161888111816e-02,2.079942835690682390e+00,-1.264660454129854728e+00,-8.248361626351217168e-01,-8.109037948810537966e-02,1.569631953387824019e+00,7.795436577430561176e-01,1.106943850003605068e+00,7.814178503515395446e-01,-1.889578403985851862e+00,-2.852132301331248954e+00,-2.478232570315476793e-02,2.430177583215381354e+00,1.037170486926330515e+00,-2.052498199824764225e+00,-2.309359330994517068e-01,4.447922793225465576e-01,6.451051998920692438e-04
3.799999999999999906e-02,2.061552153778254542e-02,2.082015445901034045e+00,-1.263073210861679341e+00,-8.285544581364810979e-01,-8.678665022592846334e-02,1.569577632394386413e+00,7.866839465206686421e-01,1.156185462071343872e+00,7.716949780975511652e-01,-1.910083393496452953e+00,-2.853564895236781140e+00,-2.299998942111358344e-02,2.223333109101081284e+00,2.385611663231783364e-01,-2.408400195639824215e+00,-4.081812594223953594e-01,4.108329845434466332e-01,8.284303425182010933e-04
4.000000000000000083e-02,2.216921610733035147e-02,2.084191214919226987e+00,-1.261502311721125036e+00,-8.323171453868479785e-01,-9.248882368317291880e-02,1.569526649584007671e+00,7.929590958166415904e-01,1.203752043403717220e+00,7.609718750841261148e-01,-1.929538480135329692e+00,-2.854229555686524922e+00,-2.114469162070367267e-02,2.027388462553500581e+00,-5.324140386986382367e-01,-2.741860810850123009e+00,-5.770255285267672507e-01,3.773205118437865657e-01,1.003535544356699534e-03
4.200000000000000261e-02,2.373815311697437258e-02,2.086466893121087018e+00,-1.259949811978100742e+00,-8.361226462441814222e-01,-9.819611022490941366e-02,1.569479132202607374e+00,7.984228534655638532e-01,1.249639043802111660e+00,7.493862702626346017e-01,-1.947962580794646348e+00,-2.854230703608262587e+00,-1.922327002232463583e-02,1.842105363999095191e+00,-1.273982075010509973e+00,-3.053703812876144674e+00,-7.374928699601244197e-01,3.443988863134254674e-01,1.170291429779720012e-03
4.399999999999999745e-02,2.532041592883607639e-02,2.088839061966507593e+00,-1.258417898207799590e+00,-8.399682431601963595e-01,-1.039059236872414138e-01,1.569435254472979269e+00,8.031703566886922996e-01,1.293865011099240236e+00,7.371083796350474948e-01,-1.965520469063661402e+00,-2.853909565223596623e+00,-1.724959448661517875e-02,1.667176497718695583e+00,-1.984744082149330069e+00,-3.344824982605469010e+00,-8.894585044132562457e-01,3.125387440611295808e-01,1.328906191786387476e-03
4.599999999999999922e-02,2.691409011259020267e-02,2.091304303352702565e+00,-1.256908753248943578e+00,-8.438512228970873608e-01,-1.096156865056179819e-01,1.569395190298953580e+00,8.072965386666025589e-01,1.336448566427745011e+00,7.243080663760350646e-01,-1.982376364031050775e+00,-2.853606232170243118e+00,-1.523751009326902717e-02,1.502294569271752200e+00,-2.663305912666978248e+00,-3.616119959757745583e+00,-1.032798900852077928e+00,2.822090837266416075e-01,1.479587620920422590e-03
4.800000000000000100e-02,2.851752702895175504e-02,2.093859251830562318e+00,-1.255424110066615029e+00,-8.477693912019805822e-01,-1.153238564830229157e-01,1.569359075181296026e+00,8.108717659318955828e-01,1.377417156285881683e+00,7.111127129937400149e-01,-1.998627722507712923e+00,-2.853524191351835881e+00,-1.319787827797535944e-02,1.347154846179829057e+00,-3.308840869586598732e+00,-3.868467387329785900e+00,-1.167540821485933522e+00,2.536817514745811630e-01,1.622495051798783419e-03
5.000000000000000278e-02,3.012959353437270199e-02,2.096500644071593644e+00,-1.253964829106098078e+00,-8.517215603815891933e-01,-1.210308994944573058e-01,1.569326970138886557e+00,8.139187585566590721e-01,1.416815343769760149e+00,6.975673117002311185e-01,-2.014242517370261165e+00,-2.853601987866560385e+00,-1.113577376606765534e-02,1.201457564832305147e+00,-3.921622813341462788e+00,-4.102712943557212277e+00,-1.294002518885217556e+00,2.268462206839088058e-01,1.757693839859688582e-03
5.200000000000000455e-02,3.174921561350532023e-02,2.099225228460707360e+00,-1.252531670733237235e+00,-8.557066581966505936e-01,-1.267375117440519006e-01,1.569298927647412079e+00,8.164547714863894523e-01,1.454689655277133786e+00,6.837074044064825884e-01,-2.029173869477245873e+00,-2.853747777556183252e+00,-9.055607537780561642e-03,1.064903531555787541e+00,-4.502051840091546353e+00,-4.319698525563875791e+00,-1.412535680039298969e+00,2.015481059525488228e-01,1.885238560976556024e-03
5.399999999999999939e-02,3.337532083570001612e-02,2.102029758952755678e+00,-1.251125391556883182e+00,-8.597236049730788698e-01,-1.324443752179819689e-01,1.569274999715264407e+00,8.184973215303433802e-01,1.491086889506201496e+00,6.695684847929714856e-01,-2.043376174562250291e+00,-2.853871586193077459e+00,-6.961825682634325413e-03,9.371928035948811075e-01,-5.050540829618097582e+00,-4.520265914172885147e+00,-1.523491511202229809e+00,1.776353600244210129e-01,2.005188089847658589e-03
5.600000000000000117e-02,3.500688134511516225e-02,2.104911146175429515e+00,-1.249746642508162031e+00,-8.637711119081212807e-01,-1.381517719760119167e-01,1.569255225206593440e+00,8.200712912708341129e-01,1.526061504494097498e+00,6.551846898999869051e-01,-2.056839688380895925e+00,-2.853936037452051711e+00,-4.859861853415400022e-03,8.180043678175685784e-01,-5.567862242780863724e+00,-4.705253618869348564e+00,-1.627207696378003110e+00,1.550217036320924446e-01,2.117722219653235104e-03
5.800000000000000294e-02,3.664291890578019739e-02,2.107866475161789488e+00,-1.248395956879668756e+00,-8.678476574007711886e-01,-1.438595388870491376e-01,1.569239628353620741e+00,8.212097627356955698e-01,1.559676484515709172e+00,6.405886465804669916e-01,-2.069594585417600552e+00,-2.853962306042842734e+00,-2.756249040500038765e-03,7.069937559291722406e-01,-6.055188819601114325e+00,-4.875496507544003322e+00,-1.724006866846094610e+00,1.336940692451365764e-01,2.223155347843517107e-03
5.999999999999999778e-02,3.828245787907316039e-02,2.110892840074135357e+00,-1.247073861806217820e+00,-8.719517076642135933e-01,-1.495674895165178264e-01,1.569228232622660313e+00,8.219462471521506997e-01,1.591995260151230385e+00,6.258129026367013070e-01,-2.081673129699781910e+00,-2.853974631524916816e+00,-6.575777790119156398e-04,6.038152718762042070e-01,-6.513714252684171591e+00,-5.031829257468589667e+00,-1.814210865952194052e+00,1.136432215962581288e-01,2.321808917719611100e-03
6.199999999999999956e-02,3.992453564428603829e-02,2.113987358993015597e+00,-1.245780871715892912e+00,-8.760817424377034257e-01,-1.552754490051482250e-01,1.569221058945665437e+00,8.223137646047572469e-01,1.623081016335004012e+00,6.108891445862432157e-01,-2.093106842558167813e+00,-2.853995714600940481e+00,1.429678802064269149e-03,5.081239587109107614e-01,-6.944639673047600326e+00,-5.175081799709276176e+00,-1.898142154960284378e+00,9.485747743305461555e-02,2.414003927990872149e-03
6.400000000000000133e-02,4.156834054754827978e-02,2.117147427375424940e+00,-1.244517353678699534e+00,-8.802363983203415065e-01,-1.609833767308002372e-01,1.569218098863989441e+00,8.223396394686853794e-01,1.652994089282519674e+00,5.958390707539891196e-01,-2.103918632378989351e+00,-2.854030410077156965e+00,3.500409115504406286e-03,4.195834307862749690e-01,-7.349252473883959524e+00,-5.306029024282890916e+00,-1.976130361042102379e+00,7.729676457915100884e-02,2.500056221501373299e-03
6.600000000000000311e-02,4.321315815924400144e-02,2.120370619311748861e+00,-1.243283579864464583e+00,-8.844144129306430457e-01,-1.666913185214776993e-01,1.569219324991123043e+00,8.220475280214621927e-01,1.681792980603916465e+00,5.806779469621504708e-01,-2.114125860720287520e+00,-2.854072079812027596e+00,5.550378421511108044e-03,3.378628224644401046e-01,-7.728895602147251687e+00,-5.425410374182980888e+00,-2.048509726290463462e+00,6.090272808811508093e-02,2.580278320662914709e-03
6.800000000000000488e-02,4.485827566237527569e-02,2.123654511855290750e+00,-1.242079820868946971e+00,-8.886145255626904937e-01,-1.723993216390969641e-01,1.569224709626610093e+00,8.214610256994180348e-01,1.709536161479504823e+00,5.654209323397136888e-01,-2.123745797137189584e+00,-2.854113895035306658e+00,7.575366524187656866e-03,2.626313596656277283e-01,-8.084912926238436270e+00,-5.533964704458184336e+00,-2.115614569343947426e+00,4.561670976487218476e-02,2.654982692812676327e-03
7.000000000000000666e-02,4.650300000849297288e-02,2.126996731637343263e+00,-1.240906334711396219e+00,-8.928354893178431784e-01,-1.781074260525681296e-01,1.569234221523267747e+00,8.206033955645475331e-01,1.736281178975043415e+00,5.500826484243640513e-01,-2.132796074493074734e+00,-2.854149962227334303e+00,9.571310318558715405e-03,1.935610522361917996e-01,-8.418634955979300116e+00,-5.632418367815864357e+00,-2.177773826956800107e+00,3.138141324847891489e-02,2.724479850323939002e-03
7.200000000000000844e-02,4.814675332350967785e-02,2.130395194137590487e+00,-1.239763306138546017e+00,-8.970761377406146764e-01,-1.838156292407170100e-01,1.569247808770194874e+00,8.194959642189538762e-01,1.762080196134198973e+00,5.346745846708237382e-01,-2.141296442336602102e+00,-2.854179836770662781e+00,1.153506193357820356e-02,1.303401295699340989e-01,-8.731314372219838305e+00,-5.721424876554675798e+00,-2.235285080263862856e+00,1.814747641627849004e-02,2.789068915673771631e-03
7.399999999999999634e-02,4.978899933081992052e-02,2.133847919158981199e+00,-1.238650893433322020e+00,-9.013353334291409613e-01,-1.895239133362408013e-01,1.569265411993381321e+00,8.181593588742308576e-01,1.786983431455351656e+00,5.192070993205581964e-01,-2.149267414698873502e+00,-2.854205042025857342e+00,1.346380405290267465e-02,7.266267906866108461e-02,-9.024175746348813476e+00,-5.801611435229554914e+00,-2.288434585702412427e+00,5.868402751546932319e-03,2.849044897654598018e-03
7.599999999999999811e-02,5.142920182587960160e-02,2.137352926683906862e+00,-1.237569254834858690e+00,-9.056119390366528243e-01,-1.952322604525155991e-01,1.569286971806555853e+00,8.166142053511983301e-01,1.811041099899695084e+00,5.036905485842669838e-01,-2.156729506227726301e+00,-2.854227103804134913e+00,1.535471994727378477e-02,2.022279955529265177e-02,-9.298443592305710936e+00,-5.873605201186344438e+00,-2.337508579591871527e+00,-5.502300275458231645e-03,2.904702794893368033e-03
7.799999999999999989e-02,5.306685789521670832e-02,2.140908317450163079e+00,-1.236518531784918107e+00,-9.099048506288023308e-01,-2.009406559154163496e-01,1.569312424276962936e+00,8.148801875051709942e-01,1.834301500618321645e+00,4.881342316543575421e-01,-2.163702333932977506e+00,-2.854247078121431080e+00,1.720528825757981425e-02,-2.727800636503701151e-02,-9.555301254041298264e+00,-5.938008789747718730e+00,-2.382783169346732066e+00,-1.601091644346676682e-02,2.956327830761454334e-03
8.000000000000000167e-02,5.470156825103050791e-02,2.144512443564229098e+00,-1.235498813439796839e+00,-9.142130682746391068e-01,-2.066490950504163426e-01,1.569341691319926069e+00,8.129740571198356136e-01,1.856806969388500539e+00,4.725441575248975901e-01,-2.170202720731710500e+00,-2.854264558654122652e+00,1.901390702825543622e-02,-7.011519021170316279e-02,-9.795803925000749146e+00,-5.995348423874437671e+00,-2.424502933971387275e+00,-2.570307974847543114e-02,3.004174801030338928e-03
8.200000000000000344e-02,5.633295371020961145e-02,2.148163705901284803e+00,-1.234510178811751846e+00,-9.185356122211850716e-01,-2.123575751230375452e-01,1.569374692105116154e+00,8.109119971199433285e-01,1.878598685017645931e+00,4.569256968499135763e-01,-2.176246947451722313e+00,-2.854278855366241263e+00,2.077915267963773363e-02,-1.085597323131080594e-01,-1.002098193581228713e+01,-6.046135505444024894e+00,-2.462906335560389071e+00,-3.462429812042237126e-02,3.048492598132746759e-03
8.400000000000000522e-02,5.796063560123265040e-02,2.151860506639921233e+00,-1.233552706743807459e+00,-9.228715032285690345e-01,-2.180660933729518525e-01,1.569411345757236509e+00,8.087101759923958078e-01,1.899717793367727170e+00,4.412842057341604951e-01,-2.181851282873553011e+00,-2.854289280761677094e+00,2.249960562179760190e-02,-1.428824607204347286e-01,-1.023186482347566795e+01,-6.090881000601790163e+00,-2.498231640732061720e+00,-4.282005340379516772e-02,3.089529930771970495e-03
8.600000000000000699e-02,5.958427731666410959e-02,2.155601355128048624e+00,-1.232626462164250203e+00,-9.272198042456352152e-01,-2.237746449143861449e-01,1.569451567703496808e+00,8.063835751114555306e-01,1.920202731451669864e+00,4.256238440084474939e-01,-2.187031005225026359e+00,-2.854295356177275256e+00,2.417417430972716719e-02,-1.733416829081096955e-01,-1.042941687106599247e+01,-6.130060048606251755e+00,-2.530701043607983536e+00,-5.033368263844459345e-02,3.127520401002492883e-03
8.799999999999999489e-02,6.120361499303922370e-02,2.159384946047974374e+00,-1.231731485937769266e+00,-9.315796511807300506e-01,-2.294832211859066662e-01,1.569495266976809189e+00,8.039451229056199244e-01,1.940087251705735039e+00,4.099467027146158626e-01,-2.191799679711178506e+00,-2.854296964097355893e+00,2.580233450636408229e-02,-2.001740537590498970e-01,-1.061448951409533059e+01,-6.164085831111282054e+00,-2.560508943167916218e+00,-5.720481372369445178e-02,3.162671486036300762e-03
8.999999999999999667e-02,6.281839199767813575e-02,2.163209992504333101e+00,-1.230867816537122517e+00,-9.359501871944098106e-01,-2.351918132607174750e-01,1.569542351974491323e+00,8.014075437396135371e-01,1.959404640917064011e+00,3.942546672559114063e-01,-2.196170701261776159e+00,-2.854294022904469319e+00,2.738361836532224314e-02,-2.236140758784092020e-01,-1.078792297097500530e+01,-6.193365371155758581e+00,-2.587846975541475025e+00,-6.347270586855857655e-02,3.195188066263771227e-03
9.199999999999999845e-02,6.442835372118387027e-02,2.167075212892386027e+00,-1.230035492134360808e+00,-9.403305575792193505e-01,-2.409004122044400009e-01,1.569592731019374465e+00,7.987834976668313214e-01,1.978188044999906747e+00,3.785495647155541765e-01,-2.200157399686359483e+00,-2.854286447722096387e+00,2.891757128500555343e-02,-2.438955089352205230e-01,-1.095055403907531577e+01,-6.218303821764583184e+00,-2.612905945398531049e+00,-6.917650532536331887e-02,3.225274183657862552e-03
9.400000000000000022e-02,6.603329187136168510e-02,2.170979446721021500e+00,-1.229234544017729025e+00,-9.447199564334194388e-01,-2.466090089091168280e-01,1.569646310729158056e+00,7.960841725190486162e-01,1.996467384991744920e+00,3.628318871086821384e-01,-2.203771614055479056e+00,-2.854274079066786651e+00,3.040404186492488142e-02,-2.612351052278576446e-01,-1.110314120094119872e+01,-6.239263527408939858e+00,-2.635857623546342676e+00,-7.435277253024247246e-02,3.253114687053116749e-03
9.600000000000000200e-02,6.763304435226226430e-02,2.174921654296468443e+00,-1.228464996609646587e+00,-9.491176265335333762e-01,-2.523175940936653316e-01,1.569702996020866159e+00,7.933192877511140439e-01,2.014269365475021001e+00,3.471007948688670797e-01,-2.207023696593749307e+00,-2.854256683042997622e+00,3.184318111389194267e-02,-2.758326540985849840e-01,-1.124636482881049382e+01,-6.256564135800341653e+00,-2.656854796636269889e+00,-7.903548885596620166e-02,3.278875282268325572e-03
9.800000000000000377e-02,6.922745106702780926e-02,2.178900801152324540e+00,-1.227726874035421245e+00,-9.535228127625813288e-01,-2.580261584695109911e-01,1.569762691737924820e+00,7.904984992754844342e-01,2.031620551843634992e+00,3.313553908069583609e-01,-2.209923935184166410e+00,-2.854234022535079962e+00,3.323515312714690056e-02,-2.878872108364756710e-01,-1.138090191478375246e+01,-6.270523446995174943e+00,-2.676049429801290014e+00,-8.325852406918593518e-02,3.302720846729410419e-03
1.000000000000000056e-01,7.081635627522570031e-02,2.182915864809419570e+00,-1.227020200826007601e+00,-9.579347646435594221e-01,-2.637346926369830702e-01,1.569825302797906330e+00,7.876313124892030393e-01,2.048547172233301072e+00,3.155946642201895025e-01,-2.212482461507800036e+00,-2.854205863039635638e+00,3.458014286432734702e-02,-2.975958926983764963e-01,-1.150742142133658774e+01,-6.281454873491484570e+00,-2.693591523016126921e+00,-8.705542890147037471e-02,3.324814253882226595e-03
1.020000000000000073e-01,7.239964775979944311e-02,2.186965942548415143e+00,-1.226345005565027790e+00,-9.623527780556816458e-01,-2.694431860864912043e-01,1.569890734859128223e+00,7.847257290474450864e-01,2.065072085362325893e+00,2.998164703347206972e-01,-2.214707846692089976e+00,-2.854171996151220192e+00,3.587854373327568902e-02,-3.051364548032731716e-01,-1.162651209003646713e+01,-6.289627993371952996e+00,-2.709611443111865636e+00,-9.045656672704210921e-02,3.345298356175133245e-03
1.040000000000000091e-01,7.397723833488435707e-02,2.191050200526326819e+00,-1.225701319166879300e+00,-9.667761755385808620e-01,-2.751516276701080344e-01,1.569958894005929251e+00,7.817888857724070162e-01,2.081216212127534604e+00,2.840180121490355480e-01,-2.216607764357885202e+00,-2.854132228473865052e+00,3.713086902469852485e-02,-3.106755167051127309e-01,-1.173871652575117785e+01,-6.295287174642441919e+00,-2.724228265493541912e+00,-9.349046780514007338e-02,3.364304491567681778e-03
1.059999999999999970e-01,7.554904111399507460e-02,2.195167805723945875e+00,-1.225089172573833096e+00,-9.712042799507532020e-01,-2.808600062322708091e-01,1.570029686327739427e+00,7.788279091426627554e-01,2.097000450248915016e+00,2.681964848608091034e-01,-2.218189877391621767e+00,-2.854086366791115825e+00,3.833763346313184134e-02,-3.143795647736608578e-01,-1.184457678154185523e+01,-6.298676483789889424e+00,-2.737560930517868751e+00,-9.618564047048307197e-02,3.381963860303214935e-03
1.079999999999999988e-01,7.711497617523713211e-02,2.199317945543937114e+00,-1.224508599468622894e+00,-9.756364216404189715e-01,-2.865683104309803553e-01,1.570103018416937113e+00,7.758496576866428240e-01,2.112445078191707903e+00,2.523489359896237128e-01,-2.219461556044535655e+00,-2.854034216264262458e+00,3.949937197457552979e-02,-3.164113406958478647e-01,-1.194462050582202828e+01,-6.300032223989139091e+00,-2.749724873759890276e+00,-9.856997473171640045e-02,3.398404026183030838e-03
1.100000000000000006e-01,7.867499927651677716e-02,2.203499912010812523e+00,-1.223959647573438669e+00,-9.800719693258642673e-01,-2.922765279691156848e-01,1.570178799442501827e+00,7.728596172164264866e-01,2.127567201961125143e+00,2.364716564959128964e-01,-2.220428671389243824e+00,-2.853975573743718019e+00,4.061672297771454221e-02,-3.169144020398744210e-01,-1.203930155157784831e+01,-6.299550926742097268e+00,-2.760817575696543624e+00,-1.006681928950840660e-01,3.413733923410410161e-03
1.120000000000000023e-01,8.022907757084443703e-02,2.207713030562297618e+00,-1.223442369094271065e+00,-9.845103039796725408e-01,-2.979846462445176480e-01,1.570256939396306395e+00,7.698628351378973278e-01,2.142382914369720393e+00,2.205606957168370907e-01,-2.221096615703746391e+00,-2.853910233425641430e+00,4.169035794382635468e-02,-3.160261795171560029e-01,-1.212905020365448649e+01,-6.297416421620085636e+00,-2.770930782461880071e+00,-1.025040055936213002e-01,3.428056536429842458e-03
1.140000000000000041e-01,8.177717822906377387e-02,2.211956626691697902e+00,-1.222956816249124667e+00,-9.889508065935135317e-01,-3.036926526543677340e-01,1.570337348272292655e+00,7.668643581039915613e-01,2.156908306421036148e+00,2.046121027197400910e-01,-2.221470780415848445e+00,-2.853837989505644046e+00,4.272094837277775475e-02,-3.138840926296032618e-01,-1.221429670489889752e+01,-6.293812516087182729e+00,-2.780156230070023327e+00,-1.041011215754916591e-01,3.441474839090559110e-03
1.160000000000000059e-01,8.331927748341229345e-02,2.216230054783974168e+00,-1.222503048349311339e+00,-9.933928678391282796e-01,-3.094005342251814339e-01,1.570419937269992738e+00,7.638688369641607467e-01,2.171158505757858848e+00,1.886218108957795347e-01,-2.221556105003865245e+00,-2.853758636615109534e+00,4.370917571534763124e-02,-3.106195445816378187e-01,-1.229544894681928113e+01,-6.288911343796536713e+00,-2.788580285862132246e+00,-1.054822322094973869e-01,3.454086167715115108e-03
1.180000000000000077e-01,8.485537650990601644e-02,2.220532748755671193e+00,-1.222081144232260552e+00,-9.978359050351014448e-01,-3.151082769631202707e-01,1.570504620907633431e+00,7.608798330186494763e-01,2.185145988128815553e+00,1.725854352081521992e-01,-2.221356284840826589e+00,-2.853671970584986450e+00,4.465574881471732344e-02,-3.063473771970727233e-01,-1.237285329321033345e+01,-6.282852903283938417e+00,-2.796274538549070598e+00,-1.066672282704113489e-01,3.465972339907932853e-03
1.199999999999999956e-01,8.638548073954918638e-02,2.224864156090082812e+00,-1.221691186066229839e+00,-1.002279340045520328e+00,-3.208158667002906084e-01,1.570591314269554450e+00,7.579007217089721582e-01,2.198882776914089732e+00,1.564985363016118958e-01,-2.220874803076370529e+00,-2.853577787450851666e+00,4.556138118675037707e-02,-3.011796072073325559e-01,-1.244684561227588482e+01,-6.275771711375789152e+00,-2.803308055856468251e+00,-1.076755227988692998e-01,3.477212526041690167e-03
1.219999999999999973e-01,8.790959576325892144e-02,2.229223724840109000e+00,-1.221333256229788278e+00,-1.006722594899490231e+00,-3.265232892591446445e-01,1.570679932473898255e+00,7.549348702025029390e-01,2.212380874183392798e+00,1.403566750099504712e-01,-2.220115132860521534e+00,-2.853475883245809364e+00,4.642678636409967169e-02,-2.952281142101059186e-01,-1.251776126262782896e+01,-6.267802029895848115e+00,-2.809749785444313641e+00,-1.085265052054930623e-01,3.487885768263884398e-03
1.239999999999999991e-01,8.942773667504269608e-02,2.233610936908534850e+00,-1.221007449599690764e+00,-1.011165101432637492e+00,-3.322305298883981295e-01,1.570770392647582891e+00,7.519851539621683623e-01,2.225651015596464166e+00,1.241554234008801078e-01,-2.219080153099829644e+00,-2.853366053856246864e+00,4.725267887715241255e-02,-2.885966284037866370e-01,-1.258590531953385039e+01,-6.259062966713236698e+00,-2.815661539873089758e+00,-1.092381606482146217e-01,3.498063488728496949e-03
1.260000000000000009e-01,9.093993324621932328e-02,2.238025326478531252e+00,-1.220713880355856817e+00,-1.015606306626537281e+00,-3.379375729506429726e-01,1.570862615020035546e+00,7.490536890243149060e-01,2.238701980871016683e+00,1.078903708926520211e-01,-2.217771824905014455e+00,-2.853248094941933211e+00,4.803977479727428168e-02,-2.813762934209138589e-01,-1.265153608631039539e+01,-6.249650224751368555e+00,-2.821094111700870766e+00,-1.098263054479360346e-01,3.507805340679086194e-03
1.280000000000000027e-01,9.244621650455847606e-02,2.242466432208735316e+00,-1.220452664330654358e+00,-1.020045658759335394e+00,-3.436444027326152062e-01,1.570956520086273622e+00,7.461425264146035463e-01,2.251542382286416011e+00,9.155710838880992686e-02,-2.216192030818916692e+00,-2.853121802143244068e+00,4.878879032774639801e-02,-2.736571754214797703e-01,-1.271490786236262061e+01,-6.239657503354075985e+00,-2.826097350118799145e+00,-1.103065702623384214e-01,3.517169969882035473e-03
1.300000000000000044e-01,9.394661789304784016e-02,2.246933794501292159e+00,-1.220223918249051742e+00,-1.024482606490282777e+00,-3.493510034796699082e-01,1.571052028486307206e+00,7.432536896553175731e-01,2.264180757378579489e+00,7.515123820061807292e-02,-2.214342617971310823e+00,-2.852986971210634604e+00,4.950044245327003128e-02,-2.655288379428957235e-01,-1.277627303531019898e+01,-6.229177586743046113e+00,-2.830720663443126561e+00,-1.106944980068772511e-01,3.526215539713835334e-03
1.320000000000000062e-01,9.544117671824800531e-02,2.251426986777703476e+00,-1.220027775740469167e+00,-1.028916605696171382e+00,-3.550573586534702120e-01,1.571149063606064100e+00,7.403886813982638593e-01,2.276624228160766261e+00,5.866857868352955141e-02,-2.212224762824473778e+00,-2.852843399979329231e+00,5.017546295740862167e-02,-2.570713256456957918e-01,-1.283584778657906256e+01,-6.218285928173671095e+00,-2.835005110516893634e+00,-1.110039698980013201e-01,3.534991077849244327e-03
1.340000000000000080e-01,9.692993931386602313e-02,2.255945611966643671e+00,-1.219864385540694096e+00,-1.033347118703623613e+00,-3.607634510153466811e-01,1.571247551285312793e+00,7.375485388283209431e-01,2.288878651688788235e+00,4.210514125716503103e-02,-2.209839042510225671e+00,-2.852690888147565218e+00,5.081459684847376007e-02,-2.483561768100676082e-01,-1.289381594255380392e+01,-6.207042493381855763e+00,-2.838984288820232127e+00,-1.112473822034669713e-01,3.543537448000540560e-03
1.360000000000000098e-01,9.841295226087820591e-02,2.260489274035083263e+00,-1.219733896917076565e+00,-1.037773608066218545e+00,-3.664692633019872581e-01,1.571347417450168482e+00,7.347342827516499808e-01,2.300949840507498845e+00,2.545694413463230749e-02,-2.207186013071320119e+00,-2.852529235479139835e+00,5.141858960012580387e-02,-2.394546303961069822e-01,-1.295036019111903691e+01,-6.195506703133081494e+00,-2.842691533284961380e+00,-1.114370789390785044e-01,3.551895226608818307e-03
1.380000000000000115e-01,9.989026268782709439e-02,2.265057580067863174e+00,-1.219636461272811223e+00,-1.042195536635801334e+00,-3.721747781426786306e-01,1.571448588426621162e+00,7.319468784806165695e-01,2.312843449858414946e+00,8.720057175306959729e-03,-2.204266154379257436e+00,-2.852358242379593900e+00,5.198819453248367667e-02,-2.304367856597038799e-01,-1.300565876008377231e+01,-6.183735921262656809e+00,-2.846159173369421147e+00,-1.115852069770655042e-01,3.560103849854464805e-03
1.400000000000000133e-01,1.013619224652786283e-01,2.269650164151199689e+00,-1.219572248507921230e+00,-1.046612369847270463e+00,-3.778799772365964427e-01,1.571550994003653612e+00,7.291868107412464717e-01,2.324563772707613385e+00,-8.109002495374191891e-03,-2.201079286648672806e+00,-2.852177714812106579e+00,5.252423291742350925e-02,-2.213628718113015426e-01,-1.305985125219223519e+01,-6.171769698216982292e+00,-2.849410830949026696e+00,-1.117022058904906939e-01,3.568192879053073800e-03
1.420000000000000151e-01,1.028279858953713294e-01,2.274266674216832040e+00,-1.219541438007066159e+00,-1.051023574460039356e+00,-3.835848418059821796e-01,1.571654565745971954e+00,7.264543178287667935e-01,2.336114403485660684e+00,-2.503348840685327634e-02,-2.197624891841209127e+00,-2.851987461589650330e+00,5.302756087052034467e-02,-2.122880569870415346e-01,-1.311305746437074582e+01,-6.159638450251000208e+00,-2.852465662902098575e+00,-1.117976397987033715e-01,3.576186811974710420e-03
1.440000000000000169e-01,1.042885073000409668e-01,2.278906758309223513e+00,-1.219544209232128251e+00,-1.055428617244304368e+00,-3.892893530691943216e-01,1.571759235232738527e+00,7.237496360320311295e-01,2.347498930935833172e+00,-4.205665222130608449e-02,-2.193902449164542467e+00,-2.851787291548400827e+00,5.349903479103723658e-02,-2.032674681171589282e-01,-1.316539703229197933e+01,-6.147372519251520728e+00,-2.855342789754151678e+00,-1.118810656933439396e-01,3.584110105163411993e-03
1.459999999999999909e-01,1.057435412653711104e-01,2.283570068484715776e+00,-1.219580745280040679e+00,-1.059826964388064008e+00,-3.949934920308841302e-01,1.571864935000489849e+00,7.210729161607984938e-01,2.358720695291770753e+00,-5.918160226304036015e-02,-2.189911314784554364e+00,-2.851577015895004674e+00,5.393954559133027488e-02,-1.943541938835565142e-01,-1.321698151709869862e+01,-6.134998617920459196e+00,-2.858059558922583232e+00,-1.119617051625694942e-01,3.591985098876274585e-03
1.479999999999999927e-01,1.071931435691670653e-01,2.288256274899500120e+00,-1.219651245647520588e+00,-1.064218079452687427e+00,-4.006972387315507200e-01,1.571971601905019167e+00,7.184239233800155944e-01,2.369781915618794255e+00,-7.641080017771716137e-02,-2.185650289755603382e+00,-2.851356456530649286e+00,5.435013989194830558e-02,-1.855921272706225200e-01,-1.326788605113674180e+01,-6.122527085642542666e+00,-2.860625318325579869e+00,-1.120472665986579630e-01,3.599824585596321166e-03
1.499999999999999944e-01,1.086373703251584943e-01,2.292965052811784421e+00,-1.219755914454084822e+00,-1.068601425259144477e+00,-4.064005729399150502e-01,1.572079174019638259e+00,7.158023141483890184e-01,2.380684494945320306e+00,-9.374652532407835859e-02,-2.181118018656234003e+00,-2.851125438371116871e+00,5.473190820474027607e-02,-1.770225691633008080e-01,-1.331817549813837331e+01,-6.109963646462947651e+00,-2.863047160968370974e+00,-1.121450318515619660e-01,3.607638666463165288e-03
1.519999999999999962e-01,1.100762776450231878e-01,2.297696077491544475e+00,-1.219894955833257910e+00,-1.072976464620190695e+00,-4.121034744236277136e-01,1.572187589424303145e+00,7.132077445935033344e-01,2.391430335331176771e+00,-1.111910561098885808e-01,-2.176313145591899367e+00,-2.850883786351907645e+00,5.508594134795439384e-02,-1.686868107859224863e-01,-1.336791468462875443e+01,-6.097314007955413118e+00,-2.865332171979509290e+00,-1.122622813533039332e-01,3.615437432512184478e-03
1.539999999999999980e-01,1.115099209562701449e-01,2.302449027998566766e+00,-1.220068578457845776e+00,-1.077342657649266844e+00,-4.178059226016636596e-01,1.572296788370711074e+00,7.106397635217531761e-01,2.402021024866221488e+00,-1.287463602614226932e-01,-2.171234161354295811e+00,-2.850631331863918927e+00,5.541343052013025794e-02,-1.606230012664316420e-01,-1.341715634098564180e+01,-6.084578524091160290e+00,-2.867484877286619938e+00,-1.124058352280478401e-01,3.623227688019170414e-03
1.559999999999999998e-01,1.129383540172343714e-01,2.307223592638686149e+00,-1.220277002075195405e+00,-1.081699457874262471e+00,-4.235078960423317995e-01,1.572406716408979221e+00,7.080976579068087862e-01,2.412457385644217300e+00,-1.464136475318020547e-01,-2.165879182693812410e+00,-2.850367922047361890e+00,5.571581181874265404e-02,-1.528616239245862152e-01,-1.346592368647882232e+01,-6.071744487596642870e+00,-2.869503559105814894e+00,-1.125813905816556021e-01,3.631008218515292471e-03
1.580000000000000016e-01,1.143616303364879822e-01,2.312019461101247675e+00,-1.220520448089763121e+00,-1.086046317837654707e+00,-4.292093731866529760e-01,1.572517319882040576e+00,7.055806755436510036e-01,2.422740125141002121e+00,-1.641940142567188954e-01,-2.160246270392095269e+00,-2.850093406399051954e+00,5.599455798610979834e-02,-1.454320150259881261e-01,-1.351423552455677601e+01,-6.058797236811408027e+00,-2.871385565390947470e+00,-1.127944764799365951e-01,3.638776609666795163e-03
1.600000000000000033e-01,1.157798033717628294e-01,2.316836323123415031e+00,-1.220799137980108418e+00,-1.090382689950852635e+00,-4.349103324654766123e-01,1.572628545232370278e+00,7.030880618773219792e-01,2.432869944011864849e+00,-1.820885444561469724e-01,-2.154333482476272099e+00,-2.849807634723155125e+00,5.625114653337447146e-02,-1.383634171978841976e-01,-1.356211033266046684e+01,-6.045721967509022576e+00,-2.873128179452193898e+00,-1.130506109445686691e-01,3.646530354307516309e-03
1.620000000000000051e-01,1.171929243032781426e-01,2.321673870584431310e+00,-1.221113296544251714e+00,-1.094708020753733857e+00,-4.406107518539599255e-01,1.572740343361581861e+00,7.006189570821026447e-01,2.442847237370169733e+00,-2.000977704401937507e-01,-2.148138753578538562e+00,-2.849510470591857914e+00,5.648726860172008368e-02,-1.316808783302326480e-01,-1.360955198400201382e+01,-6.032497488904193794e+00,-2.874725788742906296e+00,-1.133548172509181162e-01,3.654262786637988390e-03
1.640000000000000069e-01,1.186010411656616553e-01,2.326531798322084565e+00,-1.221463153164903614e+00,-1.099021748676701327e+00,-4.463106086978812503e-01,1.572852671330047025e+00,6.981723559373156363e-01,2.452671978329345581e+00,-2.182214625235743277e-01,-2.141659847903901515e+00,-2.849201796593103797e+00,5.670491038796870303e-02,-1.254036527416172719e-01,-1.365654418112823265e+01,-6.019093789400704608e+00,-2.876168781096917648e+00,-1.137114353543079021e-01,3.661961497152488483e-03
1.660000000000000087e-01,1.200042017633894120e-01,2.331409801390624814e+00,-1.221848937560217063e+00,-1.103323311556815511e+00,-4.520098802969691465e-01,1.572965486648747468e+00,6.957472425842647912e-01,2.462344109126621383e+00,-2.364593352685822880e-01,-2.134894517187825524e+00,-2.848881496706144212e+00,5.690607967708628812e-02,-1.195505708561533792e-01,-1.370306915077195242e+01,-6.005480212015789299e+00,-2.877447251710492981e+00,-1.141247552140275956e-01,3.669613656099268185e-03
1.680000000000000104e-01,1.214024536436724838e-01,2.336307574829677325e+00,-1.222270879376059050e+00,-1.107612146661767216e+00,-4.577085439215705098e-01,1.573078747337137040e+00,6.933425965444359740e-01,2.471863558477077838e+00,-2.548110506341155768e-01,-2.127840513223834940e+00,-2.848549456426439974e+00,5.709280658923531621e-02,-1.141401485662951742e-01,-1.374910824166929757e+01,-5.991625725889920595e+00,-2.878551144535421269e+00,-1.145990410847313873e-01,3.677206168056372775e-03
1.700000000000000122e-01,1.227958402687793493e-01,2.341224813446590503e+00,-1.222729207110502481e+00,-1.111887682218587914e+00,-4.634065763754928180e-01,1.573192419488316451e+00,6.909573239843166403e-01,2.481230040386613656e+00,-2.732754353249150503e-01,-2.120495588727260294e+00,-2.848205585324272704e+00,5.726747589023196278e-02,-1.091859075265156909e-01,-1.379462886143329747e+01,-5.977493363624209799e+00,-2.879468002013428674e+00,-1.151381490743495772e-01,3.684721719202168483e-03
1.720000000000000140e-01,1.241844018314124387e-01,2.346161211862803686e+00,-1.223224148342932249e+00,-1.116149339218216019e+00,-4.691039540891281390e-01,1.573306475657491932e+00,6.885902723574464090e-01,2.490443097009045204e+00,-2.918506475127594646e-01,-2.112857497151244601e+00,-2.847849812239285683e+00,5.743275620237776186e-02,-1.046973720299063243e-01,-1.383958725927657696e+01,-5.963041406245412901e+00,-2.880183444430432615e+00,-1.157456086123565681e-01,3.692139619330474590e-03
1.740000000000000158e-01,1.255681784326226347e-01,2.351116464694544383e+00,-1.223755930626980515e+00,-1.120396538448748869e+00,-4.748006534824012470e-01,1.573420888581014587e+00,6.862402874715393120e-01,2.499502265680880519e+00,-3.105348266292992099e-01,-2.104923991969613883e+00,-2.847482066551275448e+00,5.759132410495964444e-02,-1.006839543166447304e-01,-1.388393937162262404e+01,-5.948228001585484925e+00,-2.880683038191016898e+00,-1.164249399708679744e-01,3.699439083589244146e-03
1.759999999999999898e-01,1.269472094444017984e-01,2.356090266265791655e+00,-1.224324780341029317e+00,-1.124628699279239141e+00,-4.804966509306283773e-01,1.573535632685926000e+00,6.839062128531133711e-01,2.508407073729876924e+00,-3.293259659090788105e-01,-2.096692856238889568e+00,-2.847102282374097459e+00,5.774591922874773575e-02,-9.715434538896856875e-02,-1.392763985449196973e+01,-5.933010810219802700e+00,-2.880952214245491305e+00,-1.171796306642260282e-01,3.706598901397428671e-03
1.779999999999999916e-01,1.283215287382070413e-01,2.361082308695612753e+00,-1.224930914996550158e+00,-1.128845230372470310e+00,-4.861919224725719246e-01,1.573650695155046408e+00,6.815868748177313918e-01,2.517156972970724382e+00,-3.482209555724229966e-01,-2.088162096208355578e+00,-2.846710429538719112e+00,5.789975690943511416e-02,-9.411179472068034735e-02,-1.397063370364099377e+01,-5.917343816516019039e+00,-2.880975381581474259e+00,-1.180129210589948158e-01,3.713594650173705422e-03
1.799999999999999933e-01,1.296911676754857745e-01,2.366092283096921989e+00,-1.225574548058856017e+00,-1.133045535505727175e+00,-4.918864439934162447e-01,1.573766068991920619e+00,6.792810918272362830e-01,2.525751380759915232e+00,-3.672161825111603384e-01,-2.079329819974825799e+00,-2.846306494174565493e+00,5.805626955683614726e-02,-9.155706870216956395e-02,-1.401286150664517116e+01,-5.901179327311180778e+00,-2.880736482843591517e+00,-1.189279387430296903e-01,3.720400441633737836e-03
1.819999999999999951e-01,1.310561576048568377e-01,2.371119880577491568e+00,-1.226255892972579309e+00,-1.137229018431325400e+00,-4.975801913775609875e-01,1.573881747229844752e+00,6.769876823033301738e-01,2.534189714277823580e+00,-3.863080310445948795e-01,-2.070194136155661280e+00,-2.845890462494364836e+00,5.821889069023653690e-02,-8.949092103272378307e-02,-1.405426382854966150e+01,-5.884469640868442930e+00,-2.880219458292982093e+00,-1.199278107277716027e-01,3.726990380001946480e-03
1.839999999999999969e-01,1.324165283725889097e-01,2.376164791504054907e+00,-1.226975158585097203e+00,-1.141395080496731884e+00,-5.032731404918761031e-01,1.573997727267758773e+00,6.747054769136313634e-01,2.542471405559823872e+00,-4.054925670865563436e-01,-2.060753278867502924e+00,-2.845462332129885752e+00,5.839118321548818907e-02,-8.791273541512095724e-02,-1.409478054982530892e+01,-5.867167071116351273e+00,-2.879408474662566331e+00,-1.210156359635122525e-01,3.733338246648650830e-03
1.859999999999999987e-01,1.337723038515834795e-01,2.381226703296946745e+00,-1.227732535465024144e+00,-1.145543113487689446e+00,-5.089652671335305190e-01,1.574114023862460687e+00,6.724333550156997852e-01,2.550595945704974721e+00,-4.247645905658638532e-01,-2.051005981214029550e+00,-2.845022146115160133e+00,5.857722448139719013e-02,-8.681644842518411453e-02,-1.413434882906494394e+01,-5.849223994269252103e+00,-2.878288599140482518e+00,-1.221944018289872619e-01,3.739416539271330029e-03
1.880000000000000004e-01,1.351235064303546451e-01,2.386305302644323056e+00,-1.228528209638685142e+00,-1.149672506813845363e+00,-5.146565470823731836e-01,1.574230656084194990e+00,6.701702080665933314e-01,2.558562840489721157e+00,-4.441185868128729730e-01,-2.040951100297668575e+00,-2.844569958766727247e+00,5.878121967632707334e-02,-8.619464302257104360e-02,-1.417290514847219107e+01,-5.830592802019578968e+00,-2.876845122678843847e+00,-1.234670679772957441e-01,3.745197436573560745e-03
1.900000000000000022e-01,1.364701584843631965e-01,2.391400276228518251e+00,-1.229362367067468265e+00,-1.153782649871388122e+00,-5.203469561188920345e-01,1.574347643052722345e+00,6.679149277797561401e-01,2.566371596040815550e+00,-4.635490380990442971e-01,-2.030587495030462097e+00,-2.844105824522856540e+00,5.900737505374469005e-02,-8.603988992793212831e-02,-1.421038600162917653e+01,-5.811225896374317301e+00,-2.875063342866155836e+00,-1.248365938231972005e-01,3.750653119597175105e-03
1.920000000000000040e-01,1.378122799566526002e-01,2.396511309647420429e+00,-1.230235181612213902e+00,-1.157872929548707797e+00,-5.260364701427592271e-01,1.574465013115026180e+00,6.656664536447627345e-01,2.574021783763048354e+00,-4.830498566895224943e-01,-2.019914361534913105e+00,-2.843629820505396033e+00,5.926009534260455458e-02,-8.634247919782267466e-02,-1.424673000243623200e+01,-5.791077601394515106e+00,-2.872929793942426535e+00,-1.263058943683226798e-01,3.755756205103981393e-03
1.940000000000000058e-01,1.391498855191355966e-01,2.401638086148879303e+00,-1.231146800911462558e+00,-1.161942727299706046e+00,-5.317250653119228732e-01,1.574582814613796566e+00,6.634238286836785514e-01,2.581513116520926410e+00,-5.026137196264622853e-01,-2.008931626680015903e+00,-2.843142072992290714e+00,5.954421537496434880e-02,-8.708775861246999261e-02,-1.428188035959500901e+01,-5.770106406297450086e+00,-2.870433690013353356e+00,-1.278777883695498274e-01,3.760480254075732748e-03
1.960000000000000075e-01,1.404829891540608222e-01,2.406780288673268764e+00,-1.232097369172882262e+00,-1.165991423867247301e+00,-5.374127178181226094e-01,1.574701098507919061e+00,6.611861094645505865e-01,2.588845325687257670e+00,-5.222331423379483750e-01,-1.997639312944151424e+00,-2.842642714692959593e+00,5.986462625669908277e-02,-8.826042931469306463e-02,-1.431578088298163820e+01,-5.748271345260991261e+00,-2.867564595812819750e+00,-1.295550819912879570e-01,3.764798951033999572e-03
1.980000000000000093e-01,1.418116047560678550e-01,2.411937600136020432e+00,-1.233087029909107679e+00,-1.170018399996284097e+00,-5.430994038654224365e-01,1.574819916210479454e+00,6.589523556071401611e-01,2.596018146285749673e+00,-5.419006167615889602e-01,-1.986037462051908342e+00,-2.842131879379273141e+00,6.022622491511981507e-02,-8.984509816547928129e-02,-1.434837561162093067e+01,-5.725531621365539614e+00,-2.864312162026886099e+00,-1.313405763607315146e-01,3.768686042350621098e-03
2.000000000000000111e-01,1.431357431645140788e-01,2.417109702582621811e+00,-1.234115902394163689e+00,-1.174023036504563855e+00,-5.487851000876620144e-01,1.574939334974293947e+00,6.567217331566699290e-01,2.603031440661389695e+00,-5.616078156283151879e-01,-1.974126786919925491e+00,-2.841609737874722263e+00,6.063411129424220447e-02,-9.182308404206027119e-02,-1.437961657586645181e+01,-5.701852327996630443e+00,-2.860669036836913204e+00,-1.332368969372814960e-01,3.772117431362977200e-03
2.020000000000000129e-01,1.444554114414923485e-01,2.422296276983043395e+00,-1.235184075935729542e+00,-1.178004714299831779e+00,-5.544697836500166455e-01,1.575059441634936830e+00,6.544935397328317528e-01,2.609885228567274229e+00,-5.813453988786814186e-01,-1.961908830263800807e+00,-2.841076506809957714e+00,6.109363632891350732e-02,-9.417164086662818678e-02,-1.440946568580189613e+01,-5.677205840761171629e+00,-2.856631574246593974e+00,-1.352464520011394666e-01,3.775071688078546466e-03
2.040000000000000147e-01,1.457706164150500416e-01,2.427497004240618317e+00,-1.236291637984721081e+00,-1.181962814295410613e+00,-5.601534317505840743e-01,1.575180324241364449e+00,6.522670811078904451e-01,2.616579539509768626e+00,-6.011039636990692658e-01,-1.949385186214855459e+00,-2.840532405653918957e+00,6.161016650578952925e-02,-9.686777069001333007e-02,-1.443788546367543368e+01,-5.651564986484600261e+00,-2.852196357878528765e+00,-1.373716363757231940e-01,3.777527547736114853e-03
2.060000000000000164e-01,1.470813646966963872e-01,2.432711565267879017e+00,-1.237438673059199523e+00,-1.185896717901851360e+00,-5.658360216559170652e-01,1.575302072516405305e+00,6.500416763715610724e-01,2.623114415931706134e+00,-6.208740379959213351e-01,-1.936557527634859888e+00,-2.839977657666979294e+00,6.218907324020755273e-02,-9.988816666392300037e-02,-1.446483966857082493e+01,-5.624903477339429969e+00,-2.847360361611418700e+00,-1.396148041741043511e-01,3.779464097849380682e-03
2.080000000000000182e-01,1.483876599834260956e-01,2.437939641101234400e+00,-1.238625226202234586e+00,-1.189805813222203801e+00,-5.715175315539448020e-01,1.575424798712530050e+00,6.478168238609629537e-01,2.629490074395467225e+00,-6.406452171962303543e-01,-1.923428587065016737e+00,-2.839412537140672210e+00,6.283579428552786561e-02,-1.032053642850738473e-01,-1.449030870686960171e+01,-5.597206941905281674e+00,-2.842125812010400487e+00,-1.419777615648623592e-01,3.780865167407326290e-03
2.099999999999999922e-01,1.496895038842820380e-01,2.443180912865836163e+00,-1.239851314177090380e+00,-1.193689493154011183e+00,-5.771979402926695757e-01,1.575548631222397633e+00,6.455921503256948357e-01,2.635706856202325366e+00,-6.604064287005925182e-01,-1.910001856198739523e+00,-2.838837354925148215e+00,6.355581491953674056e-02,-1.067889205145319959e-01,-1.451428491104385188e+01,-5.568469545651800523e+00,-2.836498698654583706e+00,-1.444619221702473644e-01,3.781717982182266052e-03
2.119999999999999940e-01,1.509868979628670727e-01,2.448435061688765124e+00,-1.241116953131581990e+00,-1.197547150699157958e+00,-5.828772267344585201e-01,1.575673698789924027e+00,6.433672853099710043e-01,2.641765105368222510e+00,-6.801465853714723231e-01,-1.896280843250726100e+00,-2.838252422666176056e+00,6.435462145428549885e-02,-1.106083274920563186e-01,-1.453676087311090193e+01,-5.538685639835350116e+00,-2.830485093016836817e+00,-1.470686910695981064e-01,3.782009841870065218e-03
2.139999999999999958e-01,1.522798435095446823e-01,2.453701768950844908e+00,-1.242422151035911249e+00,-1.201378181447106508e+00,-5.885553699715415643e-01,1.575800134205601832e+00,6.411418958431733817e-01,2.647665193347509494e+00,-6.998544829874774331e-01,-1.882269263161438166e+00,-2.837658061109931573e+00,6.523766159090382821e-02,-1.146323784483248148e-01,-1.455773322557896421e+01,-5.507852470283779667e+00,-2.824092197110748437e+00,-1.497992874021402687e-01,3.781729206883052957e-03
2.159999999999999976e-01,1.535683400114861430e-01,2.458980717707392127e+00,-1.243766861893679687e+00,-1.205181998063542315e+00,-5.942323506130828825e-01,1.575928096964527292e+00,6.389158963308436689e-01,2.653407672669037431e+00,-7.195181446547834758e-01,-1.867972195118314138e+00,-2.837054651058966037e+00,6.621012822515785767e-02,-1.188252542977379089e-01,-1.457722526539985530e+01,-5.475986384993640321e+00,-2.817334673736300754e+00,-1.526537032310272268e-01,3.780872197558972445e-03
2.179999999999999993e-01,1.548523862251441063e-01,2.464271591692287711e+00,-1.245151017839274843e+00,-1.208958020134049294e+00,-5.999081498829627046e-01,1.576057757383463320e+00,6.366893014242644977e-01,2.658993169239575405e+00,-7.391252803648281633e-01,-1.853395271150870327e+00,-2.836442597652839126e+00,6.727711099648997495e-02,-1.231492668777832700e-01,-1.459527109491968133e+01,-5.443111472849215815e+00,-2.810230209073217633e+00,-1.556314333639295389e-01,3.779438038313617451e-03
2.200000000000000011e-01,1.561319809048954121e-01,2.469574074641413652e+00,-1.246574550943574833e+00,-1.212705667264499798e+00,-6.055827490068533825e-01,1.576189285810495999e+00,6.344621260658742656e-01,2.664422309177468584e+00,-7.586635992128186734e-01,-1.838544124891061005e+00,-2.835822306101592805e+00,6.844369923520293719e-02,-1.275667226175236924e-01,-1.461190484796921041e+01,-5.409251845290994787e+00,-2.802796498089091148e+00,-1.587319711496461005e-01,3.777425962604825330e-03
2.220000000000000029e-01,1.574071228265963851e-01,2.474887851191052590e+00,-1.248037375602237153e+00,-1.216424367162298514e+00,-6.112561297931481397e-01,1.576322859912563601e+00,6.322344665553594201e-01,2.669695757650041745e+00,-7.781207311612486910e-01,-1.823424795627057060e+00,-2.835194198649236608e+00,6.971477576829335221e-02,-1.320386782299083350e-01,-1.462717077466258431e+01,-5.374438872634648590e+00,-2.795053779198620081e+00,-1.619542119733264063e-01,3.774838075565714688e-03
2.240000000000000047e-01,1.586778108413977040e-01,2.480212609133747304e+00,-1.249539344252147188e+00,-1.220113575933994055e+00,-6.169282760929090115e-01,1.576458683012139872e+00,6.300067043823767143e-01,2.674814316707040174e+00,-7.974840287805331496e-01,-1.808044744635677104e+00,-2.834558757250704719e+00,7.109449954538424321e-02,-1.365218096688781135e-01,-1.464114858676725106e+01,-5.338729370481004821e+00,-2.787031206624412061e+00,-1.652949551163614417e-01,3.771686548709466975e-03
2.260000000000000064e-01,1.599440438169392464e-01,2.485548036953250328e+00,-1.251080295761584971e+00,-1.223772755905380816e+00,-6.225991722045323140e-01,1.576596964050111183e+00,6.277792834915068010e-01,2.679778818374656257e+00,-8.167407838938586240e-01,-1.792411744600877821e+00,-2.833916476937278439e+00,7.258687099121953479e-02,-1.409718335279661894e-01,-1.465392576194378726e+01,-5.302185726798405163e+00,-2.778759887098476433e+00,-1.687505408257711226e-01,3.767985758027182861e-03
2.280000000000000082e-01,1.612058206298939422e-01,2.490893823150238440e+00,-1.252660068740246935e+00,-1.227401369560408240e+00,-6.282688024364854185e-01,1.576737912048761459e+00,6.255526490307510290e-01,2.684590094914787617e+00,-8.358782902405063053e-01,-1.776533573345597805e+00,-2.833267852954635124e+00,7.419588524298867394e-02,-1.453444514004046950e-01,-1.466558995395681464e+01,-5.264870454610237616e+00,-2.770270967247402183e+00,-1.723172969524850717e-01,3.763750128669177911e-03
2.300000000000000100e-01,1.624631412232736549e-01,2.496249658223890666e+00,-1.254278471273249318e+00,-1.230998898052736656e+00,-6.339371522862824460e-01,1.576881745639256094e+00,6.233273882075699435e-01,2.689249006414026422e+00,-8.548840677478194428e-01,-1.760418615330979986e+00,-2.832613405857906663e+00,7.592491326175176969e-02,-1.495935941497059107e-01,-1.467624960500148390e+01,-5.226860829224258431e+00,-2.761600303105582466e+00,-1.759900880351251973e-01,3.758999888848982111e-03
2.320000000000000118e-01,1.637160075968804862e-01,2.501615236528153652e+00,-1.255935252568849636e+00,-1.234564858546799426e+00,-6.396042095449075982e-01,1.577028701986697312e+00,6.211043622385601370e-01,2.693756466628177915e+00,-8.737460726224014484e-01,-1.744076425122660590e+00,-2.831953705019950362e+00,7.777612207632021712e-02,-1.536697771953855207e-01,-1.468605325470813483e+01,-5.188262599946781073e+00,-2.752792834374102160e+00,-1.797609561255263944e-01,3.753766459926746821e-03
2.340000000000000135e-01,1.649644219848591664e-01,2.506990252856168500e+00,-1.257630155127107630e+00,-1.238098772309955908e+00,-6.452699622646543842e-01,1.577179020367869500e+00,6.188844635598387267e-01,2.698113395427904848e+00,-8.924523107787928344e-01,-1.727516690603364546e+00,-2.831289325375723642e+00,7.975154154421419672e-02,-1.575231268147438413e-01,-1.469515401125068266e+01,-5.149184760299183594e+00,-2.743894535711192795e+00,-1.836216216925134759e-01,3.748082538565598604e-03
2.360000000000000153e-01,1.662083867318034924e-01,2.512374402114927019e+00,-1.259362919963684213e+00,-1.241600161808547931e+00,-6.509343985689713952e-01,1.577332940310775200e+00,6.166685917487183533e-01,2.702320711485756810e+00,-9.109908238677322245e-01,-1.710749123681594819e+00,-2.830620842888422306e+00,8.185315158446788975e-02,-1.611037028585969033e-01,-1.470370625949172805e+01,-5.109737183621819945e+00,-2.734951642640987224e+00,-1.875637051635962449e-01,3.741981176136766757e-03
2.380000000000000171e-01,1.674479072573985539e-01,2.517767382381034924e+00,-1.261133246765904437e+00,-1.245068582890690223e+00,-6.565975085623864116e-01,1.577490708337725422e+00,6.144578452060227569e-01,2.706379300116640518e+00,-9.293506484989226824e-01,-1.693784105185983657e+00,-2.829948862149151534e+00,8.408154174027369920e-02,-1.643597157468708325e-01,-1.471189992956602843e+01,-5.070054238972284466e+00,-2.726017653655838036e+00,-1.915760416390098753e-01,3.735505299712868748e-03
2.399999999999999911e-01,1.686829923865858505e-01,2.523168895241035159e+00,-1.262940789455446744e+00,-1.248503628370387419e+00,-6.622592845432103692e-01,1.577652578716302711e+00,6.122535425032410439e-01,2.710290009696306956e+00,-9.475219230671380055e-01,-1.676632756685476178e+00,-2.829274019450638722e+00,8.643576189801689680e-02,-1.672373279001134194e-01,-1.471996431328212118e+01,-5.030297421165609073e+00,-2.717154110021958502e+00,-1.956443818385147360e-01,3.728708772395774359e-03
2.419999999999999929e-01,1.699136511210036504e-01,2.528578642463597426e+00,-1.264785199579230746e+00,-1.251904892979784023e+00,-6.679197189235880350e-01,1.577818806115986572e+00,6.100570136364130702e-01,2.714053686683746580e+00,-9.654948431382549545e-01,-1.659306238185677795e+00,-2.828596952730587866e+00,8.891478205202307805e-02,-1.696825954691586202e-01,-1.472813074490704643e+01,-4.990629632559469897e+00,-2.708422970341270108e+00,-1.997543164348349332e-01,3.721646024752708025e-03
2.439999999999999947e-01,1.711398929663584811e-01,2.533996326138203248e+00,-1.266666124968297780e+00,-1.255271975680674279e+00,-6.735788043574387762e-01,1.577989644815896098e+00,6.078696081414534103e-01,2.717671163438660553e+00,-9.832598016344981096e-01,-1.641815755369650631e+00,-2.827918301860623540e+00,9.151735337461780473e-02,-1.716414775487211941e-01,-1.473663506808462920e+01,-4.951216716044046784e+00,-2.699887024416566916e+00,-2.038910661479516329e-01,3.714372757731366440e-03
2.459999999999999964e-01,1.723617332316657869e-01,2.539421652047787248e+00,-1.268583170672942462e+00,-1.258604524130581437e+00,-6.792365362822110342e-01,1.578165344600926279e+00,6.056929005158980805e-01,2.721143109996260634e+00,-1.000809463632147400e+00,-1.624173039802769836e+00,-2.827238728977440996e+00,9.423970775104245634e-02,-1.730588158311170133e-01,-1.474576504269467492e+01,-4.912258368717615120e+00,-2.691618631625969371e+00,-2.080355924498422382e-01,3.706959298108187563e-03
2.479999999999999982e-01,1.735791909433661573e-01,2.544854328341204397e+00,-1.270535914339407046e+00,-1.261902217180046692e+00,-6.848929119183990721e-01,1.578346152377111844e+00,6.035286093609169011e-01,2.724470092411592770e+00,-1.018137949680856247e+00,-1.606390159914764970e+00,-2.826558910480074349e+00,9.707646328720191675e-02,-1.738787362343811871e-01,-1.475584168459227108e+01,-4.873975973663286609e+00,-2.683696281328984412e+00,-2.121661284666513658e-01,3.699485341524466446e-03
2.500000000000000000e-01,1.747922851886708207e-01,2.550294063205983175e+00,-1.272523933165942145e+00,-1.265164734189539786e+00,-6.905479285156450597e-01,1.578532315003422504e+00,6.013784556334229592e-01,2.727652675039875962e+00,-1.035239404123739160e+00,-1.588479189642279188e+00,-2.825879523000711657e+00,1.000222117076203787e-01,-1.740453529753739625e-01,-1.476718655328706831e+01,-4.836591268477457461e+00,-2.676198563095455007e+00,-2.162608627226821068e-01,3.692030736779726430e-03
2.520000000000000018e-01,1.760010365257231313e-01,2.555740565312010215e+00,-1.274546799345884551e+00,-1.268391764839250424e+00,-6.962015839019577434e-01,1.578724074716211012e+00,5.992441947696452997e-01,2.730691360753419339e+00,-1.052108630984869952e+00,-1.570452252183679009e+00,-2.825201244085245644e+00,1.030708742322519744e-01,-1.735028745468564504e-01,-1.478013241000669531e+01,-4.800332672163026615e+00,-2.669205917276300966e+00,-2.202970759238025988e-01,3.684678604130841532e-03
2.540000000000000036e-01,1.772054740297909214e-01,2.561193546122142006e+00,-1.276604056092659034e+00,-1.271583058563544810e+00,-7.018538792542529103e-01,1.578921646985520066e+00,5.971277818510983826e-01,2.733586296420551509e+00,-1.068744254033401342e+00,-1.552321755977056572e+00,-2.824524756570181871e+00,1.062124896641119948e-01,-1.721960553265403093e-01,-1.479507687719153175e+01,-4.765467291014393147e+00,-2.662809500784431904e+00,-2.242467922424772331e-01,3.677531006526479820e-03
2.560000000000000053e-01,1.784056298344453839e-01,2.566652718102132358e+00,-1.278695236213672315e+00,-1.274738386253139399e+00,-7.075048169519625452e-01,1.579125237670227611e+00,5.950312436473189637e-01,2.736337501076776757e+00,-1.085146268620927890e+00,-1.534100211883519416e+00,-2.823850745191765377e+00,1.094357027197526977e-01,-1.700698457068444414e-01,-1.481244086744891320e+01,-4.732276123040896287e+00,-2.657104318603241033e+00,-2.280801483511475380e-01,3.670696808799454695e-03
2.580000000000000071e-01,1.796015360788700277e-01,2.572117793719048695e+00,-1.280819872502807710e+00,-1.277857518836742479e+00,-7.131543993766334966e-01,1.579335052607539369e+00,5.929566070405459799e-01,2.738944993498320546e+00,-1.101314672698543440e+00,-1.515800130930766709e+00,-2.823179894685728275e+00,1.127291554744197510e-01,-1.670691967858674853e-01,-1.483264533444237543e+01,-4.701040189836245276e+00,-2.652185382258906099e+00,-2.317672776663938783e-01,3.664284887727119536e-03
2.600000000000000089e-01,1.807932281782912987e-01,2.577588485470520663e+00,-1.282977497749273166e+00,-1.280940247465323090e+00,-7.188026300163055105e-01,1.579551279278494924e+00,5.909059380194369160e-01,2.741408606199157827e+00,-1.117251098165611856e+00,-1.497434091153038604e+00,-2.822512883832056119e+00,1.160798309322350896e-01,-1.631399610416518486e-01,-1.485613281244680195e+01,-4.672051578111206638e+00,-2.648150787964878905e+00,-2.352767074436944994e-01,3.658410330949129607e-03
2.620000000000000107e-01,1.819807516853333695e-01,2.583064505948739598e+00,-1.285167644727801983e+00,-1.283986425865675907e+00,-7.244495157829489163e-01,1.579774048362744265e+00,5.888814235836816735e-01,2.743727595322722035e+00,-1.132962233016542308e+00,-1.479014877929839100e+00,-2.821850372981254740e+00,1.194695782620309177e-01,-1.582307801853826690e-01,-1.488341261485365941e+01,-4.645636614512121731e+00,-2.645108177201324740e+00,-2.385719948281871949e-01,3.653207445018412207e-03
2.640000000000000124e-01,1.831641541074632562e-01,2.588545567764132471e+00,-1.287389846210338584e+00,-1.286995919831390278e+00,-7.300950642487883391e-01,1.580003479586659099e+00,5.868852740681033131e-01,2.745901105868176373e+00,-1.148455740236592693e+00,-1.460555316624047029e+00,-2.821193018929986529e+00,1.228792566507710404e-01,-1.522908337893339459e-01,-1.491500693238900510e+01,-4.622128228334912770e+00,-2.643167032107575753e+00,-2.416157385550019854e-01,3.648814242562325484e-03
2.660000000000000142e-01,1.843434830235682886e-01,2.594031383499494581e+00,-1.289643635216429995e+00,-1.289968595570426535e+00,-7.357392830072894130e-01,1.580239692058100553e+00,5.849196999422096033e-01,2.747928277363651528e+00,-1.163739321291833662e+00,-1.442068236129901315e+00,-2.820541478223300480e+00,1.262896831028555711e-01,-1.452693359482948587e-01,-1.495143833185518822e+01,-4.601859484628222141e+00,-2.642436874863549168e+00,-2.443705152087821131e-01,3.645368837776221619e-03
2.680000000000000160e-01,1.855187917881490345e-01,2.599521663503196134e+00,-1.291928564788788814e+00,-1.292904352799978618e+00,-7.413821813697035745e-01,1.580482754867695849e+00,5.829869225671454602e-01,2.749807806908323382e+00,-1.178823789498531394e+00,-1.423566750914305290e+00,-2.819896387059127818e+00,1.296782634209437401e-01,-1.371182925092462590e-01,-1.499325979243472240e+01,-4.585174426434406314e+00,-2.643030465634467419e+00,-2.467971101179760041e-01,3.643017558413267146e-03
2.700000000000000178e-01,1.866901436898327216e-01,2.605016114280362949e+00,-1.294244222410223522e+00,-1.295803148873541977e+00,-7.470237716018942598e-01,1.580732651075798412e+00,5.810891820378100148e-01,2.751537630617991503e+00,-1.193725310594473843e+00,-1.405064466632742759e+00,-2.819258346638093382e+00,1.330165360977420552e-01,-1.277945111680954815e-01,-1.504107660298697269e+01,-4.572435979083257607e+00,-2.645066133961049282e+00,-2.488532276278191124e-01,3.641920859649503371e-03
2.720000000000000195e-01,1.878576029978485662e-01,2.610514441956753195e+00,-1.296590198963138540e+00,-1.298664946833915312e+00,-7.526640662613756083e-01,1.580989355250673967e+00,5.792287202983185113e-01,2.753115609491453952e+00,-1.208460578657293727e+00,-1.386575037426132306e+00,-2.818627954706222738e+00,1.362754604612527731e-01,-1.172552736133351953e-01,-1.509549921588214083e+01,-4.564008931783329892e+00,-2.648662759139476464e+00,-2.504962679583605523e-01,3.642240591184995203e-03
2.740000000000000213e-01,1.890212343420094310e-01,2.616016352314150417e+00,-1.298966088015124587e+00,-1.301489711920776227e+00,-7.583030780014388128e-01,1.581252837290193503e+00,5.774077764378569011e-01,2.754539566504343728e+00,-1.223046487623226319e+00,-1.368112165378373213e+00,-2.818005806887890596e+00,1.394257360534438550e-01,-1.054581186840065493e-01,-1.515713911657223889e+01,-4.560257905418856339e+00,-2.653939190755110644e+00,-2.516836348035159099e-01,3.644138342344727544e-03
2.760000000000000231e-01,1.901811105296070115e-01,2.621521543333506177e+00,-1.301371544029639615e+00,-1.304277459195594346e+00,-7.639408216474296021e-01,1.581522961174826714e+00,5.756285248002096511e-01,2.755806462325517625e+00,-1.237504463912929564e+00,-1.349690639846076179e+00,-2.817392450691665662e+00,1.424321708702576406e-01,-9.236641699642283987e-02,-1.522663121920889218e+01,-4.561543703538385230e+00,-2.661013604597727067e+00,-2.523728106391176507e-01,3.647769797548930902e-03
2.780000000000000249e-01,1.913373124815125614e-01,2.627029705255897962e+00,-1.303806281890164565e+00,-1.307028253152321629e+00,-7.695773141797769279e-01,1.581799485795286619e+00,5.738930754896829356e-01,2.756912402055159639e+00,-1.251860431014461872e+00,-1.331326328962570527e+00,-2.816788385886287660e+00,1.452537273983946498e-01,-7.794932537442149367e-02,-1.530463368357054499e+01,-4.568223342183605595e+00,-2.670003507926579811e+00,-2.525213561073103574e-01,3.653284782454253431e-03
2.800000000000000266e-01,1.924899214664007874e-01,2.632540527990618884e+00,-1.306270019070195243e+00,-1.309742160403924105e+00,-7.752125726712912890e-01,1.582082165537420426e+00,5.722035358568391405e-01,2.757853454117932035e+00,-1.266140505190944898e+00,-1.313035147104932854e+00,-2.816194110194043088e+00,1.478491175460552309e-01,-6.217624867826292839e-02,-1.539180566590216337e+01,-4.580653675037757111e+00,-2.681026379343135257e+00,-2.520868352009814073e-01,3.660832871570672119e-03
2.820000000000000284e-01,1.936390197123092904e-01,2.638053699656911721e+00,-1.308762484928782666e+00,-1.312419254799242374e+00,-7.808466144252069752e-01,1.582370735989344857e+00,5.705619965573571761e-01,2.758625540366149931e+00,-1.280371291839625725e+00,-1.294833279531064418e+00,-2.815610117625926279e+00,1.501761508330478612e-01,-4.501755552386169784e-02,-1.548880446386154119e+01,-4.599187191218043758e+00,-2.694198548294668871e+00,-2.510273085423840311e-01,3.670560933941980838e-03
2.840000000000000302e-01,1.947846989656322469e-01,2.643568890613951616e+00,-1.311283526747991424e+00,-1.315059681978130612e+00,-7.864794590309192035e-01,1.582664746236706055e+00,5.689703826079333115e-01,2.759223128428573979e+00,-1.294584249322084712e+00,-1.276739599054097729e+00,-2.815036865371202346e+00,1.521836836956735328e-01,-2.645317646845303169e-02,-1.559626893505746636e+01,-4.624133076620376315e+00,-2.709624942847947970e+00,-2.493057640824306864e-01,3.682588996218087284e-03
2.860000000000000320e-01,1.959270564173369311e-01,2.649085761062021760e+00,-1.313833059262754954e+00,-1.317663628645455942e+00,-7.921111273855244717e-01,1.582963638684310448e+00,5.674305242784966063e-01,2.759639854106933132e+00,-1.308813611932742926e+00,-1.258774515789384152e+00,-2.814474789556826728e+00,1.538154513377605059e-01,-6.468511573086584837e-03,-1.571482738924918898e+01,-4.655775747365782813e+00,-2.727403969392594885e+00,-2.468880082418398458e-01,3.697021730993605912e-03
2.880000000000000338e-01,1.970661893224199268e-01,2.654603971081935132e+00,-1.316410998001265042e+00,-1.320231281989016736e+00,-7.977416404014985307e-01,1.583266854482376917e+00,5.659442507247356424e-01,2.759869343420517485e+00,-1.323093646611498864e+00,-1.240958457931228498e+00,-2.813924326062056114e+00,1.550151287365064412e-01,1.495097477882280888e-02,-1.584510801215132147e+01,-4.694399328278205275e+00,-2.747633957622115819e+00,-2.437398805870502061e-01,3.713963630296653225e-03
2.899999999999999800e-01,1.982021967322417366e-01,2.660123174491894726e+00,-1.319017292192948609e+00,-1.322762849342231872e+00,-8.033710193884280315e-01,1.583573779445755836e+00,5.645133416973905360e-01,2.759904808962288403e+00,-1.337459178089712264e+00,-1.223312860058886065e+00,-2.813385879675562418e+00,1.557240889445827281e-01,3.781735903220388023e-02,-1.598771755100036707e+01,-4.740266069917915992e+00,-2.770406603073225948e+00,-2.398302068553837540e-01,3.733480230898039796e-03
2.919999999999999818e-01,1.993351868451809228e-01,2.665642993221144064e+00,-1.321652062672631578e+00,-1.325258640619247474e+00,-8.089992876779775743e-01,1.583883517623729587e+00,5.631393253790992759e-01,2.759737358174222166e+00,-1.351947871351453445e+00,-1.205864281225133672e+00,-2.812859696873955428e+00,1.558719837033573918e-01,6.213019562433860082e-02,-1.614315358912553222e+01,-4.793526839934496131e+00,-2.795779820410998706e+00,-2.351430182516422440e-01,3.755438710894117710e-03
2.939999999999999836e-01,2.004652707636982445e-01,2.671163039074513357e+00,-1.324315484758061157e+00,-1.327718998302519937e+00,-8.146264692437992228e-01,1.584195083607953247e+00,5.618236500822535451e-01,2.759357430134831812e+00,-1.366598293131370045e+00,-1.188640907449588946e+00,-2.812345973871412053e+00,1.553847433602388306e-01,8.788506338581771049e-02,-1.631187905145518968e+01,-4.854297143066290232e+00,-2.823800799226454661e+00,-2.296671735577959506e-01,3.779643271573106082e-03
2.959999999999999853e-01,2.015925595953345639e-01,2.676682923827122806e+00,-1.327007733892182628e+00,-1.330144264962476397e+00,-8.202525880606520436e-01,1.584507491755257069e+00,5.605677639812741697e-01,2.758755462148504645e+00,-1.381449009668213712e+00,-1.171670928440186055e+00,-2.811844907035144114e+00,1.541882885213589627e-01,1.150775313349928219e-01,-1.649435673072759201e+01,-4.922692377777014627e+00,-2.854516698071858372e+00,-2.233915428281424975e-01,3.805898063211608090e-03
2.979999999999999871e-01,2.027171670807600412e-01,2.682202241951904487e+00,-1.329729055149112327e+00,-1.332534833680242059e+00,-8.258776686739437434e-01,1.584819622290712715e+00,5.593730440075556087e-01,2.757920876069312133e+00,-1.396538001802954065e+00,-1.154984579182367854e+00,-2.811356810216179891e+00,1.522029785125736390e-01,1.436976296106532436e-01,-1.669096956407686250e+01,-4.998765819857886150e+00,-2.887956641799878099e+00,-2.163112870617688310e-01,3.833990161281374334e-03
2.999999999999999889e-01,2.038392141670738733e-01,2.687720540568645511e+00,-1.332479884171668960e+00,-1.334891235776153540e+00,-8.315017371908547394e-01,1.585129988343547014e+00,5.582406721124261173e-01,2.756840314636202383e+00,-1.411901648242218421e+00,-1.138617692238921064e+00,-2.810882318798822332e+00,1.493339523797019563e-01,1.737202293785024276e-01,-1.690188193740491585e+01,-5.082400725891426774e+00,-2.924100400088777363e+00,-2.084387845057050215e-01,3.863659910411887128e-03
3.019999999999999907e-01,2.049588230230932062e-01,2.693237358769272838e+00,-1.335260688910108851e+00,-1.337214026006476431e+00,-8.371248199833351000e-01,1.585437040808597819e+00,5.571717971919082357e-01,2.755499949439967455e+00,-1.427576056080048783e+00,-1.122607049139522362e+00,-2.810422122677461498e+00,1.454837688483788249e-01,2.051176318775322638e-01,-1.712722118524833093e+01,-5.173451528812043954e+00,-2.962919375349437168e+00,-1.997893322765601776e-01,3.894639732872768201e-03
3.039999999999999925e-01,2.060761158710870677e-01,2.698752234983604836e+00,-1.338071939052638548e+00,-1.339503760936724186e+00,-8.427469434350024491e-01,1.585739225927638829e+00,5.561675657878165646e-01,2.753885921917126112e+00,-1.443597249564335661e+00,-1.106989507230246250e+00,-2.809976898541841628e+00,1.405548361655337419e-01,2.378620023427003294e-01,-1.736711123345301289e+01,-5.271770248377419144e+00,-3.004383963081870057e+00,-1.903786642241586946e-01,3.926648426597279667e-03
3.059999999999999942e-01,2.071912180646074408e-01,2.704264668854231335e+00,-1.340914206099220074e+00,-1.341761103120945542e+00,-8.483681346129773315e-01,1.586034717358940416e+00,5.552289865289039561e-01,2.751982607021268290e+00,-1.459996399690386193e+00,-1.091806365296266179e+00,-2.809546549533703530e+00,1.344407473084495985e-01,2.719175386873971534e-01,-1.762147632162100308e+01,-5.377067536810944404e+00,-3.048405572427940857e+00,-1.802480986891471793e-01,3.958606655334304114e-03
3.079999999999999960e-01,2.083042597675928420e-01,2.709774100437440936e+00,-1.343788217956598086e+00,-1.343986877936485191e+00,-8.539884216344009182e-01,1.586321270008453466e+00,5.543568561770507719e-01,2.749771665973077983e+00,-1.476797221717007780e+00,-1.077105745216963228e+00,-2.809129790443268604e+00,1.270215529286125855e-01,3.072361991467376097e-01,-1.788993392435678942e+01,-5.488836872581473791e+00,-3.094804995621400767e+00,-1.694782578025206821e-01,3.988208961161169783e-03
3.099999999999999978e-01,2.094153715527814763e-01,2.715279964725711981e+00,-1.346694715823389288e+00,-1.346181924597851909e+00,-8.596078327056478896e-01,1.586596603195417066e+00,5.535519534891139015e-01,2.747234529372838185e+00,-1.494022797294250138e+00,-1.062936348716812862e+00,-2.808725235071412030e+00,1.181761528138476069e-01,3.437689017947028747e-01,-1.817207544654140960e+01,-5.606553278141813479e+00,-3.143395324024801596e+00,-1.581531038382256171e-01,4.013045687002334168e-03
3.119999999999999996e-01,2.105246841833825766e-01,2.720781692833528886e+00,-1.349634445679099626e+00,-1.348347091730681901e+00,-8.652263960915768104e-01,1.586858410711238232e+00,5.528150756270051591e-01,2.744352409890113975e+00,-1.511695638076127279e+00,-1.049346441643316252e+00,-2.808331705687470592e+00,1.077819327548991402e-01,3.814652808340310286e-01,-1.846747876190311999e+01,-5.729686518511084792e+00,-3.193989571324451493e+00,-1.463547000684355948e-01,4.030809363982790737e-03
3.140000000000000013e-01,2.116323319986576357e-01,2.726278643066744500e+00,-1.352608243263409005e+00,-1.350483404652528918e+00,-8.708441411550632560e-01,1.587103907067517250e+00,5.521473653037181073e-01,2.741102428590324269e+00,-1.529827554159080449e+00,-1.036376106344055970e+00,-2.807951938512905254e+00,9.568785356086213778e-02,4.202508660507504601e-01,-1.877546769957865536e+01,-5.857607651479822763e+00,-3.246399292851214202e+00,-1.341294564003067125e-01,4.041111085530100372e-03
3.160000000000000031e-01,2.127384525168486973e-01,2.731770109006992797e+00,-1.355617024109528002e+00,-1.352592045753634453e+00,-8.764610982350797830e-01,1.587329880713547858e+00,5.515502724145865399e-01,2.737458069251671677e+00,-1.548420842344219839e+00,-1.024058150332922468e+00,-2.807592149130217596e+00,8.171760726631677185e-02,4.600297592814135972e-01,-1.909514025230565082e+01,-5.989599987703554618e+00,-3.300434747511022948e+00,-1.214920881966526783e-01,4.045267477156735958e-03
3.180000000000000049e-01,2.138431833669092730e-01,2.737255381981812619e+00,-1.358661706529564972e+00,-1.354674202894471602e+00,-8.820772977045925334e-01,1.587533105260529709e+00,5.510252575529099861e-01,2.733392688979788598e+00,-1.567477468121581730e+00,-1.012425127769644773e+00,-2.807258674294521583e+00,6.569400589270993351e-02,5.007053161104365602e-01,-1.942558654781836935e+01,-6.124943781946389443e+00,-3.355906149060370769e+00,-1.084562070225840030e-01,4.044654561424004466e-03
3.200000000000000067e-01,2.149466626613170950e-01,2.742733739671133097e+00,-1.361743209344479233e+00,-1.356731087037604588e+00,-8.876927699890724277e-01,1.587710265799959108e+00,5.505736186005982802e-01,2.728879496929657922e+00,-1.586996616271272753e+00,-1.001511471543913068e+00,-2.806955805253462888e+00,4.744035537807834296e-02,5.421821177837440331e-01,-1.976584441194338027e+01,-6.262871548464776339e+00,-3.412578363698666184e+00,-9.506354632081051581e-02,4.039178102208601864e-03
3.220000000000000084e-01,2.160490326721035692e-01,2.748204342350264451e+00,-1.364862455752656745e+00,-1.358764107883106087e+00,-8.933075459656635298e-01,1.587857285925846407e+00,5.501952537024501488e-01,2.723890429499528754e+00,-1.606953550304675238e+00,-9.913677764628427980e-01,-2.806670236621086723e+00,2.678421061549914745e-02,5.843752893936325910e-01,-2.011450173936734132e+01,-6.402205110165994029e+00,-3.469826151815530224e+00,-8.159776012554985358e-02,4.016095851198337417e-03
3.240000000000000102e-01,2.171504377924760587e-01,2.753666290423696594e+00,-1.368020371184763162e+00,-1.360774776477800430e+00,-8.989216567418407688e-01,1.587969700904405812e+00,5.498893472033683505e-01,2.718396774041751396e+00,-1.627311335014589577e+00,-9.820528791490097387e-01,-2.806379689558400781e+00,3.555293264678727888e-03,6.272053328966499253e-01,-2.046991698112071134e+01,-6.541556856743301118e+00,-3.526825338240541896e+00,-6.846587056026526286e-02,3.956215670525211649e-03
3.260000000000000120e-01,2.182510224325684423e-01,2.759118683818174489e+00,-1.371217881089278112e+00,-1.362764604677224600e+00,-9.045351334269186028e-01,1.588043042903131363e+00,5.496550777523804276e-01,2.712369812729519936e+00,-1.648032937852265789e+00,-9.736256819918246430e-01,-2.806061813621369971e+00,-2.241665772462884260e-02,6.705927931548596455e-01,-2.083044675735301610e+01,-6.679537506685409909e+00,-3.582750160366373393e+00,-5.607588418306748423e-02,3.840293954435250717e-03
3.280000000000000138e-01,2.193509324562579466e-01,2.764560584266260612e+00,-1.374455873556626129e+00,-1.364735127895288391e+00,-9.101480081834265601e-01,1.588072595976478985e+00,5.494929645544675001e-01,2.705775495768605321e+00,-1.669080848867829703e+00,-9.661045191000374732e-01,-2.805710165317949478e+00,-5.134998664092194076e-02,7.144166683492375602e-01,-2.119459923097556242e+01,-6.815038844911014415e+00,-3.637041293013887788e+00,-4.461520959126361041e-02,3.659224705801041727e-03
3.300000000000000155e-01,2.204503202466542022e-01,2.769990882220818573e+00,-1.377735069147087543e+00,-1.366687987192120701e+00,-9.157603178969828672e-01,1.588052531529650535e+00,5.494095384639308133e-01,2.698555862450625398e+00,-1.690415417232361772e+00,-9.593257983627708763e-01,-2.805389635005960169e+00,-8.367866440562862773e-02,7.583696428583194260e-01,-2.156156215006614119e+01,-6.948213083259493494e+00,-3.690334234972021399e+00,-3.328199598017361760e-02,3.449363474877358785e-03
3.320000000000000173e-01,2.215493400135536695e-01,2.775408420142194910e+00,-1.381056141479050536e+00,-1.368624853229887695e+00,-9.213721007766128013e-01,1.587976709203883452e+00,5.494130147972882128e-01,2.690646252236700509e+00,-1.711996392243321452e+00,-9.530749520006054354e-01,-2.805185100765135608e+00,-1.198970804537471402e-01,8.020921959927977962e-01,-2.193071368224876139e+01,-7.079565604790205136e+00,-3.743599274323352599e+00,-2.099720237713404922e-02,3.259804122952807918e-03
3.340000000000000191e-01,2.226481459688866571e-01,2.780812040206480873e+00,-1.384419763828012684e+00,-1.370547396216812652e+00,-9.269833950187387206e-01,1.587838986709260158e+00,5.495115801938399436e-01,2.681982056803579262e+00,-1.733783412377550404e+00,-9.471378842592018676e-01,-2.805181111908442659e+00,-1.604989696170230629e-01,8.452254054752669221e-01,-2.230142882317650432e+01,-7.209596563651450296e+00,-3.797800725106248887e+00,-6.686083301873473050e-03,3.139424139878511152e-03
3.360000000000000209e-01,2.237468929791789074e-01,2.786200494296124042e+00,-1.387826500376873717e+00,-1.372457140486097460e+00,-9.325942347615896466e-01,1.587632608097940823e+00,5.497042087981235392e-01,2.672515499414918949e+00,-1.755700627615307985e+00,-9.414525039751729940e-01,-2.805356591436629632e+00,-2.057674295491770944e-01,8.876028571896913411e-01,-2.267206351477532777e+01,-7.337125609809167059e+00,-3.851984007257841736e+00,9.345795696529423172e-03,3.067591697151160739e-03
3.380000000000000226e-01,2.248457374989108193e-01,2.791572315254208903e+00,-1.391276650665621561e+00,-1.374355256499177003e+00,-9.382046442988037915e-01,1.587349328776437973e+00,5.499675265705119553e-01,2.662239634337677963e+00,-1.777586097960390799e+00,-9.363254612088428575e-01,-2.805434228144755515e+00,-2.554745824768223095e-01,9.295251340663314155e-01,-2.303850162154243009e+01,-7.456895732354942297e+00,-3.900539580265507844e+00,2.344443350611252752e-02,2.855055380840159328e-03
3.400000000000000244e-01,2.259448362186766146e-01,2.796926003354727186e+00,-1.394770474884333034e+00,-1.376242862100083286e+00,-9.438146464602208408e-01,1.586980682803663001e+00,5.502748365066820746e-01,2.651153587024796643e+00,-1.799265082647170777e+00,-9.321182343707721252e-01,-2.805098611212567761e+00,-3.093165733886658053e-01,9.713622571019482344e-01,-2.339625943332276137e+01,-7.563043759268336608e+00,-3.937165754799339723e+00,3.145794815435180858e-02,2.287491631314773899e-03
3.420000000000000262e-01,2.270443460174007000e-01,2.802260053804505713e+00,-1.398308224879883710e+00,-1.378121063647995248e+00,-9.494242646890067583e-01,1.586518176994715423e+00,5.506005570154567375e-01,2.639253135405314143e+00,-1.820566575341680648e+00,-9.291639998734214645e-01,-2.804047842237167742e+00,-3.670198418939194518e-01,1.013454159635851948e+00,-2.374099744362186470e+01,-7.649954070528130146e+00,-3.955794630045822657e+00,2.942360177000036964e-02,1.159440755537811648e-03
3.440000000000000280e-01,2.281444321050829505e-01,2.807572737656329753e+00,-1.401889783424577374e+00,-1.379990459451556184e+00,-9.550335495597259694e-01,1.585952112991932283e+00,5.509684485535399912e-01,2.626385974444185312e+00,-1.841484768144644679e+00,-9.265439509059714140e-01,-2.802577765765445594e+00,-4.296509575987281226e-01,1.054809800345280157e+00,-2.407475522077766783e+01,-7.722961896608170562e+00,-3.960700306462085152e+00,2.174574211088442510e-02,-3.424499148197868593e-04
3.460000000000000298e-01,2.292452711374166618e-01,2.812862018007749043e+00,-1.405514526235628336e+00,-1.381850949831447073e+00,-9.606425889215641778e-01,1.585271136704553774e+00,5.514700604163602637e-01,2.612196354527137832e+00,-1.862240811917674321e+00,-9.216192367508162508e-01,-2.801805438721182817e+00,-5.001176349366348584e-01,1.092609571186275108e+00,-2.440833625950699570e+01,-7.802447353023876708e+00,-3.970365298754600758e+00,2.432388267369132301e-02,-1.492834696449569631e-03
3.480000000000000315e-01,2.303470406011152716e-01,2.818125835597073525e+00,-1.409181792215269402e+00,-1.383702384430591792e+00,-9.662514733300490155e-01,1.584463773826512378e+00,5.522018637408881991e-01,2.596313754847463073e+00,-1.883072335973387634e+00,-9.116261220675364596e-01,-2.802907542551424491e+00,-5.814612655551218978e-01,1.123901100140445308e+00,-2.475318036365567309e+01,-7.909882896472340441e+00,-4.004303730443598219e+00,5.389214904367041481e-02,-1.527255450722393151e-03
3.500000000000000333e-01,2.314499145548084280e-01,2.823362105983478809e+00,-1.412890930218504204e+00,-1.385544410624969247e+00,-9.718602846980072263e-01,1.583518440844148056e+00,5.532439016127357334e-01,2.578405525374134033e+00,-1.904170886152212638e+00,-8.941161016994401134e-01,-2.806872503420132059e+00,-6.762906301367106465e-01,1.146086621488782598e+00,-2.511879008848527661e+01,-8.063859409529069211e+00,-4.078577408886484790e+00,1.247869759195989331e-01,1.942474794004560312e-04
3.519999999999999796e-01,2.325540130642513859e-01,2.828568348150688028e+00,-1.416641445858107584e+00,-1.387373490053328995e+00,-9.774689688143297639e-01,1.582421834206453992e+00,5.544174726410581178e-01,2.558735486942504078e+00,-1.925002186124597392e+00,-8.716055970701946931e-01,-2.811723696214015078e+00,-7.804008164189911723e-01,1.162153476308055655e+00,-2.548415600948764848e+01,-8.237582514448481774e+00,-4.154873601293765262e+00,2.135807772044489850e-01,2.350762450010085783e-03
3.539999999999999813e-01,2.336594132064545026e-01,2.833741765331853291e+00,-1.420432969556280289e+00,-1.389183547892975268e+00,-9.830773630869935609e-01,1.581159280880860329e+00,5.553378649135503053e-01,2.538042366271522798e+00,-1.944454065084666894e+00,-8.505640690183833286e-01,-2.813123742971478158e+00,-8.841618980257559546e-01,1.179535828189506530e+00,-2.580397527974349714e+01,-8.368122410331853445e+00,-4.151586950727352843e+00,2.667785206354926775e-01,2.060145961143023882e-03
3.559999999999999831e-01,2.347661908670697906e-01,2.838879552009647256e+00,-1.424265135194100695e+00,-1.390968439027584047e+00,-9.886853019203861725e-01,1.579716069881989204e+00,5.556146572935215522e-01,2.517078051273234252e+00,-1.961398336883185767e+00,-8.375705300155297239e-01,-2.806669841559207512e+00,-9.777936037214307596e-01,1.205791076699712860e+00,-2.603227180225543336e+01,-8.391547865685460295e+00,-3.985912320238939266e+00,2.300519068155244262e-01,-3.603012320927700268e-03
3.579999999999999849e-01,2.358744344171678220e-01,2.843978734866863700e+00,-1.428137330650929071e+00,-1.392721518673952330e+00,-9.942926927193147524e-01,1.578077504591224756e+00,5.549998418006381051e-01,2.496198949152856450e+00,-1.975272075976429509e+00,-8.356596853002684622e-01,-2.789700224058789146e+00,-1.055376124046137898e+00,1.244462834750012847e+00,-2.614109033173693675e+01,-8.278230914479888014e+00,-3.605932483583218939e+00,7.426632866030521973e-02,-1.642200131147705799e-02
3.599999999999999867e-01,2.369843258199771374e-01,2.849035082738815117e+00,-1.432047099748531505e+00,-1.394432396487619075e+00,-9.998999901082628039e-01,1.576228996084876099e+00,5.543129561058013355e-01,2.472796897552553386e+00,-1.989749616331393467e+00,-8.212976991851732578e-01,-2.772604118346749136e+00,-1.139928121839842490e+00,1.269006901749378580e+00,-2.623756203182245983e+01,-8.255684874581680432e+00,-3.191269600270902451e+00,-4.085796118762638485e-02,-2.961863439479200943e-02
3.619999999999999885e-01,2.380960895079977102e-01,2.854043793687914388e+00,-1.435991149531472111e+00,-1.396088982502449838e+00,-1.005507897023341535e+00,1.574156004307928791e+00,5.548579575968043409e-01,2.442918502698119276e+00,-2.010428031284775319e+00,-7.588947409452329040e-01,-2.771692896875672218e+00,-1.267599657688927905e+00,1.239226143312420758e+00,-2.649011616603556973e+01,-8.668105950254281211e+00,-3.026611354240549723e+00,1.300958758888602906e-01,-3.252978799895868411e-02
3.639999999999999902e-01,2.392099501254602301e-01,2.859000062930735275e+00,-1.439966182872443934e+00,-1.397679178277464906e+00,-1.011117117638683727e+00,1.571843989449041468e+00,5.579412188651328153e-01,2.402603663790501276e+00,-2.042913980631211768e+00,-6.128008710855397112e-01,-2.803307458599480828e+00,-1.474606262459815520e+00,1.114855353633362522e+00,-2.706748761666636582e+01,-9.860272105738090431e+00,-3.397169270108317818e+00,8.329719477885322299e-01,-1.447296884095139458e-02
3.659999999999999920e-01,2.403258459075072462e-01,2.863898868131074860e+00,-1.443972533701744387e+00,-1.399180439011030286e+00,-1.016727692725837962e+00,1.569278668408466748e+00,5.636854102439036174e-01,2.350946162756132995e+00,-2.090125913048523021e+00,-3.706807499965776298e-01,-2.870418908910516098e+00,-1.768129901318406860e+00,8.720684057955927493e-01,-2.800026917194901799e+01,-1.199119870712574354e+01,-4.464648380824678853e+00,2.199947095439005018e+00,3.079429781024980994e-02
3.679999999999999938e-01,2.414425831504636299e-01,2.868734327146117202e+00,-1.448024886524529542e+00,-1.400528934056781027e+00,-1.022337041173288386e+00,1.566446772655587960e+00,5.675350036703281642e-01,2.299109260283248357e+00,-2.144357996618945439e+00,-1.123424153531333569e-01,-2.923158590202248774e+00,-2.040606808798213212e+00,5.520092884211185158e-01,-2.877309189853541227e+01,-1.448573483626826253e+01,-5.902634458681466967e+00,3.913965236325804398e+00,9.196675665393239107e-02
3.699999999999999956e-01,2.425586885494884770e-01,2.873500345451480698e+00,-1.452141470593602879e+00,-1.401650634716889110e+00,-1.027941934235963028e+00,1.563335284269367076e+00,5.637789053349608892e-01,2.261237509227880693e+00,-2.195280086879551451e+00,5.964568153211363688e-02,-2.898605850272034878e+00,-2.156129779357638832e+00,2.118703133792947391e-01,-2.873572839598073969e+01,-1.658738253955064224e+01,-7.264142524119995947e+00,5.547004883163636713e+00,1.534046727371343732e-01
3.719999999999999973e-01,2.436726887997409108e-01,2.878190828522788625e+00,-1.456340515161766325e+00,-1.402471512293526956e+00,-1.033539143168790808e+00,1.559931185328767844e+00,5.467060214283562258e-01,2.251475462446062892e+00,-2.232562039367417484e+00,4.271508934648310385e-02,-2.733840036917228211e+00,-1.978791607455085977e+00,-9.115620746052383039e-02,-2.723795126384020193e+01,-1.753964386335787751e+01,-8.102187597581581358e+00,6.671044548667211416e+00,1.994683111068938919e-01
3.739999999999999991e-01,2.447831105963799714e-01,2.882799681835662486e+00,-1.460640249481823361e+00,-1.402917538088866989e+00,-1.039125439226700642e+00,1.556221457912752681e+00,5.106052581410690516e-01,2.283967672793829617e+00,-2.245873709619617742e+00,-2.657026432227046486e-01,-2.365940497935185238e+00,-1.372685087548960681e+00,-2.998779622289824420e-01,-2.362953310166900067e+01,-1.658602085407497384e+01,-7.969784699507537873e+00,6.858062745551235295e+00,2.145179368102489992e-01
3.760000000000000009e-01,2.458884806345648100e-01,2.887320810865721121e+00,-1.465058902806576802e+00,-1.402914683405081409e+00,-1.044697593664620783e+00,1.552193084100284670e+00,4.497655216636538000e-01,2.372858693127214202e+00,-2.224884953173226876e+00,-9.681759674881302846e-01,-1.731986581123260649e+00,-2.019030140976649790e-01,-3.571026390567261233e-01,-1.726024650902233759e+01,-1.297001555808691897e+01,-6.419948850339181057e+00,5.680037986530416916e+00,1.829138148942377473e-01
3.780000000000000027e-01,2.469873256094546055e-01,2.891748121088589585e+00,-1.469614704388829463e+00,-1.402388919544342638e+00,-1.050252377737479925e+00,1.547833045970326893e+00,3.584757181866653486e-01,2.532293076302251311e+00,-2.159265625565320867e+00,-2.167273334762473525e+00,-7.690576342788097985e-01,1.669461818440396428e+00,-2.056379260744003179e-01,-7.479864085455420586e+00,-5.935130021778718401e+00,-3.005695070517830025e+00,2.708948784319467951e+00,8.901621040589834111e-02
3.800000000000000044e-01,2.482761099426575857e-01,2.899318670302489576e+00,-1.478623675145043670e+00,-1.411204064754530974e+00,-1.058240402117226697e+00,1.548970169724285029e+00,2.192017582122152419e-01,2.228352285545916800e+00,-1.395809972626973039e+00,-2.054293807988030185e+00,7.843572569545967932e-01,3.012200191630092228e+00,-9.299372971478662819e+00,-3.234012086277884634e+01,6.028490591987096359e+00,-2.006540347013774817e+00,-4.045979725100944613e+00,-6.992265273686952554e-02
3.820000000000000062e-01,2.495985809778142883e-01,2.909759324896049382e+00,-1.491051664118671738e+00,-1.429679027731065144e+00,-1.066808125613546654e+00,1.557478033930785211e+00,8.340810223414985014e-02,1.359690383053149265e+00,-8.020212805528003763e-04,5.804305447448346311e-02,2.342181886742336516e+00,2.724883184199593522e+00,-9.047059331150450134e+00,-3.232085732106587983e+01,-1.157528419462462654e+00,-5.572258397250195117e+00,-5.989733491205556426e+00,-2.007654494462135855e-02
3.840000000000000080e-01,2.506161944260437147e-01,2.918163568548130193e+00,-1.500174961551971942e+00,-1.443192697848492356e+00,-1.071801363015479458e+00,1.565209207635897881e+00,-1.237393606416849201e-02,7.022729125555802199e-01,1.042849284426394574e+00,1.598317839581534949e+00,3.395076039559381087e+00,2.422063390711058251e+00,-8.778862622060700005e+00,-3.230231664339838460e+01,-6.729100784133257740e+00,-8.160437597351149819e+00,-7.218476226149290298e+00,1.786071892795529706e-02
3.860000000000000098e-01,2.513631284295246293e-01,2.924734601435540871e+00,-1.506334717351700325e+00,-1.452281835848871383e+00,-1.073658614208438333e+00,1.572190071972087599e+00,-7.279799659704386250e-02,2.338403361916642775e-01,1.771845490526926969e+00,2.628182742224921320e+00,4.001037387337659013e+00,2.109566016011011236e+00,-8.496238891792797787e+00,-3.228436439810276681e+01,-1.084590716671030997e+01,-9.876654966012139880e+00,-7.816754434245835270e+00,4.509619307366481006e-02
3.880000000000000115e-01,2.518735611304358524e-01,2.929675623735091605e+00,-1.509872081424615597e+00,-1.457483202474260997e+00,-1.072818379077837170e+00,1.578447008071818480e+00,-1.025177192787801311e-01,-6.786688390014082584e-02,2.222888143054101651e+00,3.209289957296441287e+00,4.218063602009096691e+00,1.793216264945979521e+00,-8.200644187930143048e+00,-3.226686615350547527e+01,-1.366762823187864839e+01,-1.082648752192867114e+01,-7.869114619808883937e+00,6.283693168531157003e-02
3.900000000000000133e-01,2.521816706709565370e-01,2.933189835623593034e+00,-1.511128203677475357e+00,-1.459333558466720193e+00,-1.069719157509090079e+00,1.584006397067555749e+00,-1.061867440236816812e-01,-2.251082855813784367e-01,2.432678788040977036e+00,3.403291679687895588e+00,4.104152355505624961e+00,1.478839342362489484e+00,-7.893534558056122918e+00,-3.224968747793296586e+01,-1.535394464432330075e+01,-1.111551228379625300e+01,-7.460103287152128893e+00,7.228998895569992145e-02
3.920000000000000151e-01,2.523216351932652812e-01,2.935480437277853571e+00,-1.510444234017037202e+00,-1.458369664568306856e+00,-1.064799449387610286e+00,1.588894620091762855e+00,-8.845871074605238249e-02,-2.601434067135930950e-01,2.437918971520611766e+00,3.271840104291083406e+00,3.717301319759170664e+00,1.172260453107064615e+00,-7.576366049754130749e+00,-3.223269393971165186e+01,-1.606453706872930098e+01,-1.084930627031039130e+01,-6.674266940589260066e+00,7.466241907763430941e-02
3.940000000000000169e-01,2.523276328395407386e-01,2.936750628874680302e+00,-1.508161322350057398e+00,-1.455128281521079536e+00,-1.058497754598810348e+00,1.593138058276903690e+00,-5.398725936019634075e-02,-1.952317851583277586e-01,2.275310239526060485e+00,2.876587425997798597e+00,3.115508166701657533e+00,8.793048020262301812e-01,-7.250594710607551008e+00,-3.221575110716795365e+01,-1.595908616978165639e+01,-1.013344650016657766e+01,-5.596152084433963836e+00,7.116127624391899165e-02
3.960000000000000187e-01,2.522338417519620624e-01,2.937203610590886527e+00,-1.504620618583294434e+00,-1.450146170067097229e+00,-1.051252573028105042e+00,1.596763092755443258e+00,-7.426029780417873344e-03,-5.263295877712717563e-02,1.981554138090385386e+00,2.279185839699847005e+00,2.356770568265018184e+00,6.057975939665130038e-01,-6.917676588199778820e+00,-3.219872454862833422e+01,-1.519727261216542047e+01,-9.073509992060333929e+00,-4.310305222999938124e+00,6.299361464735850347e-02
3.980000000000000204e-01,2.520744400727079615e-01,2.937042582603279772e+00,-1.500163272623506350e+00,-1.443960090948419150e+00,-1.043502404560907593e+00,1.599796104659845675e+00,4.657133807897912564e-02,1.453935345684659319e-01,1.593352213246642890e+00,1.541287540289025371e+00,1.499086196381179681e+00,3.575640337744382391e-01,-6.579067730114205759e+00,-3.218147983241922105e+01,-1.393877706056560761e+01,-7.775073764687156164e+00,-2.901272860600871972e+00,5.136648848075715118e-02
4.000000000000000222e-01,2.518836059439571451e-01,2.936470745088668455e+00,-1.495130434377449413e+00,-1.437106804907102520e+00,-1.035685749082631224e+00,1.602263475122574610e+00,1.033512043036902001e-01,3.765881570169065107e-01,1.147406011027891637e+00,7.245447226571350985e-01,6.004527229820725287e-01,1.404293262965320144e-01,-6.236224183934218068e+00,-3.216388252686702742e+01,-1.234328017966724822e+01,-6.343714836742558205e+00,-1.453601501550462194e+00,3.748695193691935212e-02
4.020000000000000240e-01,2.516955175078886553e-01,2.935691298223863654e+00,-1.489863253751881889e+00,-1.430123072685206775e+00,-1.028241106478689826e+00,1.604191585276095067e+00,1.582599289794118791e-01,6.186913707066529211e-01,6.804170774671867150e-01,-1.093904183040314004e-01,-2.811321800003822036e-01,-3.978132362068187433e-02,-5.890601997243209098e+00,-3.214579820029820212e+01,-1.057046263415536380e+01,-4.885010226922032572e+00,-5.183765016238917056e-02,2.256205920864938486e-02
4.040000000000000258e-01,2.515443529066813122e-01,2.934907442185674231e+00,-1.484702880653561596e+00,-1.423545655024790468e+00,-1.021606976634496622e+00,1.605606816252871161e+00,2.066438721918396060e-01,8.494436377761599433e-01,2.290869585975884304e-01,-8.988656877026706127e-01,-1.087670840634253899e+00,-1.772427111306770775e-01,-5.543657217624568645e+00,-3.212709242103920104e+01,-8.780005088714993633e+00,-3.504536953921091325e+00,1.219472189249652505e+00,7.798864488751727428e-03
4.060000000000000275e-01,2.514642902825137694e-01,2.934322377150909045e+00,-1.479990464989244803e+00,-1.417911312667912149e+00,-1.016221859435465502e+00,1.606535549185367007e+00,2.438493940266694415e-01,1.046585420363884911e+00,-1.698827995478454644e-01,-1.582228890646982356e+00,-1.761165586987613274e+00,-2.661296313869279118e-01,-5.196845892661687394e+00,-3.210763075741641615e+01,-7.131588208031153897e+00,-2.307872036435239860e+00,2.275781512371969129e+00,-5.595578029969256600e-03
4.080000000000000293e-01,2.514895077775650134e-01,2.934139303296378287e+00,-1.476067156665690216e+00,-1.413756806356630591e+00,-1.012524254767009690e+00,1.607004165206046942e+00,2.652228545695970441e-01,1.187857180608282270e+00,-4.797906509360564398e-01,-2.097827832245167556e+00,-2.243618747128530266e+00,-3.006168795429087215e-01,-4.851624069937956030e+00,-3.208727877775631043e+01,-5.784892656788884757e+00,-1.400592493159985796e+00,3.032543814890865885e+00,-1.641421415470916204e-02
