prominentjohnson/z1_sdk/examples/robust_nominal_trajectory.csv
t,q0,q1,q2,q3,q4,q5,qdot0,qdot1,qdot2,qdot3,qdot4,qdot5,tau0,tau1,tau2,tau3,tau4,tau5
0.000000000000000000e+00,7.857318390577183731e-01,2.336597915022043281e+00,-1.027867670463287419e+00,-1.308730214722247487e+00,-7.857318400051321872e-01,1.570800020724348212e+00,-2.516885998718230599e-22,1.767814737584701676e-23,2.208999371379598825e-20,-2.377375478396798174e-20,-1.093997488725197220e-23,1.320610333781457098e-23,3.883320111297609234e+00,-2.485305615366420895e+01,-1.460129846262868547e+01,-5.216567211817323191e+00,7.641093232803202184e-01,-1.631671262830699382e-03
2.000000000000000042e-03,7.856966145941366442e-01,2.336628728063099292e+00,-1.027705727452324025e+00,-1.308892158177002552e+00,-7.855814461106108704e-01,1.570825020864257349e+00,2.146133578121989238e-02,-1.892996366452165402e-02,-9.999964263281474475e-02,9.999992364683224499e-02,-9.270801674759930611e-02,-1.527364629242921462e-02,3.745908390898780915e+00,-2.481423445990441934e+01,-1.458290182142821045e+01,-5.209049136678832959e+00,7.482205565585143825e-01,-1.079786305935191357e-03
4.000000000000000083e-03,7.857050922858682673e-01,2.336621433147116456e+00,-1.027743783768180430e+00,-1.308854101761204536e+00,-7.856168900343889483e-01,1.570819024877510461e+00,4.243463414457085414e-02,-3.775744799413130459e-02,-1.999993448657695905e-01,1.999999164726280476e-01,-1.851877550209243550e-01,-3.023463099677650354e-02,3.612972350821663792e+00,-2.477701170344887061e+01,-1.456382343921812961e+01,-5.201126267575221007e+00,7.325433300289898586e-01,-5.458776242699654247e-04
6.000000000000000125e-03,7.857563034842524052e-01,2.336576291346626366e+00,-1.027981839435653244e+00,-1.308616045428996344e+00,-7.858376795958114114e-01,1.570782618772378569e+00,6.292337866694439064e-02,-5.645613029306942310e-02,-2.999990624148392016e-01,2.999999350854400948e-01,-2.774225039406590376e-01,-4.490139651295717294e-02,3.484450059414369250e+00,-2.474138288406458486e+01,-1.454409971825407588e+01,-5.192803997278464756e+00,7.170951989050560194e-01,-3.067169149314021882e-05
8.000000000000000167e-03,7.858492795406288867e-01,2.336493563734161505e+00,-1.028419894479539298e+00,-1.308177989134521324e+00,-7.862433226142231391e-01,1.570716388557131582e+00,8.293105292523199334e-02,-7.499968786557652256e-02,-3.999987509959984089e-01,3.999999360933210735e-01,-3.693955526274872447e-01,-5.929238524088650819e-02,3.360279585025010896e+00,-2.470734300151855578e+01,-1.452376706079168045e+01,-5.184087718560534519e+00,7.018937184000226814e-01,4.651050187371659527e-04
1.000000000000000021e-02,7.859830518063372073e-01,2.336373511382254797e+00,-1.029057948924636090e+00,-1.307539932831923268e+00,-7.868333269089692328e-01,1.570620920240040519e+00,1.024611404963251676e-01,-9.336179801589308824e-02,-4.999983663252218768e-01,4.999998761043237261e-01,-4.610901902020926313e-01,-7.342603958047982937e-02,3.240398996001702336e+00,-2.467488705557780548e+01,-1.450286186908658337e+01,-5.174982824193406827e+00,6.869564437271997726e-01,9.407260327628343480e-04
1.200000000000000025e-02,7.861566533332633444e-01,2.336216408213152018e+00,-1.029896002774122188e+00,-1.306701876496528358e+00,-7.876071921417957533e-01,1.570496790826516609e+00,1.215170944829555566e-01,-1.115161737071582310e-01,-5.999978831919486888e-01,5.999997308187088318e-01,-5.524892641269855131e-01,-8.732073525248845725e-02,3.124746704008587450e+00,-2.464400739563855325e+01,-1.448141810019908959e+01,-5.165493969885338821e+00,6.723007774583247276e-01,1.395462003460308737e-03
1.400000000000000029e-02,7.863691314373559837e-01,2.336022635931583213e+00,-1.030934055849849651e+00,-1.305663820281337317e+00,-7.885643495490807231e-01,1.570344501806614446e+00,1.401021123727421991e-01,-1.294368270068474991e-01,-6.999974363724950077e-01,6.999996360808379281e-01,-6.435719172669348564e-01,-1.009942886775195420e-01,3.013264000420562194e+00,-2.461467413997304021e+01,-1.445944920106274623e+01,-5.155619628905885321e+00,6.579428418183462801e-01,1.828559481279767125e-03
1.600000000000000033e-02,7.866195405644760275e-01,2.335792630124093439e+00,-1.032172107883664314e+00,-1.304425764427530554e+00,-7.897041961448151293e-01,1.570164516920731224e+00,1.582192637731899831e-01,-1.470979196223922147e-01,-7.999972400409982587e-01,7.999998072119169912e-01,-7.343154393462578700e-01,-1.144642365952921875e-01,2.905893629275250412e+00,-2.458684629741064853e+01,-1.443695843040020144e+01,-5.145355188818943937e+00,6.438981349264030207e-01,2.239252438899164144e-03
1.800000000000000211e-02,7.869069388477155647e-01,2.335526857653415167e+00,-1.033610158888404129e+00,-1.302987708893884822e+00,-7.910261009408624533e-01,1.569957278727897476e+00,1.758714948372627762e-01,-1.644737592172745844e-01,-8.999972528698476637e-01,9.000002042980671524e-01,-8.246954398880457227e-01,-1.277479120384426847e-01,2.802585949606811955e+00,-2.456047859220264229e+01,-1.441397686769961162e+01,-5.134696824516466584e+00,6.301900661611071763e-01,2.626493413793854793e-03
2.000000000000000042e-02,7.872303939895464175e-01,2.335225866680775475e+00,-1.035248209618467197e+00,-1.301349652893941222e+00,-7.925293598887261926e-01,1.569723174753336670e+00,1.930614291657687664e-01,-1.815390348273635823e-01,-9.999967592918389547e-01,1.000000113886363451e+00,-9.146831407098472422e-01,-1.408621171443080744e-01,2.703311341341646301e+00,-2.453551468381980882e+01,-1.439060903821257931e+01,-5.123642843759562915e+00,6.168628861597178492e-01,2.988494212120155601e-03
2.199999999999999872e-02,7.875889755768092915e-01,2.334890221792123910e+00,-1.037086260846104890e+00,-1.299511595622509841e+00,-7.942132533502205272e-01,1.569462581449085237e+00,2.097916185545146694e-01,-1.982684939974501959e-01,-1.099995026650814056e+00,1.099998805518506817e+00,-1.004248809469237891e+00,-1.538235457507509119e-01,2.608043494089027359e+00,-2.451189513733693559e+01,-1.436696193082860518e+01,-5.112191040591523183e+00,6.039626131189451685e-01,3.323394904208848335e-03
2.400000000000000050e-02,7.879817600093799168e-01,2.334520554086399358e+00,-1.039124311210250617e+00,-1.297473538401919146e+00,-7.960769846946980088e-01,1.569175831182483272e+00,2.260642130433409558e-01,-2.146368113395373534e-01,-1.199993244161796868e+00,1.199997469977248210e+00,-1.093357718157688341e+00,-1.666484357010430128e-01,2.516757213339646526e+00,-2.448953363005081130e+01,-1.434294568457172225e+01,-5.100321340517163016e+00,5.915015913294064953e-01,3.630347300423676735e-03
2.600000000000000228e-02,7.884078301157905200e-01,2.334117557422974443e+00,-1.041362357336880429e+00,-1.295235484561985784e+00,-7.981196846428424418e-01,1.568863214723366539e+00,2.418809835825606602e-01,-2.306185926475931847e-01,-1.299994414482048333e+00,1.299999110892995580e+00,-1.181970424948176834e+00,-1.793525945703620117e-01,2.429428357509336944e+00,-2.446831846844635194e+01,-1.431828469455981256e+01,-5.087996808617619493e+00,5.794603910043588657e-01,3.909457870382544546e-03
2.800000000000000058e-02,7.888662700925764826e-01,2.333681944344383030e+00,-1.043800397748289921e+00,-1.292797435535383732e+00,-8.003404556713764606e-01,1.568525011131379099e+00,2.572436137611633367e-01,-2.461888034014538817e-01,-1.399999825327061576e+00,1.400005018100191734e+00,-1.270045474886178249e+00,-1.919516969943068918e-01,2.346055432894693649e+00,-2.444814791071133797e+01,-1.429288887299905220e+01,-5.075194106761567348e+00,5.678612353068286378e-01,4.159467165276294412e-03
2.999999999999999889e-02,7.893561701252002072e-01,2.333214514430934639e+00,-1.046438441557373311e+00,-1.290159382160932067e+00,-8.027382640219968835e-01,1.568161445386460295e+00,2.721533981243875466e-01,-2.613243522832417454e-01,-1.500001188249157957e+00,1.500006911538952270e+00,-1.357531605397082952e+00,-2.044607948778214279e-01,2.266758172477217670e+00,-2.442897889565647063e+01,-1.426770186683811303e+01,-5.061966340862405822e+00,5.569563647536122097e-01,4.371591105504063143e-03
3.200000000000000067e-02,7.898766224213198406e-01,2.332716096760720781e+00,-1.049276501183648014e+00,-1.287321311969530813e+00,-8.053120293802369378e-01,1.567772724122577177e+00,2.866114910068501831e-01,-2.760027654114444173e-01,-1.599987224593794943e+00,1.599993522932677603e+00,-1.444374195753759471e+00,-2.168947285554366777e-01,2.191695337876486960e+00,-2.441078631853701708e+01,-1.424399077435097816e+01,-5.048390452721020161e+00,5.470704674838223758e-01,4.534672189852378618e-03
3.400000000000000244e-02,7.904267212554121347e-01,2.332187560133990090e+00,-1.052314568760626123e+00,-1.284283232759569904e+00,-8.080605750330737136e-01,1.567359027698717489e+00,3.006181260775123709e-01,-2.901987999958574593e-01,-1.699964970801543185e+00,1.699971890014075893e+00,-1.530511102955000702e+00,-2.292680077540667216e-01,2.120898270556189402e+00,-2.439340023403365265e+01,-1.422110446600773237e+01,-5.034394142878258371e+00,5.381437256511382161e-01,4.649827448334538371e-03
3.600000000000000422e-02,7.910055645639355593e-01,2.331629843742156538e+00,-1.055552600450530232e+00,-1.281045188267901702e+00,-8.109825534098047406e-01,1.566920489910839764e+00,3.141719048330424702e-01,-3.038823031925053653e-01,-1.799973939775801446e+00,1.799981510867043610e+00,-1.615866851112888414e+00,-2.415945562927820367e-01,2.054172347097571016e+00,-2.437639387147341452e+01,-1.419499038378378408e+01,-5.019640476817649244e+00,5.294345005894711687e-01,4.739939657365731598e-03
3.799999999999999906e-02,7.916122502585735132e-01,2.331043901831687748e+00,-1.058990559674164444e+00,-1.277607214973638827e+00,-8.140765797711361218e-01,1.566457236235758499e+00,3.272714139886753193e-01,-3.170242898730543102e-01,-1.900047084372619821e+00,1.900055327634072588e+00,-1.700362826593617926e+00,-2.538881848510611827e-01,1.991392726507257294e+00,-2.435938866011602855e+01,-1.416229917802491478e+01,-5.003846227356319787e+00,5.203526120643856556e-01,4.822982343886892016e-03
4.000000000000000083e-02,7.922458715486191405e-01,2.330430780601113749e+00,-1.062628538404160272e+00,-1.273969220853491402e+00,-8.173410388360828893e-01,1.565969350574566432e+00,3.399170329663105394e-01,-3.296153992873409044e-01,-2.000101216764498258e+00,2.000110209388498816e+00,-1.783899639537795068e+00,-2.661620816467442086e-01,1.933526049939431113e+00,-2.434288130336232214e+01,-1.413203501073941126e+01,-4.987677508199030108e+00,5.129074235108277424e-01,4.833072202839344168e-03
4.200000000000000261e-02,7.929055185876129341e-01,2.329791586004245296e+00,-1.066466712140948792e+00,-1.270131030388482296e+00,-8.207741654961473454e-01,1.565456889809158092e+00,3.521103058595453361e-01,-3.416590218891067954e-01,-2.099977685582186560e+00,2.099987605595632356e+00,-1.866364397760218674e+00,-2.784290303713173875e-01,1.882248171345644927e+00,-2.432793722212061382e+01,-1.412122886733099136e+01,-4.972417276992018742e+00,5.107973842000923526e-01,4.649838877524289232e-03
4.399999999999999745e-02,7.935902830334541358e-01,2.329127421423087263e+00,-1.070505098705425429e+00,-1.266092625638665092e+00,-8.243740795725358339e-01,1.564919897651193770e+00,3.638485518489309456e-01,-3.531354256502632905e-01,-2.199660247422989379e+00,2.199671298638093742e+00,-1.947633903970747982e+00,-2.907015986245399253e-01,1.838046768018933852e+00,-2.431454342026002280e+01,-1.413187687618474619e+01,-4.958190144647822706e+00,5.146236890582195356e-01,4.252412090249645983e-03
4.599999999999999922e-02,7.942992619925337561e-01,2.328439377680683986e+00,-1.074743158920734798e+00,-1.261854545308072950e+00,-8.281385069452172898e-01,1.564358373311536266e+00,3.751142296121267594e-01,-3.639431692432555931e-01,-2.299635711840362973e+00,2.299647858497121167e+00,-2.027549686554982245e+00,-3.029916215475024210e-01,1.797207574802788033e+00,-2.429887758104803552e+01,-1.411286131840952329e+01,-4.941028708279540105e+00,5.140437064154873559e-01,3.971508131186807407e-03
4.800000000000000100e-02,7.950315523684989838e-01,2.327728550854966549e+00,-1.079180271814381253e+00,-1.257417409838966549e+00,-8.320650761887460334e-01,1.563772305485193970e+00,3.858874002349262922e-01,-3.739689076548781688e-01,-2.400464754971923576e+00,2.400477684397525291e+00,-2.105944210440385600e+00,-3.153107508346169596e-01,1.755414581461331336e+00,-2.427656045223901415e+01,-1.400527831193600115e+01,-4.916365896948758696e+00,4.971173880159693304e-01,4.189123006989411979e-03
5.000000000000000278e-02,7.957862041023155975e-01,2.326996306516764257e+00,-1.083817164502233865e+00,-1.252780492257460798e+00,-8.361510405075220920e-01,1.563161656497697338e+00,3.961768396894232436e-01,-3.833002680192308942e-01,-2.501490282904196061e+00,2.501504102562056797e+00,-2.182604523548918429e+00,-3.276698551834553719e-01,1.719037410327090010e+00,-2.425251546966094907e+01,-1.387923405027922463e+01,-4.889580475607330889e+00,4.787182778775769809e-01,4.424491240612154347e-03
5.200000000000000455e-02,7.965622100173377351e-01,2.326244338003345291e+00,-1.088656203691124480e+00,-1.247941426816284727e+00,-8.403931965679869442e-01,1.562526356603121336e+00,4.060262479699658922e-01,-3.922693066376293780e-01,-2.600574108331217715e+00,2.600590193595743393e+00,-2.257262436094324975e+00,-3.400788509841770058e-01,1.707441913831572622e+00,-2.424298031506691942e+01,-1.396174117274947690e+01,-4.878147673401358020e+00,5.063315237525256585e-01,3.147527467682919959e-03
5.399999999999999939e-02,7.973585804027688573e-01,2.325474200097677802e+00,-1.093698838018407837e+00,-1.242898765284742746e+00,-8.447881894888549237e-01,1.561866329617045857e+00,4.154574753218431282e-01,-4.010723341361553396e-01,-2.696407207493663361e+00,2.696427783895261499e+00,-2.329638591698246053e+00,-3.525475586076826651e-01,1.732702636938578733e+00,-2.425767471883218818e+01,-1.439092093530440941e+01,-4.892674818283303750e+00,6.090295061574780844e-01,-5.797424253128585607e-04
5.600000000000000117e-02,7.981744773563581585e-01,2.324686298251926519e+00,-1.098939133893590547e+00,-1.237658437288547519e+00,-8.493317645731802701e-01,1.561181466683116525e+00,4.243184737637943349e-01,-4.088132490658430984e-01,-2.794348011865815717e+00,2.794372751325076898e+00,-2.399396800528511342e+00,-3.650855189771033960e-01,1.748275608803942838e+00,-2.425405035959399669e+01,-1.459092508309113612e+01,-4.888618297816851310e+00,6.679461457000306357e-01,-2.937673620381961101e-03
5.800000000000000294e-02,7.990091286558400618e-01,2.323880538662395523e+00,-1.104367947860750876e+00,-1.232229580413241710e+00,-8.540192681258862439e-01,1.560471644478402586e+00,4.323815560176401118e-01,-4.141210644023004539e-01,-2.902653414670904652e+00,2.902677943877574052e+00,-2.466175422769166126e+00,-3.777021415343432276e-01,1.681958641402837573e+00,-2.416668094526817256e+01,-1.367342516222026916e+01,-4.797295390997986964e+00,4.994664253368722440e-01,1.975720134821840144e-03
5.999999999999999778e-02,7.998614336535485592e-01,2.323058805558319229e+00,-1.109988049470133298e+00,-1.226609425057694880e+00,-8.588455262065393114e-01,1.559736726104962834e+00,4.396928828789306576e-01,-4.174146320735442339e-01,-3.018664618059309745e+00,3.018683051273787221e+00,-2.529516643031161305e+00,-3.904047480314377649e-01,1.512799122693381459e+00,-2.397597800498088816e+01,-1.138325009522565878e+01,-4.598571652241618679e+00,5.083827615119387855e-02,1.586704288838425639e-02
6.199999999999999956e-02,8.007295292901904782e-01,2.322227576058496723e+00,-1.115829871717212152e+00,-1.220767551692546471e+00,-8.638041622851627688e-01,1.558976543326353159e+00,4.469345424306558900e-01,-4.232689521668271948e-01,-3.114375699656557916e+00,3.114386528411336563e+00,-2.588739836936911232e+00,-4.031958194090792258e-01,1.338972677940410749e+00,-2.376890110883183382e+01,-8.936939923701048727e+00,-4.385160078746684675e+00,-4.265108372739069287e-01,3.069103146305423788e-02
6.400000000000000133e-02,8.016115674250394729e-01,2.321393156020356230e+00,-1.121922737436608974e+00,-1.214674652032397439e+00,-8.688885165731545790e-01,1.558190923189153976e+00,4.548303522314740555e-01,-4.365405086695034464e-01,-3.160118330731591652e+00,3.160125011169822695e+00,-2.643142820052172492e+00,-4.160772890075559727e-01,1.269605035340961807e+00,-2.364233193421532775e+01,-7.688154362992055901e+00,-4.260335221391541971e+00,-6.528613178750787283e-01,3.749432567426445179e-02
6.600000000000000311e-02,8.025078015699821377e-01,2.320547796842032273e+00,-1.128209971397008182e+00,-1.208387401674279493e+00,-8.740899906420943610e-01,1.557379687849482330e+00,4.632788368829295345e-01,-4.568420011809896097e-01,-3.159134025750487851e+00,3.159140774703844912e+00,-2.692193730635531246e+00,-4.290534347076556121e-01,1.312870026955924363e+00,-2.360505909552773929e+01,-7.774936649077707429e+00,-4.234974886279695205e+00,-6.005702906454359891e-01,3.538683147354299008e-02
6.800000000000000488e-02,8.034202505134256933e-01,2.319671944922658380e+00,-1.134562664561324707e+00,-1.202034698107602440e+00,-8.793983577091267767e-01,1.556542655355724447e+00,4.714853187555996805e-01,-4.793816290500994004e-01,-3.142306818757836240e+00,3.142315082675305682e+00,-2.735503768957235682e+00,-4.421305036796051025e-01,1.392147256301389024e+00,-2.359187771518600130e+01,-8.314276768622876901e+00,-4.242348523524317017e+00,-4.537259326828887995e-01,3.025116991466388072e-02
7.000000000000000666e-02,8.043503819563856405e-01,2.318749338786067593e+00,-1.140873228648022542e+00,-1.195724119834278953e+00,-8.848030551099165253e-01,1.555679638945828724e+00,4.787827763287554883e-01,-5.001125084546449440e-01,-3.135675994541807121e+00,3.135684856679133770e+00,-2.772774180476913042e+00,-4.553138304261513669e-01,1.441722649657075417e+00,-2.354797837076359102e+01,-8.555478411006465222e+00,-4.225828207667465364e+00,-3.691827487439600652e-01,2.710305700955520716e-02
7.200000000000000844e-02,8.052968244997129599e-01,2.317780860608328553e+00,-1.147144488866721712e+00,-1.189452841883017697e+00,-8.902921832164903959e-01,1.554790429914695293e+00,4.852032086218398543e-01,-5.191190704799097944e-01,-3.138557774726611349e+00,3.138566376871711583e+00,-2.804107329221394274e+00,-4.686041863829563114e-01,1.459323230098849455e+00,-2.347802755782932138e+01,-8.516388262178402613e+00,-4.187415704927060389e+00,-3.453801063802619531e-01,2.591073969086218204e-02
7.399999999999999634e-02,8.062573831589930906e-01,2.316772369868278503e+00,-1.153411321337835638e+00,-1.183185991279886329e+00,-8.958534579009538312e-01,1.553874813152912093e+00,4.909818167585154880e-01,-5.376850980267846580e-01,-3.142511190181171976e+00,3.142519435659869131e+00,-2.829726528599911362e+00,-4.820010056886424032e-01,1.461124792823799812e+00,-2.340393201423050229e+01,-8.437959391407233056e+00,-4.146128005233257419e+00,-3.347533044477795094e-01,2.517652894176098527e-02
7.599999999999999811e-02,8.072303174279511495e-01,2.315727241167667039e+00,-1.159692264484446955e+00,-1.176905031274310121e+00,-9.014750172369163650e-01,1.552932574634142249e+00,4.962684629122716684e-01,-5.564899755241906609e-01,-3.143049438614590407e+00,3.143057635541803840e+00,-2.850077377957023650e+00,-4.955036033506730053e-01,1.455978233451918458e+00,-2.333727053629447568e+01,-8.448245455632461542e+00,-4.112066650881505581e+00,-3.119794395780589036e-01,2.410261235406027311e-02
7.799999999999999989e-02,8.082146017053388753e-01,2.314644940243479443e+00,-1.165980156657870248e+00,-1.170617122868838678e+00,-9.071456633561129079e-01,1.551963502036626030e+00,5.010787594734074091e-01,-5.752623335863296106e-01,-3.141905833674266901e+00,3.141914133768434869e+00,-2.865955034567363668e+00,-5.091111072863185871e-01,1.441211185209137380e+00,-2.327337611104264070e+01,-8.497702977751876219e+00,-4.081308801727334234e+00,-2.867236129863591776e-01,2.299213916806337396e-02
8.000000000000000167e-02,8.092092742979084541e-01,2.313524700069479856e+00,-1.172266289190727839e+00,-1.164330973945150616e+00,-9.128545130556575682e-01,1.550967383464011862e+00,5.054200039321907756e-01,-5.936734233055960264e-01,-3.141188109581799282e+00,3.141196474389622573e+00,-2.878173940663115271e+00,-5.228225458598467768e-01,1.413578343177693153e+00,-2.320658803482354315e+01,-8.526184405339821026e+00,-4.049088423594133346e+00,-2.706814050106921554e-01,2.221171056796945181e-02
8.200000000000000344e-02,8.102133854474958818e-01,2.312366857766367190e+00,-1.178549046156165625e+00,-1.158048200284359730e+00,-9.185932532812874918e-01,1.549944009785147125e+00,5.093342014976324217e-01,-6.116553946830164401e-01,-3.141287364559250950e+00,3.141295720386275914e+00,-2.887434458271043169e+00,-5.366361140710768085e-01,1.374224520383698911e+00,-2.313557104790925578e+01,-8.523421765434179065e+00,-4.014520026442990996e+00,-2.651342943305554645e-01,2.179581052794008281e-02
8.400000000000000522e-02,8.112259923161189157e-01,2.311172387058507027e+00,-1.184830900954453314e+00,-1.151766328709428633e+00,-9.243550533275647352e-01,1.548893173464717554e+00,5.128833655051734386e-01,-6.292908193408145445e-01,-3.141604968510110396e+00,3.141613295746091161e+00,-2.894371136666428868e+00,-5.505495263504383008e-01,1.326825566755744257e+00,-2.306148372232429011e+01,-8.507905166408413322e+00,-3.978955449465263250e+00,-2.653595368517479014e-01,2.158744192576615706e-02
8.600000000000000699e-02,8.122462222072198701e-01,2.309942174373810442e+00,-1.191113689138288301e+00,-1.145483523833259687e+00,-9.301338135418512065e-01,1.547814669564984369e+00,5.161215562671801482e-01,-6.466389466687443299e-01,-3.141696667788164365e+00,3.141704986901493690e+00,-2.899556309321514647e+00,-5.645604036524650704e-01,1.274497654588476747e+00,-2.298508183797776994e+01,-8.493559688428051757e+00,-3.943392742171837995e+00,-2.676415199655804433e-01,2.146209665552322940e-02
8.799999999999999489e-02,8.132734173988255266e-01,2.308676814718587877e+00,-1.197397137730405348e+00,-1.139200058608223154e+00,-9.359256226862606720e-01,1.546708301059896096e+00,5.190776898826353625e-01,-6.636818965725416186e-01,-3.141628530312460477e+00,3.141636855569276410e+00,-2.903373833735937826e+00,-5.786660978768310981e-01,1.218545939602792005e+00,-2.290579294142718680e+01,-8.479238644977645123e+00,-3.907661574842824947e+00,-2.715771566214885135e-01,2.140204353169356324e-02
8.999999999999999667e-02,8.143069634448618643e-01,2.307376850338974883e+00,-1.203680585467880926e+00,-1.132916594237292296e+00,-9.417270193248469257e-01,1.545573872679939953e+00,5.217757613564379948e-01,-6.803875805012014055e-01,-3.141560599685583099e+00,3.141568930648952929e+00,-2.906168457855909271e+00,-5.928639106276799575e-01,1.159925941103546299e+00,-2.282279905033519896e+01,-8.461010173797463452e+00,-3.871375968492118513e+00,-2.773815673687626271e-01,2.140951678247886639e-02
9.199999999999999845e-02,8.153463039932855594e-01,2.306042902093657254e+00,-1.209963765357686460e+00,-1.126633397689808636e+00,-9.475353801475465687e-01,1.544411195660412961e+00,5.242367180464835297e-01,-6.967381971580747235e-01,-3.141557495476631434e+00,3.141565826241650594e+00,-2.908202869809112912e+00,-6.071511738563363236e-01,1.099501755176759632e+00,-2.273550563415216530e+01,-8.437501864939791929e+00,-3.834355297488365899e+00,-2.848691602670379575e-01,2.147484472299341848e-02
9.400000000000000022e-02,8.163909455827601525e-01,2.304675675944706903e+00,-1.216246837230552824e+00,-1.120350309150611512e+00,-9.533489891721038667e-01,1.543220088278508095e+00,5.264782080271936948e-01,-7.127314121631666000e-01,-3.141580534301182670e+00,3.141588863492592143e+00,-2.909650922433948406e+00,-6.215252523669960727e-01,1.038038506106680803e+00,-2.264356006396262444e+01,-8.410112088244417805e+00,-3.796641245059795278e+00,-2.934205450739788557e-01,2.157546671426581811e-02
9.600000000000000200e-02,8.174404072733345572e-01,2.303275882942795505e+00,-1.222529958712750275e+00,-1.114067171008264356e+00,-9.591662666298985673e-01,1.542000370576102952e+00,5.285169303899052151e-01,-7.283646081312700193e-01,-3.141591566315727668e+00,3.141599896553374904e+00,-2.910672771750506094e+00,-6.359835763040859735e-01,9.762443889668387387e-01,-2.254659768828783228e+01,-8.380186397842173562e+00,-3.758271502309298739e+00,-3.024481994930716677e-01,2.168996063957052967e-02
9.800000000000000377e-02,8.184942672844902622e-01,2.301844239423572080e+00,-1.228813139075846994e+00,-1.107783973989016513e+00,-9.649862060165947941e-01,1.540751871506422122e+00,5.303646384365331423e-01,-7.436285106571436376e-01,-3.141588347556909522e+00,3.141596678935192344e+00,-2.911370173750717605e+00,-6.505239775532616342e-01,9.144997322959035335e-01,-2.244410183115395796e+01,-8.347864438992244729e+00,-3.719188554307905736e+00,-3.117022356428230667e-01,2.180814493624527381e-02
1.000000000000000056e-01,8.195521269427722411e-01,2.300381463904812129e+00,-1.235096330035838630e+00,-1.101500766368126216e+00,-9.708080245650545503e-01,1.539474423509068046e+00,5.320311562720153598e-01,-7.585112554186670408e-01,-3.141582564077979089e+00,3.141590891672163988e+00,-2.911822090089629889e+00,-6.651444464122042710e-01,8.530570766789379311e-01,-2.233549649312961805e+01,-8.312817533997108654e+00,-3.679297889517531228e+00,-3.210640478088997440e-01,2.192420907983159278e-02
1.020000000000000073e-01,8.206136031982478318e-01,2.298888293717882725e+00,-1.241379501797538198e+00,-1.095217577940049258e+00,-9.766310652020107064e-01,1.538167862219278037e+00,5.335253827260898474e-01,-7.730007341965821066e-01,-3.141581427118801173e+00,3.141589747121052767e+00,-2.912094440352910762e+00,-6.798433003521809903e-01,7.921227674473222402e-01,-2.222017376361856833e+01,-8.274796433233067461e+00,-3.638507913388822512e+00,-3.304163666628928131e-01,2.203244333494649987e-02
1.040000000000000091e-01,8.216783448950191193e-01,2.297365504717692186e+00,-1.247662662697282876e+00,-1.088934400384163004e+00,-9.824549272740470407e-01,1.536832029801563193e+00,5.348543303254685854e-01,-7.870843510712289826e-01,-3.141582919019436204e+00,3.141591241317887473e+00,-2.912226535928690296e+00,-6.946195262286631866e-01,7.318091183552676293e-01,-2.209746064367119445e+01,-8.233716711242122344e+00,-3.596733175057305498e+00,-3.396440596840650250e-01,2.212732441138027389e-02
1.059999999999999970e-01,8.227460061355407195e-01,2.295813880000937779e+00,-1.253945825113231161e+00,-1.082651221336996095e+00,-9.882792487200043885e-01,1.535466769405739562e+00,5.360246954196032920e-01,-8.007492636990544144e-01,-3.141584043892625022e+00,3.141592390904411225e+00,-2.912253672398091631e+00,-7.094722492605260999e-01,6.722130760192448484e-01,-2.196666779795685187e+01,-8.189504732061287484e+00,-3.553887457074531575e+00,-3.486346324770852600e-01,2.220341802516328025e-02
1.079999999999999988e-01,8.238162603825459618e-01,2.294234238794353065e+00,-1.260228992436895235e+00,-1.076368037378227616e+00,-9.941037704045502243e-01,1.534071926839980282e+00,5.370419551415719361e-01,-8.139799573503336827e-01,-3.141583980978166490e+00,3.141592348895799969e+00,-2.912200305151431579e+00,-7.244014018173186020e-01,6.133764519515099156e-01,-2.182698614788044367e+01,-8.141952378849607541e+00,-3.509862799960281166e+00,-3.573096067820792920e-01,2.225623709512877454e-02
1.100000000000000006e-01,8.248887955657087101e-01,2.292627427322786016e+00,-1.266512161344527154e+00,-1.070084851770292333e+00,-9.999283101035250088e-01,1.532647349898912381e+00,5.379106755667959483e-01,-8.267589203586727109e-01,-3.141583534876378980e+00,3.141591864709160298e+00,-2.912082789262250504e+00,-7.394075194107504467e-01,5.552998580381138805e-01,-2.167751713686715931e+01,-8.090751044126202274e+00,-3.464534997532803917e+00,-3.656159228467785183e-01,2.228200233602286792e-02
1.120000000000000023e-01,8.259633038340228328e-01,2.290994307420596954e+00,-1.272795329069744463e+00,-1.063801667265087403e+00,-1.005752701209944311e+00,1.531192885956317973e+00,5.386351375812732378e-01,-8.390676856978649401e-01,-3.141583375165182712e+00,3.141591595002612536e+00,-2.911915782927088081e+00,-7.544914427024012049e-01,4.979762184577679607e-01,-2.151731495713707432e+01,-8.035574578278897206e+00,-3.417773992027235863e+00,-3.735019384829811884e-01,2.227693811031209239e-02
1.140000000000000041e-01,8.270394932058050541e-01,2.289335802244631513e+00,-1.279078495792465686e+00,-1.057518483863351566e+00,-1.011576833552554344e+00,1.529708380465211182e+00,5.392185428620862586e-01,-8.508840671287052349e-01,-3.141583457816813141e+00,3.141591658917991303e+00,-2.911707787075781262e+00,-7.696552037201669361e-01,4.413710053861935600e-01,-2.134524893685094327e+01,-7.976034829036800389e+00,-3.369427341144234145e+00,-3.809193174340622101e-01,2.223721398985538389e-02
1.160000000000000059e-01,8.281170758967693057e-01,2.287652851705168189e+00,-1.285361662437174868e+00,-1.051235300861858235e+00,-1.017400611730299165e+00,1.528193678281127177e+00,5.396638035017035095e-01,-8.621848581923183819e-01,-3.141583558490214756e+00,3.141592031910970917e+00,-2.911465687073242492e+00,-7.849011564955691300e-01,3.854424960199767103e-01,-2.116013722846395950e+01,-7.911726031207062526e+00,-3.319336282682722850e+00,-3.878205596708961256e-01,2.215897294864177178e-02
1.180000000000000077e-01,8.291957701973213801e-01,2.285946443764755198e+00,-1.291644829457277766e+00,-1.044952117595925545e+00,-1.023223954720057893e+00,1.526648619405918339e+00,5.399732280102796933e-01,-8.729437482142163862e-01,-3.141583568013308625e+00,3.141592413946568740e+00,-2.911194610696135499e+00,-8.002324283691220064e-01,3.301414984877185654e-01,-2.096062225338151919e+01,-7.842162814991010755e+00,-3.267315102205150978e+00,-3.941576724828387279e-01,2.203777956446330982e-02
1.199999999999999956e-01,8.302753028846751038e-01,2.284217633518638380e+00,-1.297927996648049920e+00,-1.038668933454724552e+00,-1.029046801585778992e+00,1.525073037060474146e+00,5.401482816474207915e-01,-8.831300896934862754e-01,-3.141583538114049112e+00,3.141592120108350539e+00,-2.910897230236797029e+00,-8.156532270530494344e-01,2.754083860627739022e-01,-2.074510092329872890e+01,-7.766748596866202448e+00,-3.213140430938134173e+00,-3.998819748447801081e-01,2.186839035130492756e-02
1.219999999999999973e-01,8.313554018901905263e-01,2.282467492600742442e+00,-1.304211163779552152e+00,-1.032385748097421008e+00,-1.034869093813726160e+00,1.523466762362782445e+00,5.401902561334017694e-01,-8.927122037089901818e-01,-3.141583525968695945e+00,3.141590692031401399e+00,-2.910575866533938072e+00,-8.311679741622772788e-01,2.211829466199166094e-01,-2.051192181220977773e+01,-7.684871581481478309e+00,-3.156584461538275210e+00,-4.049433655170809332e-01,2.164559323579577296e-02
1.239999999999999991e-01,8.324357996507187885e-01,2.280697192133373630e+00,-1.310494330826467380e+00,-1.026102563475379981e+00,-1.040690780887856048e+00,1.521829612655807074e+00,5.400994882622405235e-01,-9.016523030947254380e-01,-3.141583532559214298e+00,3.141589870416650943e+00,-2.910231385832770190e+00,-8.467822420665366279e-01,1.674066126089210071e-01,-2.025917432333578105e+01,-7.595860177830267013e+00,-3.097405275251360557e+00,-4.092799456347127607e-01,2.136496486045677892e-02
1.260000000000000009e-01,8.335162309036974193e-01,2.278907954131674352e+00,-1.316777497867916980e+00,-1.019819382704596045e+00,-1.046511816376709536e+00,1.520161398234922023e+00,5.398758264975814791e-01,-9.099094752313541257e-01,-3.141583530199882901e+00,3.141592513587156521e+00,-2.909863910872295456e+00,-8.625021913796362405e-01,1.140216608921738456e-01,-1.998481499097946923e+01,-7.499011973364194006e+00,-3.035353633036724119e+00,-4.128237864205916985e-01,2.102247985559579230e-02
1.280000000000000027e-01,8.345964302094543985e-01,2.277101052733111253e+00,-1.323060664948551901e+00,-1.013536205280896940e+00,-1.052332154029970157e+00,1.518461921550243066e+00,5.395187149613377420e-01,-9.174391166848917534e-01,-3.141583509311536737e+00,3.141598196895568407e+00,-2.909473157524691711e+00,-8.783343307733388894e-01,6.097313605551767102e-02,-1.968648762512526673e+01,-7.393451470198790787e+00,-2.970111144270488168e+00,-4.155038833482736504e-01,2.061119907004134444e-02
1.300000000000000044e-01,8.356761316012003560e-01,2.275277901463028662e+00,-1.329343832017856775e+00,-1.007253020917289188e+00,-1.058151747997249537e+00,1.516730964058497833e+00,5.390265184887274019e-01,-9.241867435362970395e-01,-3.141583509738499203e+00,3.141597622751528540e+00,-2.909057761086836003e+00,-8.942860943408820207e-01,8.213524430098323101e-03,-1.936099600492393691e+01,-7.277837310075312871e+00,-2.901173188393938673e+00,-4.172410720271185203e-01,2.011632106558495017e-02
1.320000000000000062e-01,8.367550688088656319e-01,2.273439943754362424e+00,-1.335626999015149474e+00,-1.000969818973882486e+00,-1.063970552311559681e+00,1.514968302814699630e+00,5.383973792251789403e-01,-9.300959066773717421e-01,-3.141583574755741903e+00,3.141581169055605915e+00,-2.908616137353638553e+00,-9.103650777343591516e-01,-4.430198080806528604e-02,-1.900502526411698412e+01,-7.150778203584608583e+00,-2.828017140142332408e+00,-4.179527999619600531e-01,1.952252186276995718e-02
1.340000000000000080e-01,8.378329709223786281e-01,2.271588766525965752e+00,-1.341910166002669325e+00,-9.946866163604541899e-01,-1.069788517056723398e+00,1.513173695476056846e+00,5.376285197454899745e-01,-9.351033212567273489e-01,-3.141583643956471494e+00,3.141564105506771121e+00,-2.908145855860500451e+00,-9.265790320147624382e-01,-9.658660884124151136e-02,-1.861572284956573142e+01,-7.011481091270169053e+00,-2.750401650487327210e+00,-4.175128399085377140e-01,1.883147113574819634e-02
1.360000000000000098e-01,8.389095625593891992e-01,2.269726094996086463e+00,-1.348193333161136209e+00,-9.884034565406214501e-01,-1.075605588510127442e+00,1.511346881003142517e+00,5.367162762932005116e-01,-9.391391137688122059e-01,-3.141583556999883342e+00,3.141585693847967597e+00,-2.907643670472732644e+00,-9.429358580344762153e-01,-1.486231526350662580e-01,-1.819068181019374464e+01,-6.859729519636144524e+00,-2.668356479451177155e+00,-4.157528685681450842e-01,1.806121794910569775e-02
1.380000000000000115e-01,8.399845658422813166e-01,2.267853703864131099e+00,-1.354476500573284392e+00,-9.821203588974557475e-01,-1.081421710743893261e+00,1.509487592652301702e+00,5.356567305256384470e-01,-9.421280193696521810e-01,-3.141583241856299225e+00,3.141663444689664964e+00,-2.907105972727931142e+00,-9.594432635987371061e-01,-2.003965512517443537e-01,-1.772650628896883163e+01,-6.694568556037848950e+00,-2.581594001086533918e+00,-4.125188922852454643e-01,1.721335426628229498e-02
1.400000000000000133e-01,8.410576901753222812e-01,2.265973608942230211e+00,-1.360759667756708424e+00,-9.758372044980432314e-01,-1.087236816557486385e+00,1.507595536499561906e+00,5.344447626049615430e-01,-9.439666070454697522e-01,-3.141583134315844461e+00,3.141689931010063219e+00,-2.906527344573178961e+00,-9.761078617694527448e-01,-2.519103438058410971e-01,-1.721426438108159473e+01,-6.510854652228806216e+00,-2.488021186911165916e+00,-4.077451017006133993e-01,1.619533940372341538e-02
1.420000000000000151e-01,8.421286405147183629e-01,2.264087910519279934e+00,-1.367042834046920952e+00,-9.695538298637704777e-01,-1.093050834787187231e+00,1.505670409216471439e+00,5.330748317839184569e-01,-9.445419376608316098e-01,-3.141583833733869291e+00,3.141517488638503330e+00,-2.905901733260462638e+00,-9.929358720760128598e-01,-3.031728677064940425e-01,-1.664322316265705837e+01,-6.302088765260254632e+00,-2.384961541334786439e+00,-4.013931626790412932e-01,1.488426375555118759e-02
1.440000000000000169e-01,8.431971122005170738e-01,2.262198905460284681e+00,-1.373325999838588718e+00,-9.632703324634616093e-01,-1.098863683773700028e+00,1.503711896624303712e+00,5.315404224301732983e-01,-9.437524959672882741e-01,-3.141584983134305009e+00,3.141234156553805335e+00,-2.905221545500133562e+00,-1.009931669243242292e+00,-3.540435849162171245e-01,-1.601136688579583733e+01,-6.069051757750004938e+00,-2.272951470480926162e+00,-3.931700560475350215e-01,1.332976871474972520e-02
1.459999999999999909e-01,8.442627831486997358e-01,2.260309246827815421e+00,-1.379609167446578688e+00,-9.569872828514838226e-01,-1.104675262838791028e+00,1.501719664891001393e+00,5.298332524144628852e-01,-9.415174895855715764e-01,-3.141584491756287179e+00,3.141355292563954293e+00,-2.904476396485045075e+00,-1.027096284566171303e+00,-4.041120855935783629e-01,-1.533248412895641444e+01,-5.825722799369673410e+00,-2.158352276662928393e+00,-3.823210557084265604e-01,1.189432403262737949e-02
1.479999999999999927e-01,8.453253273512097987e-01,2.258421644626801061e+00,-1.385892338828422554e+00,-9.507051634786027883e-01,-1.110485466667445742e+00,1.499693377943692285e+00,5.279448641000114018e-01,-9.377448824155123486e-01,-3.141580591659498989e+00,3.142316674270880572e+00,-2.903655092049009401e+00,-1.044429914337814624e+00,-4.529963163689637029e-01,-1.461729253531776962e+01,-5.583584103544601440e+00,-2.046433882830902107e+00,-3.681632113359645797e-01,1.088164443286297918e-02
1.499999999999999944e-01,8.463843935744324032e-01,2.256539043008769951e+00,-1.392175509168877889e+00,-9.444227873695634212e-01,-1.116294158133585679e+00,1.497632697688385361e+00,5.258669314967748809e-01,-9.321801931024363830e-01,-3.141577632298429901e+00,3.143046157140814145e+00,-2.902740211139640980e+00,-1.061926922178643817e+00,-5.010016310662315231e-01,-1.381919520490233744e+01,-5.307071794711623269e+00,-1.921831489941309590e+00,-3.514709843993961691e-01,9.485530361171105873e-03
1.519999999999999962e-01,8.474396138315321014e-01,2.254664541642724451e+00,-1.398458669155105305e+00,-9.381378589325638506e-01,-1.122101178983763381e+00,1.495537284689220758e+00,5.235912159441973301e-01,-9.244610638274822767e-01,-3.141584025508922906e+00,3.141470230053808876e+00,-2.901710197159226734e+00,-1.079577797907108616e+00,-5.488898663809039791e-01,-1.285353439451004753e+01,-4.929380101584705187e+00,-1.755477399323735366e+00,-3.339866587435955658e-01,6.162721033587885422e-03
1.539999999999999980e-01,8.484906118298453093e-01,2.252801597012364709e+00,-1.404741817638904156e+00,-9.318500951536483612e-01,-1.127906349564416377e+00,1.493406808795288532e+00,5.211071635405339908e-01,-9.143893953334280011e-01,-3.141600808365880848e+00,3.137333258417242643e+00,-2.900540498122946786e+00,-1.097368580994469989e+00,-5.965025994579512547e-01,-1.170598170262832483e+01,-4.440962806703202759e+00,-1.543417121542353776e+00,-3.156542635467068370e-01,7.099754010677177245e-04
1.559999999999999998e-01,8.495369825644099038e-01,2.250954935493115983e+00,-1.411024983049855797e+00,-9.255665039192186860e-01,-1.133709414821493233e+00,1.491240973248404433e+00,5.183959097322834442e-01,-9.023632655693117899e-01,-3.141602301634964345e+00,3.136965169860702840e+00,-2.899196084266234763e+00,-1.115269597139289637e+00,-6.403508692442129169e-01,-1.061694466985891694e+01,-4.039686701813390179e+00,-1.372664545033045691e+00,-2.899048170436976379e-01,-2.221571409821216335e-03
1.580000000000000016e-01,8.505783132830176951e-01,2.249129534444886502e+00,-1.417308198443061995e+00,-9.192952333016795041e-01,-1.139510100435312756e+00,1.489039490875782690e+00,5.154371438014282436e-01,-8.888725412515205981e-01,-3.141558648056050895e+00,3.147725773856239861e+00,-2.897638909033890986e+00,-1.133247391573020568e+00,-6.763273633582957967e-01,-9.875054119936480745e+00,-3.962431437599697848e+00,-1.347344984527698131e+00,-2.489733524368091255e-01,2.932877099551640769e-03
1.600000000000000033e-01,8.516141449955122456e-01,2.247329185113803529e+00,-1.423591426230743862e+00,-9.130270179153689991e-01,-1.145308048703713277e+00,1.486802148558301617e+00,5.122252396631762350e-01,-8.729322780251604907e-01,-3.141503799093823712e+00,3.161246039103785765e+00,-2.895807367592237558e+00,-1.151259400985355175e+00,-7.048422339878674947e-01,-9.456161311586534168e+00,-4.182524580802952308e+00,-1.456026880362968345e+00,-1.943952810915745566e-01,1.559060191809734722e-02
1.620000000000000051e-01,8.526439612611573793e-01,2.245556205001450145e+00,-1.429874541051451731e+00,-9.067309561798946316e-01,-1.151102798321928411e+00,1.484528825188401235e+00,5.087728168668154138e-01,-8.517250810591417975e-01,-3.141550988454898441e+00,3.149613873958719612e+00,-2.893610583983009299e+00,-1.169251744716931274e+00,-7.319185760642205052e-01,-8.947489377528540899e+00,-4.345830641282377726e+00,-1.543699435075815085e+00,-1.392617198642032705e-01,2.753060551718535323e-02
1.640000000000000069e-01,8.536672481452024508e-01,2.243814118000020397e+00,-1.436157464403213568e+00,-9.003876973690236873e-01,-1.156893840460134104e+00,1.482219429579171077e+00,5.050895464135453095e-01,-8.227990921673099534e-01,-3.141771123657736364e+00,3.088481998360152136e+00,-2.890950723821116952e+00,-1.187163218839214718e+00,-7.627257391676200982e-01,-7.976349050679952590e+00,-4.133373152196754496e+00,-1.469788087265397891e+00,-9.482106965099730556e-02,3.122748330259907806e-02
1.660000000000000087e-01,8.546835371103338463e-01,2.242116121549820207e+00,-1.442440507733772304e+00,-8.940740133026079395e-01,-1.162680360412166491e+00,1.479874050654859552e+00,5.011546435932183741e-01,-7.872782920718627286e-01,-3.141882887103992772e+00,2.989153760302713181e+00,-2.887691728107775191e+00,-1.204883324174702564e+00,-7.934611867048115830e-01,-6.649512113939883839e+00,-3.640462246022350357e+00,-1.268068076491662755e+00,-5.321705573986258708e-02,2.789166661467215591e-02
1.680000000000000104e-01,8.556923799390350194e-01,2.240479765757402042e+00,-1.448724156322236611e+00,-8.879099257394592604e-01,-1.168461404656945923e+00,1.477492859288679350e+00,4.969335750678391950e-01,-7.478972250061761695e-01,-3.141447946660333113e+00,2.878992372361421026e+00,-2.883680158060634824e+00,-1.222279269751250341e+00,-8.162947647018324870e-01,-5.289553340238994927e+00,-3.148844192014301324e+00,-1.050823487769900089e+00,1.981019426383953414e-03,2.267020196175770566e-02
1.700000000000000122e-01,8.566932798053098486e-01,2.238918756337723082e+00,-1.455008275350582636e+00,-8.819769905289479572e-01,-1.174235803045139193e+00,1.475076213790607937e+00,4.923910843792267400e-01,-7.064248953813420107e-01,-3.140588077737650252e+00,2.776524458806873596e+00,-2.878726243263348472e+00,-1.239206118815290747e+00,-8.296270367659795975e-01,-4.047595317429995454e+00,-2.782933602138196960e+00,-8.779542861989807490e-01,7.337667685796106509e-02,1.891700554827209849e-02
1.720000000000000140e-01,8.576856242822684662e-01,2.237437624531687153e+00,-1.461291256269735994e+00,-8.762649697785529490e-01,-1.180001872891541126e+00,1.472624916381267024e+00,4.874903576992543064e-01,-6.623201104749856238e-01,-3.140756214747968400e+00,2.679118543656358931e+00,-2.872554185565124207e+00,-1.255490365711529499e+00,-8.466929287942842608e-01,-2.665346874874796157e+00,-2.291583956539403832e+00,-6.841261605827209102e-01,1.306572986435221850e-01,1.568473726483996661e-02
1.740000000000000158e-01,8.586687785304539799e-01,2.236039703695686054e+00,-1.467571527239391660e+00,-8.707511734817912075e-01,-1.185757813257550586e+00,1.470139860737163851e+00,4.821971437278763650e-01,-6.147648497703884773e-01,-3.143372134623527270e+00,2.581282995323434637e+00,-2.864870259076407244e+00,-1.270952222541911869e+00,-8.827430936202994571e-01,-8.348713126696516440e-01,-1.377283208960810024e+00,-3.883109367791669486e-01,1.394126671641951476e-01,1.145593354070140006e-02
1.759999999999999898e-01,8.596420078055967418e-01,2.234730691091361354e+00,-1.473851956314800482e+00,-8.654282903653498504e-01,-1.191501045643882817e+00,1.467622419700598702e+00,4.765266036013711126e-01,-5.639759373212038795e-01,-3.145845244210816460e+00,2.481248265548086973e+00,-2.855284262471277312e+00,-1.285374039614522790e+00,-9.506031170233474326e-01,1.578757130510228368e+00,1.133936844772825414e-01,4.659864806526493874e-02,7.726069886258513097e-02,5.670407459264299038e-03
1.779999999999999916e-01,8.606044916402022515e-01,2.233518312326939537e+00,-1.480139221199252342e+00,-8.603022048628614638e-01,-1.197228324366071295e+00,1.465074377261615046e+00,4.705362967486431680e-01,-5.110581445518765920e-01,-3.142143856229233201e+00,2.380438536025703211e+00,-2.843323213770064140e+00,-1.298505679962279613e+00,-1.061017758370307318e+00,4.562012349469656947e+00,2.210238056284127950e+00,6.200235618590386188e-01,-6.785996115931271222e-02,-1.410637599851423049e-03
1.799999999999999933e-01,8.615554494166194344e-01,2.232409538833668439e+00,-1.486435679395670784e+00,-8.553781243407451162e-01,-1.202936038021387599e+00,1.462497712447163201e+00,4.642855850010676466e-01,-4.572757059357339671e-01,-3.125759431030374458e+00,2.280114120880444961e+00,-2.828506806607818724e+00,-1.310085559866330129e+00,-1.215505868986831217e+00,8.003213190788645903e+00,4.828105675457625701e+00,1.306108373349261553e+00,-2.898978990323309302e-01,-9.378162533697449732e-03
1.819999999999999951e-01,8.624943052448245107e-01,2.231407404228746838e+00,-1.492722347771804570e+00,-8.506559489513623173e-01,-1.208618922834634235e+00,1.459895276870541991e+00,4.578358809483445979e-01,-4.045203255930578945e-01,-3.088429484493543598e+00,2.180250847862162722e+00,-2.810332456294508674e+00,-1.319802185242619830e+00,-1.371604348991056765e+00,1.134242941619111100e+01,7.349150885260083754e+00,1.963482298663641545e+00,-4.974255174811745284e-01,-1.724112856938116861e-02
1.839999999999999969e-01,8.634205463874132791e-01,2.230513702111501129e+00,-1.498973593914039393e+00,-8.461339993098065948e-01,-1.214271205074409110e+00,1.457270193085372867e+00,4.512474313499176826e-01,-3.548416261311757580e-01,-3.021507738508177887e+00,2.080442254884359521e+00,-2.788292494757165230e+00,-1.327328927161966821e+00,-1.474236406775704333e+00,1.389223005919970255e+01,9.003670495326248968e+00,2.417919100656419573e+00,-5.746233391960208214e-01,-2.384457596533490209e-02
1.859999999999999987e-01,8.643337775312844862e-01,2.229726288849120497e+00,-1.505147148428566339e+00,-8.418113706193287582e-01,-1.219886146921091985e+00,1.454626201656889828e+00,4.444624037727000210e-01,-3.082859408437173543e-01,-2.925769145379739644e+00,1.980469352033671360e+00,-2.761985095594026163e+00,-1.332327842084156000e+00,-1.506325058014295060e+00,1.542233877383241136e+01,9.543029428982714890e+00,2.613130802291840027e+00,-4.856268671979254159e-01,-2.873479640593089302e-02
1.880000000000000004e-01,8.652337920867598786e-01,2.229036692654112084e+00,-1.511174002400306193e+00,-8.376884035999999645e-01,-1.225455461077395558e+00,1.451968036432384590e+00,4.372331709384270626e-01,-2.616795577810898665e-01,-2.817132036934954620e+00,1.880414599583442925e+00,-2.731178559098896841e+00,-1.334442804456082765e+00,-1.511876325974055302e+00,1.643732767763447811e+01,9.556180135072111170e+00,2.682408050786856624e+00,-3.230950441055036593e-01,-3.258529133109690223e-02
1.900000000000000022e-01,8.661203211063892571e-01,2.228436909142105016e+00,-1.516987915671337506e+00,-8.337655185845896932e-01,-1.230970655401546709e+00,1.449300628278658243e+00,4.293138790114748859e-01,-2.118235422425404635e-01,-2.711627969528197735e+00,1.780379726418628961e+00,-2.695679116402185382e+00,-1.333312145819743222e+00,-1.536916361209140547e+00,1.746676754330082559e+01,9.659638122730264342e+00,2.765289638268206840e+00,-1.838210220890654223e-01,-3.611277305623265127e-02
1.920000000000000040e-01,8.669922768126389068e-01,2.227929648460301060e+00,-1.522576107365321674e+00,-8.300427966777412792e-01,-1.236422568725840332e+00,1.446630014491938176e+00,4.206537553758122328e-01,-1.582583263903279691e-01,-2.612350051603400392e+00,1.680384359626734492e+00,-2.655525669608294059e+00,-1.328533975666928102e+00,-1.591404234487216351e+00,1.861350622242432351e+01,9.973938990359282997e+00,2.889153325447582521e+00,-8.751073389447618089e-02,-3.942955217313270228e-02
1.940000000000000058e-01,8.678480888111199665e-01,2.227523935733803029e+00,-1.527957305244133090e+00,-8.265201190447045709e-01,-1.241801645617348182e+00,1.443962884733614782e+00,4.113170084234001322e-01,-1.021389097930106432e-01,-2.514765533912717288e+00,1.580399735898905034e+00,-2.610894282446497794e+00,-1.319682703847313787e+00,-1.664041084756965772e+00,1.972888349370006011e+01,1.032729019994189912e+01,3.015269742506345718e+00,-8.435153443855330016e-03,-4.229171641301832096e-02
1.960000000000000075e-01,8.686862528033485464e-01,2.227227583076468509e+00,-1.533145544970033081e+00,-8.231973966252631447e-01,-1.247098521292718365e+00,1.441306405895940168e+00,4.013533318110787951e-01,-4.437514343859241817e-02,-2.415477296983252309e+00,1.480404298303717336e+00,-2.562003715017794114e+00,-1.306353034371797506e+00,-1.746283911736687955e+00,2.070246112031636443e+01,1.059140486374072587e+01,3.114827599193286556e+00,7.267852531376067793e-02,-4.452876832654784067e-02
1.980000000000000093e-01,8.695054917835638442e-01,2.227044334260420477e+00,-1.538138838364200289e+00,-8.200746420410963688e-01,-1.252304446152002759e+00,1.438669218369101888e+00,3.907621408927082762e-01,1.495903778057570618e-02,-2.314966467230406888e+00,1.380401100090165700e+00,-2.509201364129074463e+00,-1.288204415754419241e+00,-1.839112656094353149e+00,2.155412239756335779e+01,1.078657802312889302e+01,3.192866457665977986e+00,1.529704078695933722e-01,-4.621538531857562193e-02
2.000000000000000111e-01,8.703045723898480412e-01,2.226977143553799277e+00,-1.542932163766738807e+00,-8.171518871633143277e-01,-1.257410823111327458e+00,1.436060279412428198e+00,3.795333474557672782e-01,7.594852104015901995e-02,-2.214448364332765706e+00,1.280397853476735293e+00,-2.452859161942694932e+00,-1.264913647591401569e+00,-1.945294762865142246e+00,2.232844674267732188e+01,1.096123169425769106e+01,3.260835458209426108e+00,2.254006477184293256e-01,-4.747321460080303895e-02
2.020000000000000129e-01,8.710822363970374127e-01,2.227029179310774598e+00,-1.547523456133190312e+00,-8.144291451008416338e-01,-1.262409942730873258e+00,1.433489327347828413e+00,3.676665469185993462e-01,1.385399048068470806e-01,-2.114422737634423122e+00,1.180397729892409098e+00,-2.393330388971342870e+00,-1.236287036258437944e+00,-2.065416057681027429e+00,2.304665860825096502e+01,1.113634081329272618e+01,3.323972702854200545e+00,2.872908576308299544e-01,-4.839409373193687136e-02
2.040000000000000147e-01,8.718371980851272740e-01,2.227203846630982476e+00,-1.551913919970640876e+00,-8.119064082145769357e-01,-1.267295077165501382e+00,1.430966964229553495e+00,3.551720432718923348e-01,2.025268619902463596e-01,-2.014598028260277118e+00,1.080398879367319376e+00,-2.330947699937369499e+00,-1.202274102255810773e+00,-2.197649838317948134e+00,2.370415553009381071e+01,1.130252816380380843e+01,3.380647862417949234e+00,3.407857382084778508e-01,-4.903689548401098802e-02
2.060000000000000164e-01,8.725681759702692553e-01,2.227504451198137225e+00,-1.556104755722745425e+00,-8.095836688910902357e-01,-1.272059722226886791e+00,1.428503859275129129e+00,3.420600511956815026e-01,2.677071897817478452e-01,-1.914683662603757774e+00,9.803994581790029805e-01,-2.266034178151728806e+00,-1.162861187269583541e+00,-2.340143234928462324e+00,2.429636249410922844e+01,1.145044140796951204e+01,3.429226772009629887e+00,3.880287936328254972e-01,-4.945760395448256519e-02
2.080000000000000182e-01,8.732739251823991022e-01,2.227933576247711045e+00,-1.560096042508734460e+00,-8.074609266319476841e-01,-1.276698491888330622e+00,1.426110826924795294e+00,3.283366210772748484e-01,3.339565845962464974e-01,-1.814660465678155088e+00,8.803993447861656607e-01,-2.198857893982205880e+00,-1.118224877352084645e+00,-2.491682092491670275e+00,2.482753200911054492e+01,1.158105468477374878e+01,3.470350823769825954e+00,4.295404417952848330e-01,-4.970455591021648301e-02
2.099999999999999922e-01,8.739532154650593299e-01,2.228493516601990798e+00,-1.563887414048070301e+00,-8.055381837648524224e-01,-1.281206447491834322e+00,1.423798736982605062e+00,3.140061538611231828e-01,4.011817548199417827e-01,-1.714617064396458890e+00,7.803991017128230068e-01,-2.129664887875527324e+00,-1.068617674997698330e+00,-2.651305782644306941e+00,2.530542136802784725e+01,1.169944333959017158e+01,3.505564901145457490e+00,4.651962054372242861e-01,-4.982298370101861940e-02
2.119999999999999940e-01,8.746048234368576368e-01,2.229186421166769794e+00,-1.567478641667853667e+00,-8.038154417440962485e-01,-1.285579034745498062e+00,1.421578066253786243e+00,2.990743135741265046e-01,4.692911251664231842e-01,-1.614608782878700133e+00,6.803990801449515402e-01,-2.058679115975925900e+00,-1.014325295184903108e+00,-2.817946766891104904e+00,2.573644832805067750e+01,1.180932496492913053e+01,3.536073236813589205e+00,4.950398658302391786e-01,-4.984825016144679016e-02
2.139999999999999958e-01,8.752275400407953931e-01,2.230014134709770612e+00,-1.570869787370569703e+00,-8.022927001790272072e-01,-1.289812502181869824e+00,1.419458467931958623e+00,2.835494192066402852e-01,5.381965492964423392e-01,-1.514620598064886359e+00,5.803991848486912408e-01,-1.986078387255698408e+00,-9.557026234607483017e-01,-2.990312172427492143e+00,2.612420554508735648e+01,1.191155068245401694e+01,3.562361560181491971e+00,5.194711640250962992e-01,-4.979505864106344160e-02
2.159999999999999976e-01,8.758201596773730335e-01,2.230978446954429817e+00,-1.574060945144152068e+00,-8.009699584759542024e-01,-1.293903232258665659e+00,1.417449421968740131e+00,2.674403064606620806e-01,6.078114471918120154e-01,-1.414629746222488160e+00,4.803992714671009856e-01,-1.912032795371507721e+00,-8.931123714163866634e-01,-3.167083484439182861e+00,2.647192703536511971e+01,1.200664031558519618e+01,3.584828340762696186e+00,5.389249864475599283e-01,-4.967512226206265841e-02
2.179999999999999993e-01,8.763815012184434927e-01,2.232080899460845202e+00,-1.577052141393612494e+00,-7.998472164697754128e-01,-1.297848094420972709e+00,1.415559378931293688e+00,2.507585124089558581e-01,6.780660130020371712e-01,-1.314629822760311706e+00,3.803992994406866779e-01,-1.836684187856139516e+00,-8.269043400839107827e-01,-3.346982067945310391e+00,2.678279770137012505e+01,1.209554552506092051e+01,3.603917965616747043e+00,5.536939921855100755e-01,-4.949436314856500707e-02
2.200000000000000011e-01,8.769104022187289571e-01,2.233322844326622203e+00,-1.579843350927185197e+00,-7.989244743225997203e-01,-1.301644329908677067e+00,1.413796003494150577e+00,2.335176365095985029e-01,7.489032472627422665e-01,-1.214626912617753129e+00,2.803993074550302778e-01,-1.760152847490233707e+00,-7.574184738153451057e-01,-3.528759734575209972e+00,2.705996494927014240e+01,1.217954766162463542e+01,3.620109877958266331e+00,5.639622556125728492e-01,-4.925428223618823903e-02
2.220000000000000029e-01,8.774057120806730836e-01,2.234705581565712862e+00,-1.582434552570046282e+00,-7.982017321709815594e-01,-1.305289288864520003e+00,1.412166658147049558e+00,2.157325179680414928e-01,8.202689477814130159e-01,-1.114626129002904475e+00,1.803993280265818178e-01,-1.682552874732301973e+00,-6.849839358461273786e-01,-3.711140041530573530e+00,2.730641777678895465e+01,1.225983135569862448e+01,3.633852570114644465e+00,5.699131093774776335e-01,-4.895590463628148037e-02
2.240000000000000047e-01,8.778663279904106442e-01,2.236230212513283799e+00,-1.584825747492025982e+00,-7.976789900094301000e-01,-1.308780739436120166e+00,1.410677519431261073e+00,1.974229846919003661e-01,8.921193038555932375e-01,-1.014627178935048279e+00,8.039935935493924823e-02,-1.603974688862084719e+00,-6.098856498406344251e-01,-3.892724637485327044e+00,2.752448378101280824e+01,1.233714001040876695e+01,3.645460810853404787e+00,5.717382862124925635e-01,-4.859872568836312579e-02
2.260000000000000064e-01,8.782911605647160114e-01,2.237897784650359156e+00,-1.587016942656571894e+00,-7.973562477956216421e-01,-1.312116563059987584e+00,1.409334441019864048e+00,1.786102420212547781e-01,9.644133524809398450e-01,-9.146283677150086611e-01,-1.960060925811582186e-02,-1.524502297665336625e+00,-5.323963771284094815e-01,-4.072084796867481593e+00,2.771629810765476876e+01,1.241209730797513622e+01,3.655212273174914817e+00,5.696307133227365149e-01,-4.818176228207104311e-02
2.280000000000000082e-01,8.786791634461941225e-01,2.239709263083637492e+00,-1.589008141520029893e+00,-7.972335055093731082e-01,-1.315294813701619159e+00,1.408142716769784863e+00,1.593187860925628085e-01,1.037115941950987219e+00,-8.146288502022797084e-01,-1.196005831244533330e-01,-1.444210257287464882e+00,-4.527622525972892498e-01,-4.247870851513578572e+00,2.788308245343158731e+01,1.248513810927639156e+01,3.663288008581789601e+00,5.637342665018434396e-01,-4.770030129689392662e-02
2.300000000000000100e-01,8.790293516982964350e-01,2.241665495327805235e+00,-1.590799342532198457e+00,-7.973107631621076941e-01,-1.318313791617203412e+00,1.407106841382067541e+00,1.395778107648801003e-01,1.110200216380151650e+00,-7.146289940402855700e-01,-2.196005598666839476e-01,-1.363159631353578538e+00,-3.711914009993166896e-01,-4.418845990745118968e+00,2.802475453475449285e+01,1.255642772660991113e+01,3.669731138116659963e+00,5.541227988747233768e-01,-4.714430489091316068e-02
2.320000000000000118e-01,8.793407559377608429e-01,2.243767309248263953e+00,-1.592390543924983914e+00,-7.975880207666034005e-01,-1.321171837580228603e+00,1.406231174200895717e+00,1.194176373731917901e-01,1.183639478570244208e+00,-6.146292197847728067e-01,-3.196005367727754454e-01,-1.281409244351470411e+00,-2.878851677586002356e-01,-4.583662529556890242e+00,2.814133565150308769e+01,1.262609687788639157e+01,3.674586438688012713e+00,5.408835420757668322e-01,-4.650533549382309534e-02
2.340000000000000135e-01,8.796125027809597041e-01,2.246015438601760561e+00,-1.593781745402198968e+00,-7.980652783261570349e-01,-1.323867483827878555e+00,1.405519418889050298e+00,9.887537975588772676e-02,1.257402800446665081e+00,-5.146295925909060154e-01,-4.196005133913492946e-01,-1.199007259313792151e+00,-2.030106893092767373e-01,-4.739914288312485624e+00,2.823465027213572043e+01,1.269415306738036797e+01,3.678007058827356346e+00,5.242697705197806313e-01,-4.579274390846792969e-02
2.360000000000000153e-01,8.798437690459453009e-01,2.248410567961505624e+00,-1.594972947436134048e+00,-7.987425358391156971e-01,-1.326399362661115688e+00,1.404974936430060550e+00,7.799170237214017587e-02,1.331457055760032038e+00,-4.146299920609153866e-01,-5.196004904513060740e-01,-1.115996267325045421e+00,-1.167172230557472212e-01,-4.884643643196078244e+00,2.830745771527328003e+01,1.276053841934441557e+01,3.680202117972815046e+00,5.046211166184985109e-01,-4.502513108342692805e-02
2.380000000000000171e-01,8.800337800742908945e-01,2.250953355381605903e+00,-1.595964150354692190e+00,-7.996197933046984563e-01,-1.328766160381851247e+00,1.404600900333329738e+00,5.680967883848455496e-02,1.405777260940805462e+00,-3.146303329892684575e-01,-6.196004684598231949e-01,-1.032415851355441339e+00,-2.914398638214153042e-02,-5.015853704367441601e+00,2.835761234836714806e+01,1.282445197076865462e+01,3.680931975440417947e+00,4.820220314719237398e-01,-4.419268494609285280e-02
2.399999999999999911e-01,8.801818939077460380e-01,2.253644386914509745e+00,-1.596755354068889243e+00,-8.006970507246506941e-01,-1.330966709911353130e+00,1.404399974979466670e+00,3.537894585278496262e-02,1.480360955532337819e+00,-2.146306317377549844e-01,-7.196004472838960497e-01,-9.482974269170452164e-01,5.959708063953617768e-02,-5.134212033829156141e+00,2.836941050553910770e+01,1.288304371831087103e+01,3.678717258260428835e+00,4.558507011272012188e-01,-4.320696349912714340e-02
2.419999999999999929e-01,8.802874978004787687e-01,2.256484231358822701e+00,-1.597346558422257035e+00,-8.019743081011226904e-01,-1.332999872480927772e+00,1.404374725520400435e+00,1.375095888025287642e-02,1.555205617524643813e+00,-1.146309211332495748e-01,-8.196004266868945898e-01,-8.636706702975065486e-01,1.493994051943229595e-01,-5.240385457992293716e+00,2.832597776628121977e+01,1.293315642676642518e+01,3.671955774318472976e+00,4.254498581744657337e-01,-4.197484079599198697e-02
2.439999999999999947e-01,8.803501247700179499e-01,2.259473347029523627e+00,-1.597737763343658690e+00,-8.034515654356494396e-01,-1.334864581650374582e+00,1.404527445295757682e+00,-8.007252166282908742e-03,1.630221182037676408e+00,-1.463121373463562892e-02,-9.196004065632826796e-01,-7.785576003916058196e-01,2.401721165736994679e-01,-5.324831032069776704e+00,2.823612056017742944e+01,1.297259957729037971e+01,3.661040890719778673e+00,3.920711414981415399e-01,-4.059923140650893020e-02
2.459999999999999964e-01,8.803694513461622906e-01,2.262612083464219825e+00,-1.597928968845970132e+00,-8.051288227291620858e-01,-1.336559842190985670e+00,1.404860160030589666e+00,-2.981332344989289646e-02,1.705231393287025776e+00,8.536849785419182990e-02,-1.019600386936598602e+00,-6.929726969579671492e-01,3.318398036805840223e-01,-5.367953714372263541e+00,2.813392956546398693e+01,1.300013443794235179e+01,3.648330715430113003e+00,3.588456161397296507e-01,-3.937606287101291791e-02
2.479999999999999982e-01,8.803451950520441160e-01,2.265900778475723243e+00,-1.597920174940612448e+00,-8.070060799825844455e-01,-1.338084673741110064e+00,1.405374839044092106e+00,-5.158477426097209800e-02,1.780110671103329212e+00,1.853682205923732340e-01,-1.119600367828150977e+00,-6.069295849869431603e-01,4.243300633026769741e-01,-5.356934743927425302e+00,2.801923897122957996e+01,1.300883860509283529e+01,3.633004265414020661e+00,3.271631740969211388e-01,-3.840600264774667733e-02
2.500000000000000000e-01,8.802772702702080787e-01,2.269339729708240050e+00,-1.597711381610778192e+00,-8.090833371969426979e-01,-1.339438162768378460e+00,1.406073197493437510e+00,-7.324211842154949859e-02,1.855039593070388459e+00,2.853679542219695331e-01,-1.219600349215923085e+00,-5.204388679139353435e-01,5.175837623664149012e-01,-5.319543400697191338e+00,2.769277917965760238e+01,1.295952802919967262e+01,3.595854149625324236e+00,2.881521640334960832e-01,-3.664318880146173046e-02
2.520000000000000018e-01,8.801656631863731262e-01,2.272929215091765709e+00,-1.597302588829828007e+00,-8.113605943732995485e-01,-1.340619418961253695e+00,1.406956860623134187e+00,-9.470603465307002311e-02,1.930297550706420839e+00,3.853676959679767089e-01,-1.319600331062806386e+00,-4.335098255012595492e-01,6.115465577941553432e-01,-5.296845997270863471e+00,2.688473106138721747e+01,1.280057754429255645e+01,3.511038096012059295e+00,2.294532744060185370e-01,-3.264976541475811400e-02
2.540000000000000036e-01,8.800106575228537897e-01,2.276668931546440344e+00,-1.596693796575824109e+00,-8.138378515126464263e-01,-1.341627534350904094e+00,1.408027356377235861e+00,-1.158064297175070700e-01,2.005305610998862953e+00,4.853674439979493993e-01,-1.419600313338908126e+00,-3.461243998738557925e-01,7.061790044259662613e-01,-5.236367743277322795e+00,2.523730333970311790e+01,1.236234834863149601e+01,3.332265878066434261e+00,1.494203477428220073e-01,-2.594693495359927382e-02
2.560000000000000053e-01,8.798130883062937890e-01,2.280557499204286742e+00,-1.595885004835569276e+00,-8.165151086158444205e-01,-1.342461568197240274e+00,1.409286032543042744e+00,-1.362049759153206308e-01,2.077893852321188728e+00,5.853671982313123356e-01,-1.519600296027743935e+00,-2.582138689737741299e-01,8.014692590387613169e-01,-4.912241269281508949e+00,2.222979865570247426e+01,1.125650307070906564e+01,2.975362688016848445e+00,6.626954767756608466e-02,-1.783416320529113835e-02
2.580000000000000071e-01,8.795738503676359121e-01,2.284593421389693013e+00,-1.594876213596812420e+00,-8.193923656837407421e-01,-1.343120576205217187e+00,1.410734217364839616e+00,-1.555450958373502113e-01,2.145719766051594313e+00,6.853669587775289562e-01,-1.619600279114284946e+00,-1.697040148023537254e-01,8.974084726077167229e-01,-4.079789954819804443e+00,1.732384795189828708e+01,9.070980392349829557e+00,2.352044080857226493e+00,3.716593721020192143e-04,-9.803818106623604645e-03
2.600000000000000089e-01,8.792938385378219479e-01,2.288775201427044603e+00,-1.593667422847302895e+00,-8.224696227171819363e-01,-1.343603614079790454e+00,1.412373239086912147e+00,-1.734702120744352483e-01,2.206440843568277188e+00,7.853667257460630324e-01,-1.719600262583500960e+00,-8.052061936093410366e-02,9.939877961080083590e-01,-2.494337179428594009e+00,9.981082170803574627e+00,5.393718995378340431e+00,1.374025611581491280e+00,-2.790253201171892863e-02,-3.348267594386563663e-03
2.620000000000000107e-01,8.789785584562861409e-01,2.293111563599944613e+00,-1.592282786908619130e+00,-8.257117569924781186e-01,-1.343902246852865412e+00,1.414224423885612314e+00,-1.897418435731361153e-01,2.255583927501348285e+00,8.859017474356324362e-01,-1.820884603069466978e+00,6.760263844594581635e-03,1.087372070644630373e+00,-5.826339407168179996e+00,-7.869128492742448522e+00,-8.488063575955373530e-01,-7.668397902985282233e-01,-1.199403089373495490e+00,4.529377659992633864e-02
2.640000000000000124e-01,8.787786583350597480e-01,2.297828690701106513e+00,-1.591492040446519596e+00,-8.280202573076477224e-01,-1.343860829395882028e+00,1.416801097650600916e+00,-2.084063159687751798e-01,2.230931034849363392e+00,9.970412816514099275e-01,-1.961149571713585393e+00,3.460571412076987943e-03,1.050599580932221278e+00,-5.000297123335249339e+00,-6.963922667514781395e+00,-1.009843841520818186e+00,-7.154634741532441833e-01,-9.721310336762707394e-01,3.818357241611511355e-02
2.660000000000000142e-01,8.785330094349967922e-01,2.302473260741888961e+00,-1.590439107073135849e+00,-8.306656272165231503e-01,-1.343827059148858361e+00,1.419271485889286977e+00,-2.257319054773919975e-01,2.215409291460018082e+00,1.093562438260696323e+00,-2.091461905806062394e+00,6.877018837643078097e-04,1.016364998872960612e+00,-4.280004244124009816e+00,-6.068546012636410580e+00,-1.095884421670369813e+00,-6.548490962657212977e-01,-7.770539973532399891e-01,3.184000297404074309e-02
2.680000000000000160e-01,8.782438063143465090e-01,2.307055382494200391e+00,-1.589140651332045406e+00,-8.336326111514453796e-01,-1.343800389155429764e+00,1.421641940122915448e+00,-2.417482698312053424e-01,2.208420484003184026e+00,1.176354280234169547e+00,-2.212178366136424490e+00,-1.594194241444754547e-03,9.847333501848426485e-01,-3.655407727607289381e+00,-5.194755175204765152e+00,-1.116775103641157951e+00,-5.872015145004637615e-01,-6.120001011364838428e-01,2.623490203917987207e-02
2.700000000000000178e-01,8.779132435313582450e-01,2.311585164729950570e+00,-1.587613337766826449e+00,-8.369059535447558318e-01,-1.343780272459232039e+00,1.423918811872729950e+00,-2.564850667624337666e-01,2.209366399148733340e+00,1.246305870542506966e+00,-2.323655713494197084e+00,-3.420966464651487536e-03,9.557696605858617689e-01,-3.116454531857911991e+00,-4.354306802317280400e+00,-1.082362893030148987e+00,-5.147255867219757697e-01,-4.747974657580837365e-01,2.134010337700920079e-02
2.720000000000000195e-01,8.775435156442815687e-01,2.316072716221051042e+00,-1.585873830921057159e+00,-8.404703988287958172e-01,-1.343766162103901873e+00,1.426108452659975878e+00,-2.699719540032959886e-01,2.217648823566538141e+00,1.304306272156387614e+00,-2.426250708668907130e+00,-4.828464286957185637e-03,9.295389557940129110e-01,-2.653091614948704713e+00,-3.558957541071389397e+00,-1.002494795434309305e+00,-4.396261707947618502e-01,-3.632742119501208289e-01,1.712744075300539834e-02
2.740000000000000213e-01,8.771368172113657158e-01,2.320528145739408910e+00,-1.583938795338314831e+00,-8.443106914359066462e-01,-1.343757511133074178e+00,1.428217214005896851e+00,-2.822385892860106438e-01,2.232669543926470990e+00,1.351244548046488969e+00,-2.520320112450080696e+00,-5.852537209463139212e-03,9.061062615272901244e-01,-2.255265934952491946e+00,-2.820464038564527876e+00,-8.870178164506057339e-01,-3.641081245833260871e-01,-2.752584604446761674e-01,1.356874793264515287e-02
2.760000000000000231e-01,8.766953427908595886e-01,2.324961562056933939e+00,-1.581824895562176314e+00,-8.484115757984287409e-01,-1.343753772590384310e+00,1.430251447431736711e+00,-2.933146303427962009e-01,2.253830346898401782e+00,1.388009761183488067e+00,-2.606220685627242517e+00,-6.529034733270640788e-03,8.855366035036874583e-01,-1.912924449942095428e+00,-2.150582941894120470e+00,-7.457789616760028828e-01,-2.903763059521721202e-01,-2.085783319738302999e-01,1.063585868140511960e-02
2.780000000000000249e-01,8.762212869410127558e-01,2.329383073945537230e+00,-1.579548796136220234e+00,-8.527577963487041890e-01,-1.343754399519469400e+00,1.432217504458740409e+00,-3.032297349058715175e-01,2.280533019152204410e+00,1.415490974538063940e+00,-2.684309188989919992e+00,-6.893806359480987231e-03,8.678950074411997395e-01,-1.616014117990342447e+00,-1.561070898157606024e+00,-5.886252367074684688e-01,-2.206355727658045884e-01,-1.610619472696644683e-01,8.300606764761986681e-03
2.800000000000000266e-01,8.757168442200744529e-01,2.333802790177127218e+00,-1.577127161604024552e+00,-8.573340975190735236e-01,-1.343758844963963917e+00,1.434121736608151565e+00,-3.120135607074550621e-01,2.312179347357748771e+00,1.434577251080893845e+00,-2.754942383327639188e+00,-6.982701589195465866e-03,8.532464990578213504e-01,-1.354481897170058291e+00,-1.063684554452416053e+00,-4.254036471419677112e-01,-1.570907828887274094e-01,-1.305374270642598311e-01,6.534825948192431004e-03
2.820000000000000284e-01,8.751842091862942485e-01,2.338230819523613668e+00,-1.574576656509166339e+00,-8.621252237418783881e-01,-1.343766561967504769e+00,1.435970495401215130e+00,-3.196957654797655812e-01,2.348171118184907868e+00,1.446157653782655927e+00,-2.818477029429924841e+00,-6.831569923515373559e-03,8.416561040715467845e-01,-1.118274745554066918e+00,-6.701805578759836290e-01,-2.659611985764680497e-01,-1.019467941854451387e-01,-1.148328920896972416e-01,5.310349997173130325e-03
2.840000000000000302e-01,8.746255763979209341e-01,2.342677270756904573e+00,-1.571913945395223111e+00,-8.671159194494593159e-01,-1.343777003573726425e+00,1.437770132359174724e+00,-3.263060069550215436e-01,2.387910118303552931e+00,1.451121245614027444e+00,-2.875269888086304348e+00,-6.476260863541997634e-03,8.331888482003699803e-01,-8.973396212151927287e-01,-3.923155555257402671e-01,-1.201448966079343705e-01,-5.740846452046147186e-02,-1.117764630780577195e-01,4.599012677180755460e-03
2.860000000000000320e-01,8.740431404132038562e-01,2.347152252648911919e+00,-1.569155692805772828e+00,-8.722909290741581723e-01,-1.343789622826265573e+00,1.439526999003274632e+00,-3.318739428654417511e-01,2.430798134383556519e+00,1.450357089545687206e+00,-2.925677720086302891e+00,-5.952623910376634089e-03,8.279097571622856533e-01,-6.816234822262607906e-01,-2.418461944991192603e-01,2.198253166666996883e-03,-2.568065175828077029e-02,-1.191962607614223540e-01,4.372647753691985897e-03
2.880000000000000338e-01,8.734390957903929165e-01,2.351665873971544141e+00,-1.566318563284393894e+00,-8.776349970483158236e-01,-1.343803872768757790e+00,1.441247446854760028e+00,-3.364292309432448946e-01,2.476236953094789861e+00,1.444754248548312692e+00,-2.970057286219446979e+00,-5.296508565120578924e-03,8.258838566752884081e-01,-4.610732866600959490e-01,-2.305291218935550113e-01,9.122124515036844628e-02,-8.968213763407451022e-03,-1.349204058718720400e-01,4.603088992183498526e-03
2.900000000000000355e-01,8.728156370877369064e-01,2.356228243496710117e+00,-1.563419221374663159e+00,-8.831328678042735802e-01,-1.343819206444838876e+00,1.442937827434873643e+00,-3.400015289206495539e-01,2.523628361107125073e+00,1.435201785592581825e+00,-3.008765347275262680e+00,-4.543764328875119461e-03,8.271761724573722940e-01,-2.256359925895248253e-01,-3.701209848064754837e-01,1.370770737462054800e-01,-9.476008400345070637e-03,-1.567770191414878944e-01,5.262170158131964162e-03
2.920000000000000373e-01,8.721749588634849504e-01,2.360849469996320060e+00,-1.560474331620158139e+00,-8.887692857743723085e-01,-1.343835076898143965e+00,1.444604492264860873e+00,-3.426204945298741422e-01,2.572374145090433384e+00,1.422588763649172083e+00,-3.042158664043275174e+00,-3.730240702741549532e-03,8.318517302265319158e-01,3.474144191263084380e-02,-6.723784303353190772e-01,1.299187333572109360e-01,-2.940889353359843472e-02,-1.825942213023508953e-01,6.321725017014068367e-03
2.940000000000000391e-01,8.715192556758866171e-01,2.365539662242282404e+00,-1.557500558564457460e+00,-8.945289953909534297e-01,-1.343850937172309745e+00,1.446253792865965559e+00,-3.443157855031375725e-01,2.621876091714587353e+00,1.407804245688762057e+00,-3.070593997313012302e+00,-2.891787187821159497e-03,8.399755557007613227e-01,3.301120587735446588e-01,-1.149058105577515754e+00,5.989921838641820706e-02,-7.097172702767140517e-02,-2.102001330865420348e-01,7.753587334306482823e-03
2.960000000000000409e-01,8.708507220831913642e-01,2.370308929006509135e+00,-1.554514566751137972e+00,-9.003967410863580323e-01,-1.343866240310971127e+00,1.447892080759431765e+00,-3.451170595726584245e-01,2.671535987649458654e+00,1.391737294682029225e+00,-3.094428107873997913e+00,-2.064253285215245787e-03,8.516126745980554524e-01,6.705288999203917744e-01,-1.811916657630498584e+00,-8.282847676313798146e-02,-1.363693667470682325e-01,-2.374228752261423880e-01,9.529590875485884419e-03
2.980000000000000426e-01,8.701715526436479831e-01,2.375167379060906914e+00,-1.551533020723777856e+00,-9.063572672929274265e-01,-1.343880439357764356e+00,1.449525707466504221e+00,-3.450539744706551115e-01,2.720755619564918071e+00,1.375276973599651065e+00,-3.114017756515758961e+00,-1.283488496025100714e-03,8.668281126364083544e-01,1.066045007280348456e+00,-2.672710733591701526e+00,-3.081113576884249028e-01,-2.278066705562932226e-01,-2.620905684532328084e-01,1.162156940602894831e-02
2.999999999999999889e-01,8.694839419155063753e-01,2.380125121177387282e+00,-1.548572585025954851e+00,-9.123953184430027008e-01,-1.343892987356325452e+00,1.451161024508427211e+00,-3.441561879293466575e-01,2.768936774130839051e+00,1.359312345412306611e+00,-3.129719704027822402e+00,-5.853423213520165917e-04,8.856868955338146332e-01,1.526713422780585860e+00,-3.743196980558550990e+00,-6.257964299864067215e-01,-3.474884963198497934e-01,-2.820313334998944543e-01,1.400135669141234530e-02
3.019999999999999907e-01,8.687900844559157676e-01,2.385192264069899704e+00,-1.545649924125315433e+00,-9.184956390082713584e-01,-1.343903337353357097e+00,1.452804383403998090e+00,-3.424533572347607246e-01,2.815481239861118645e+00,1.344732468308654783e+00,-3.141890711056209096e+00,-5.664070628438017973e-06,9.082540470585700465e-01,2.062587065005013098e+00,-5.035131778228014277e+00,-1.045730570253193381e+00,-4.976196646903595644e-01,-2.950733029469628232e-01,1.664078627103077190e-02
3.039999999999999925e-01,8.680921216066573853e-01,2.390376111487334754e+00,-1.542778027743336722e+00,-9.246448776659796920e-01,-1.343911090851185985e+00,1.454462017287602826e+00,-3.399535458676454791e-01,2.859880048615510262e+00,1.332194970310959681e+00,-3.150880593198883695e+00,4.289729375442664092e-04,9.345002335228501655e-01,2.677749540950714824e+00,-6.547330413201886579e+00,-1.571517539359251980e+00,-6.786040928375214332e-01,-2.996180407972789950e-01,1.950075023725081000e-02
3.059999999999999942e-01,8.673919991087575276e-01,2.395673657125408251e+00,-1.539956378542554294e+00,-9.308366822752307534e-01,-1.343916395022167531e+00,1.456139724154661419e+00,-3.365854461665694908e-01,2.901952259028136361e+00,1.321506824524332657e+00,-3.157013638529160726e+00,7.260906251928665343e-04,9.640492968154261710e-01,3.354343392919579614e+00,-8.231041320076034395e+00,-2.183813626922508355e+00,-8.842262177357183006e-01,-2.961748408556050260e-01,2.250192381762793070e-02
3.079999999999999960e-01,8.666916177735287663e-01,2.401079526448975265e+00,-1.537181356598807502e+00,-9.370663084151059641e-01,-1.343919522379678932e+00,1.457843202048684228e+00,-3.322595188290864421e-01,2.941592277853728898e+00,1.312279607658528580e+00,-3.160608271419103499e+00,9.010426296299118036e-04,9.964454128632459495e-01,4.069471275868698612e+00,-1.002658677380974339e+01,-2.858004062493052722e+00,-1.106749974281202364e+00,-2.857371448430656158e-01,2.555574438044212748e-02
3.099999999999999978e-01,8.659928784122832290e-01,2.406588344922891309e+00,-1.534449341987934368e+00,-9.433290116646868562e-01,-1.343920745437097830e+00,1.459578149013179171e+00,-3.268862245527498489e-01,2.978694511847015391e+00,1.304124896423301205e+00,-3.161982916240777097e+00,9.691825881679527830e-04,1.031232757593256721e+00,4.800235844755159853e+00,-1.187428904936227347e+01,-3.569474075620969522e+00,-1.338439297370222603e+00,-2.692983944807854635e-01,2.857364929397335912e-02
3.119999999999999996e-01,8.652976818363333766e-01,2.412194738012012341e+00,-1.531756714785774687e+00,-9.496200476030552950e-01,-1.343920336707802532e+00,1.461350263091655721e+00,-3.203760240351135047e-01,3.013153367762728241e+00,1.296654267528405402e+00,-3.161455997366246162e+00,9.458641381195387375e-04,1.067955506932406262e+00,5.523739754536051372e+00,-1.371447042169289787e+01,-4.293608895856342755e+00,-1.571558121899029548e+00,-2.478520314898893795e-01,3.146707592650159480e-02
3.140000000000000013e-01,8.646079288569917809e-01,2.417893331181195649e+00,-1.529099855068167813e+00,-9.559346718092930351e-01,-1.343918568705170680e+00,1.463165242327624460e+00,-3.126393779737312584e-01,3.044863252355597183e+00,1.289479297683596259e+00,-3.159345939167577999e+00,8.464409167972217511e-04,1.106157836807642569e+00,6.217085660168464756e+00,-1.548745316576089870e+01,-5.005793752749260861e+00,-1.798370382763873065e+00,-2.223914975915021741e-01,3.414746164630681063e-02
3.160000000000000031e-01,8.639255202855706806e-01,2.423678749895293638e+00,-1.526475142910951766e+00,-9.622681398624811644e-01,-1.343915713942578805e+00,1.465028784764592418e+00,-3.035867470661564593e-01,3.073718572380351954e+00,1.282211563598627313e+00,-3.155971166016833251e+00,6.862665615135497875e-04,1.145383923145911975e+00,6.857376216609482711e+00,-1.713355955652552609e+01,-5.681413875849804285e+00,-2.011140014861002356e+00,-1.939102345067485744e-01,3.652624382166896888e-02
3.180000000000000049e-01,8.632523569333823144e-01,2.429545619619164043e+00,-1.523878958389965677e+00,-9.686157073417016594e-01,-1.343912044933404992e+00,1.466946588446069955e+00,-2.931285920099429010e-01,3.099613734591722292e+00,1.274462641983253430e+00,-3.151650102286078781e+00,4.806947095810731960e-04,1.185177941874163032e+00,7.421714078816199489e+00,-1.859311186894607104e+01,-6.295854494708065019e+00,-2.202130953086669063e+00,-1.634016839567531965e-01,3.851485982086804566e-02
3.200000000000000067e-01,8.625903396117390320e-01,2.435488565817662820e+00,-1.521307681581049120e+00,-9.749726298260360524e-01,-1.343907834191027328e+00,1.468924351415565654e+00,-2.811753735026441547e-01,3.122443145744439263e+00,1.265844109547228813e+00,-3.146701172347378339e+00,2.450789983123420005e-04,1.225084068919343183e+00,7.887201901745703125e+00,-1.980643237798179968e+01,-6.824500838874125286e+00,-2.363607132337123051e+00,-1.318592876626407673e-01,4.002474701218401709e-02
3.220000000000000084e-01,8.619413691319534054e-01,2.441502213955644596e+00,-1.518757692560041006e+00,-9.813341628945658757e-01,-1.343903354228823011e+00,1.470967771716589434e+00,-2.676375522418141251e-01,3.142101212593232162e+00,1.255967543000308106e+00,-3.141442800572797900e+00,-5.226934980092325035e-06,1.264646480208399648e+00,8.230942340355081654e+00,-2.071384335859197634e+01,-7.242738137898069084e+00,-2.487832487508613521e+00,-1.002764873455363331e-01,4.096734276389685236e-02
3.240000000000000102e-01,8.613073463053375622e-01,2.447581189497965770e+00,-1.516225371402780020e+00,-9.876955621263729945e-01,-1.343898877560169902e+00,1.473082547392650543e+00,-2.524255889250062168e-01,3.158482341892832501e+00,1.244444519052245957e+00,-3.136193411334401215e+00,-2.548694529836811255e-04,1.303409351668280536e+00,8.430038049601423111e+00,-2.125566708573588670e+01,-7.525951621329988406e+00,-2.567070953497391894e+00,-6.964672472656431579e-02,4.125408444428652760e-02
3.260000000000000120e-01,8.606901719432042963e-01,2.453720117909481413e+00,-1.513707098185105071e+00,-9.940520831005388303e-01,-1.343894676698445423e+00,1.475274376487257122e+00,-2.354499442497741957e-01,3.171480940397969572e+00,1.230886614412796565e+00,-3.131271429004253370e+00,-4.884949183858748514e-04,1.340916859225933289e+00,8.461591684441820860e+00,-2.137222583437279511e+01,-7.649526518719963697e+00,-2.593586465199707813e+00,-4.096344152684956719e-02,4.079640942163300504e-02
3.280000000000000138e-01,8.600917468568656243e-01,2.459913624655047482e+00,-1.511199252982855512e+00,-1.000398981396144693e+00,-1.343891024157026770e+00,1.477548957043919309e+00,-2.166210789136716608e-01,3.180991414863373556e+00,1.214905405791714577e+00,-3.126995277954418562e+00,-6.907496938741225978e-04,1.376713178808305127e+00,8.302705899833355829e+00,-2.100384187946196946e+01,-7.588848059618080732e+00,-2.559642957511810923e+00,-1.522007946751686991e-02,3.950575506421625388e-02
3.300000000000000155e-01,8.595139718576334520e-01,2.466156335199518601e+00,-1.508698215871870030e+00,-1.006731512592272670e+00,-1.343888192449292251e+00,1.479911987106145244e+00,-1.958494536142522946e-01,3.186908172043773302e+00,1.196112469898753972e+00,-3.123683382556960986e+00,-8.462801421358737445e-04,1.410342486342343493e+00,7.930483350733121384e+00,-2.009083749596267410e+01,-7.319301473574424399e+00,-2.457504365329950424e+00,6.589919730309021229e-03,3.729355874031623636e-02
3.320000000000000173e-01,8.589587477568210172e-01,2.472442875007752505e+00,-1.506200366927988199e+00,-1.013044932268004183e+00,-1.343886454088619065e+00,1.482369164717445287e+00,-1.730455290490698350e-01,3.189125618693901210e+00,1.174119383443669618e+00,-3.121654167183947060e+00,-9.397326258585794604e-04,1.441348957754996718e+00,7.322026692098206446e+00,-1.857353495883419825e+01,-6.816271990139083137e+00,-2.279434623550378625e+00,2.347311434550340692e-02,3.407125781821294941e-02
3.340000000000000191e-01,8.584279753657402257e-01,2.478767869544603819e+00,-1.503702086227048262e+00,-1.019334496002420654e+00,-1.343886081588384851e+00,1.484926187921327800e+00,-1.481197659156778534e-01,3.187538161568486572e+00,1.148537723136215938e+00,-3.121226056207439647e+00,-9.557535077296887456e-04,1.469276768973211578e+00,6.454438578885698163e+00,-1.639225654303580271e+01,-6.055144838862140944e+00,-2.017697667069344281e+00,3.443606265694148377e-02,2.975028966618634141e-02
3.360000000000000209e-01,8.579235554957032051e-01,2.485125944274926724e+00,-1.501199753844889351e+00,-1.025595459374603946e+00,-1.343887347461967252e+00,1.487588754761302035e+00,-1.209826249116301849e-01,3.182040207422258682e+00,1.118979065686147356e+00,-3.122717473999504278e+00,-8.789891504366525521e-04,1.493670095923935737e+00,5.304821666052693452e+00,-1.348732452352677669e+01,-5.011305249293689812e+00,-1.664557430783099479e+00,3.848532294349850391e-02,2.424209165251643011e-02
3.380000000000000226e-01,8.574473889580227493e-01,2.491511724663579397e+00,-1.498689749857351039e+00,-1.031823077963635704e+00,-1.343890524222743910e+00,1.490362563280877461e+00,-9.154456673448022053e-02,3.172526163009949496e+00,1.085054987803218296e+00,-3.126446844932206037e+00,-6.940859166669202055e-04,1.514073114534117082e+00,3.850278608556269244e+00,-9.799061175266363222e+00,-3.660138450983804859e+00,-1.212277849587891199e+00,3.462745348404981660e-02,1.745810114548311878e-02
3.400000000000000244e-01,8.570013765640110970e-01,2.497919836175416020e+00,-1.496168454340271792e+00,-1.038012607348597349e+00,-1.343895884384092465e+00,1.493253311523563109e+00,-5.971605208178176055e-02,3.158890435086287862e+00,1.046377066197183403e+00,-3.132732593377609565e+00,-3.856901691079416819e-04,1.530030000730703055e+00,2.067912061353518460e+00,-5.267788773213847975e+00,-1.977029673482576078e+00,-6.531228583799709719e-01,2.186901255747060457e-02,9.309755513366404361e-03
3.420000000000000262e-01,8.565936109186587100e-01,2.504347640169457545e+00,-1.493646877267824413e+00,-1.044174795286484603e+00,-1.343919944330280725e+00,1.496259503910874145e+00,-2.573352189747967964e-02,3.140311675997651708e+00,1.003809955141110377e+00,-3.139599489857073600e+00,2.831525521506212013e-03,1.542197837035295116e+00,9.601774474961418449e+00,-3.070761268974737135e+01,-1.065535196862369105e+01,-3.493234188703588927e+00,5.116919081179902573e-01,9.745721786298223305e-03
3.440000000000000280e-01,8.564391498653807222e-01,2.510827456931222557e+00,-1.491623063134691840e+00,-1.050766563752416616e+00,-1.344377660411140152e+00,1.499134579730514671e+00,-1.910196418753574857e-03,3.095988818351244731e+00,1.000662216407743887e+00,-3.072335501023096160e+00,9.622529119740508285e-02,1.587515742228296611e+00,9.426698939032002400e+00,-3.055423373410879151e+01,-1.057721053587296289e+01,-3.495145366656885688e+00,4.422251874707367469e-01,1.291802653201373080e-02
3.460000000000000298e-01,8.563310556398396889e-01,2.517214198723680241e+00,-1.489604541745152222e+00,-1.057205767312944911e+00,-1.344601920923304883e+00,1.502112427403004657e+00,2.166759810499980024e-02,3.053513801479400325e+00,9.955325417078366712e-01,-3.011398432991314600e+00,1.792201349630380414e-01,1.627918604280855330e+00,9.278274722890051507e+00,-3.040203676251904596e+01,-1.046225714471058410e+01,-3.495120807657698503e+00,3.562582668281937259e-01,1.649600084151179452e-02
3.480000000000000315e-01,8.562694883738390939e-01,2.523510530164557508e+00,-1.487593139981439050e+00,-1.063502320902601994e+00,-1.344613707655380797e+00,1.505185860248339891e+00,4.510007242733376359e-02,3.012727678565663592e+00,9.887497405667279304e-01,-2.956366653858835569e+00,2.517877243309684099e-01,1.663812875955557491e+00,9.157585091277084643e+00,-3.024832379151264661e+01,-1.031548748126773951e+01,-3.492983045913850670e+00,2.576196356675142796e-01,2.035806984190461841e-02
3.500000000000000333e-01,8.562546081991838642e-01,2.529719115871587487e+00,-1.485590684725787147e+00,-1.069666139455921705e+00,-1.344434002395975325e+00,1.508347691586518380e+00,6.848743730180169298e-02,2.973471502793581855e+00,9.806426225097586435e-01,-2.906818531722771493e+00,3.138997268137597718e-01,1.695605010014993530e+00,9.065713308934634895e+00,-3.009039683762418704e+01,-1.014189723167563173e+01,-3.488554615633173484e+00,1.501377834658524091e-01,2.438265866030442375e-02
3.520000000000000351e-01,8.562865752476778169e-01,2.535842620462497976e+00,-1.483599002860430893e+00,-1.075707137907437883e+00,-1.344083786933695457e+00,1.511590734737537689e+00,9.192990348195696770e-02,2.935586327346698887e+00,9.715399970622679016e-01,-2.862332434680229021e+00,3.655278099239755440e-01,1.723701459221749444e+00,9.003742640604221137e+00,-2.992555791738820048e+01,-9.946482082065445596e+00,-3.481658051023490685e+00,3.764119970036079732e-02,2.844819242382343183e-02
3.540000000000000369e-01,8.563655496511253240e-01,2.541883708555018107e+00,-1.481619921267603779e+00,-1.081635231191683033e+00,-1.343584043057147070e+00,1.514907803021393384e+00,1.155276817213529011e-01,2.898913205408559790e+00,9.617706737495959057e-01,-2.822486730828317025e+00,4.066436411741792267e-01,1.748508676338413892e+00,8.972756351027367572e+00,-2.975110904733922723e+01,-9.734237718568369502e+00,-3.472115886292629572e+00,-7.604162615180688756e-02,3.243309625957385700e-02
3.560000000000000386e-01,8.564916915413300913e-01,2.547845044766877010e+00,-1.479655266829539517e+00,-1.087460334243190996e+00,-1.342955752554936044e+00,1.518291709758082808e+00,1.393809827735428553e-01,2.863293190162708335e+00,9.516634620970816361e-01,-2.786859788264143933e+00,4.372188880769340980e-01,1.770433114127573981e+00,8.973837704945596627e+00,-2.956435224401181827e+01,-9.510159827315597170e+00,-3.459750655648417439e+00,-1.870822046134973105e-01,3.621579529466789626e-02
3.580000000000000404e-01,8.566651610500961578e-01,2.553729293715804705e+00,-1.477706866428472043e+00,-1.093192361996494277e+00,-1.342219897215669144e+00,1.521735268267602414e+00,1.635900173920802059e-01,2.828567334792690069e+00,9.415471716300654048e-01,-2.755029975084816840e+00,4.572252181448036024e-01,1.789881225351817928e+00,9.008069967100432507e+00,-2.936258952394052102e+01,-9.279244094438315216e+00,-3.444384893298679362e+00,-2.916520462075573583e-01,3.967471465621778132e-02
3.600000000000000422e-01,8.568861183092284506e-01,2.559539120019531211e+00,-1.475776546946636181e+00,-1.098841229386127383e+00,-1.341397458827954026e+00,1.525231291869949768e+00,1.882549963305183427e-01,2.794576692482051872e+00,9.317506118738871912e-01,-2.726575659387447281e+00,4.666342988903514621e-01,1.807259462773733949e+00,9.076536402233401191e+00,-2.914312290365989710e+01,-9.046486206067720914e+00,-3.425841133451243969e+00,-3.859226614568336267e-01,4.268827947133573691e-02
3.620000000000000440e-01,8.571547234505300095e-01,2.565277188295783883e+00,-1.473866135266264532e+00,-1.104416851346622597e+00,-1.340509419180395456e+00,1.528772593885121323e+00,2.134761303424104473e-01,2.761162316414335738e+00,9.226025923538859752e-01,-2.701075209269141464e+00,4.654177978261407889e-01,1.822974279155908484e+00,9.180320275086021553e+00,-2.890325439970447974e+01,-8.816881848334995553e+00,-3.403941910313936337e+00,-4.660655608841723363e-01,4.513491486713394618e-02
3.640000000000000457e-01,8.574711379716641879e-01,2.570946160985104090e+00,-1.471977453789785173e+00,-1.109929137060030158e+00,-1.339576760448759174e+00,1.532351993160057546e+00,2.393535293647335860e-01,2.728165456775575759e+00,9.144316192702056645e-01,-2.678107271108547405e+00,4.535491806280644300e-01,1.837431955224903879e+00,9.320498853274143514e+00,-2.864028473502100169e+01,-8.595416063495919801e+00,-3.378509353988683461e+00,-5.282597174390928352e-01,4.689328542042908027e-02
3.660000000000000475e-01,8.578358964642175399e-01,2.576548105812976441e+00,-1.470111101228053885e+00,-1.115386424376198171e+00,-1.338620570563814338e+00,1.535963818265834169e+00,2.659597645641970654e-01,2.695481176392696909e+00,9.074833433720921327e-01,-2.657326505880365453e+00,4.314930941694891109e-01,1.850991778833777968e+00,9.496511246563065001e+00,-2.835116127977077127e+01,-8.384166442970407473e+00,-3.349255210154915119e+00,-5.707225193859699619e-01,4.790746311049303569e-02
3.680000000000000493e-01,8.582504112699330667e-01,2.582083691363290079e+00,-1.468264797404359889e+00,-1.120793354389309826e+00,-1.337662186258215868e+00,1.539605949588511935e+00,2.933026187037741095e-01,2.663131139065383568e+00,9.018084875905807429e-01,-2.638566408410313535e+00,4.008697505658365690e-01,1.863902481219170237e+00,9.703942593347020917e+00,-2.803200009746278454e+01,-8.178370436197862858e+00,-3.315631531322714043e+00,-5.964669821402847072e-01,4.827539901709890918e-02
3.699999999999999956e-01,8.587162208542900022e-01,2.587553385177570497e+00,-1.466435848475236003e+00,-1.126154037007496722e+00,-1.336722980014909634e+00,1.543276777873706429e+00,3.213805651142040976e-01,2.631155199860716554e+00,8.974297657191225852e-01,-2.621686170122897952e+00,3.634654048613880639e-01,1.876396907760541577e+00,9.937824255676941831e+00,-2.767879780132635403e+01,-7.972282634041702565e+00,-3.277053054744766492e+00,-6.091952037836529943e-01,4.811715507590885732e-02
3.719999999999999973e-01,8.592348636827679131e-01,2.592957654797341416e+00,-1.464621560597215266e+00,-1.131472582138890237e+00,-1.335824324316842171e+00,1.546974693867033013e+00,3.501920771262265752e-01,2.599593213845776685e+00,8.943698915511684167e-01,-2.606544982442625447e+00,3.210663121004245224e-01,1.888707903837352653e+00,1.019318759560375298e+01,-2.728755100459079230e+01,-7.760157627365340538e+00,-3.232934517673758723e+00,-6.126092823976905244e-01,4.755279322258502278e-02
3.739999999999999991e-01,8.598078782208458115e-01,2.598296967764126997e+00,-1.462819239926830717e+00,-1.136753099691621971e+00,-1.334987591646958682e+00,1.550698088314107048e+00,3.797356280705809772e-01,2.568485036087644779e+00,8.926515788801692164e-01,-2.593002036794003651e+00,2.754587273272270931e-01,1.901068314829063688e+00,1.046506397517838494e+01,-2.685425632048541544e+01,-7.536250007032194276e+00,-3.182690657362376552e+00,-6.104113160640129987e-01,4.670237539278953437e-02
3.760000000000000009e-01,8.604367960521932535e-01,2.603571835116814892e+00,-1.461026192872215690e+00,-1.141999614438586885e+00,-1.334232748181978900e+00,1.554445515775629616e+00,4.100124804840016290e-01,2.537874207944883942e+00,8.923021333683724965e-01,-2.580916554308840816e+00,2.283125104273300010e-01,1.913702234624172771e+00,1.074893670688713065e+01,-2.637315252664258125e+01,-7.294371062626074931e+00,-3.125510096116421277e+00,-6.060646033953903666e-01,4.567234161098180506e-02
3.780000000000000027e-01,8.611230903660344049e-01,2.608783136983880091e+00,-1.459239727976416434e+00,-1.147215428751872990e+00,-1.333567827122405847e+00,1.558216920837811159e+00,4.410475642440643829e-01,2.507835550185725459e+00,8.933878242124877467e-01,-2.570148008195284550e+00,1.803098696393942435e-01,1.926759497798720799e+00,1.104412405302520384e+01,-2.582356258081917844e+01,-7.024570524886103229e+00,-3.058662795688462666e+00,-6.010061500623716801e-01,4.445354545302866028e-02
3.800000000000000044e-01,8.618682049099887221e-01,2.613931939583237885e+00,-1.457457154858869286e+00,-1.152403480779907063e+00,-1.332994845240971449e+00,1.562012948916890354e+00,4.728777419469005761e-01,2.478459654187975758e+00,8.959945654393639547e-01,-2.560555998754593610e+00,1.316350540434228500e-01,1.940352498496314970e+00,1.135187780010801184e+01,-2.517728910793060848e+01,-6.715001602955480209e+00,-2.978451357934631005e+00,-5.956513352015967433e-01,4.297856353968255300e-02
3.820000000000000062e-01,8.626735832064129639e-01,2.619019310556607749e+00,-1.455675783147247992e+00,-1.157566705884377933e+00,-1.332515773277653803e+00,1.565834250791280802e+00,5.055399674879844651e-01,2.449837231993169162e+00,9.002084213819236957e-01,-2.552000127260437790e+00,8.246850274572260775e-02,1.954593344397183241e+00,1.167346452838713589e+01,-2.440607719349409876e+01,-6.353802995354858929e+00,-2.881170983269200292e+00,-5.904077213041972749e-01,4.117952660439336277e-02
3.840000000000000080e-01,8.635406687776636669e-01,2.624046317545706497e+00,-1.453892922469223636e+00,-1.162708039426972428e+00,-1.332132581972429897e+00,1.569681477239395662e+00,5.390711947627897516e-01,2.422058995642838219e+00,9.061154563730888789e-01,-2.544339994986488662e+00,3.299065485260067876e-02,1.969594143181554013e+00,1.201015081811415541e+01,-2.348167192302685891e+01,-5.929113400604892448e+00,-2.763116872106443189e+00,-5.856828708613046608e-01,3.898856538061091365e-02
3.860000000000000098e-01,8.644709077759231697e-01,2.629014033077090584e+00,-1.452105876367481896e+00,-1.167830406185030201e+00,-1.331847230030081652e+00,1.573555285940271720e+00,5.735082745912163382e-01,2.395217647565433872e+00,9.138021629586041694e-01,-2.537434925431021338e+00,-1.661805864510714978e-02,1.985466082726278225e+00,1.236313367585508338e+01,-2.237573654366836706e+01,-5.429092187145353243e+00,-2.620575115505741071e+00,-5.818647684384566920e-01,3.633752830888815899e-02
3.880000000000000115e-01,8.654659032530288565e-01,2.633923821114630748e+00,-1.450311585344411069e+00,-1.172936099456440617e+00,-1.331660958115979954e+00,1.577456746275341493e+00,6.088819081366050323e-01,2.369524639913032971e+00,9.233805815582739607e-01,-2.531127669559968929e+00,-6.617769093880404574e-02,2.002265473941277740e+00,1.272945922883247327e+01,-2.105505169171157220e+01,-4.843131924439933123e+00,-2.449288325583929282e+00,-5.781733476884273193e-01,3.314142177598879135e-02
3.900000000000000133e-01,8.665275009449922017e-01,2.638777496402180844e+00,-1.448506428370678556e+00,-1.178026435799742533e+00,-1.331573896269730772e+00,1.581387564425749348e+00,6.452132845955129703e-01,2.345375100692759229e+00,9.350022687058719972e-01,-2.525235344813942628e+00,-1.155090441276284130e-01,2.019963746917261549e+00,1.309975324143083952e+01,-1.947884583663428870e+01,-4.162532632728587423e+00,-2.244158489684820346e+00,-5.720218622685689924e-01,2.928920176168632941e-02
3.920000000000000151e-01,8.676575674043528474e-01,2.643576912349793862e+00,-1.446686736250886174e+00,-1.183102647992468670e+00,-1.331586079265664635e+00,1.585349501194908362e+00,6.825227772639823609e-01,2.323179912931493618e+00,9.488221704778847521e-01,-2.519572869886754773e+00,-1.644329845491903086e-01,2.038525050989483223e+00,1.346409076360725265e+01,-1.760569965162485673e+01,-3.378757946160422243e+00,-2.000015489540401425e+00,-5.606685956633102874e-01,2.466758974042610950e-02
3.940000000000000169e-01,8.688579691836527674e-01,2.648323922367525896e+00,-1.444848839789636186e+00,-1.188165968812153750e+00,-1.331697541878113400e+00,1.589344317386232275e+00,7.208307594380567451e-01,2.303349959656116219e+00,9.649952329508002524e-01,-2.513955163472220811e+00,-2.127703785410997583e-01,2.057913535493197443e+00,1.381254684531880628e+01,-1.539419380987162889e+01,-2.483271498884546347e+00,-1.711689206882662351e+00,-5.413718313570805574e-01,1.916330718665354080e-02
3.960000000000000187e-01,8.701305728354322699e-01,2.653020379865428602e+00,-1.442989069791529966e+00,-1.193217631036331161e+00,-1.331908318881407594e+00,1.593373773803134386e+00,7.601576044137783317e-01,2.286296123893506671e+00,9.836764022011055264e-01,-2.508197144264153966e+00,-2.603420924409667325e-01,2.078093349763658448e+00,1.413519653652257446e+01,-1.280290898456295601e+01,-1.467536925050070717e+00,-1.374009523443590952e+00,-5.113898528343082672e-01,1.266307557481398394e-02
3.980000000000000204e-01,8.714772714166264533e-01,2.657668777767501656e+00,-1.441103536906418237e+00,-1.198258660845482382e+00,-1.332218193115364269e+00,1.597439669105713111e+00,8.005156430127331468e-01,2.272524975275065362e+00,1.005030232781348287e+00,-2.502076415942049881e+00,-3.067627410293152779e-01,2.099035977658541885e+00,1.442802721134151156e+01,-9.807866701112336827e+00,-3.267539066532664238e-01,-9.838944957490671772e-01,-4.687469107649595568e-01,5.064386883646970414e-03
4.000000000000000222e-01,8.729000967856739290e-01,2.662274958083697296e+00,-1.439187198850447436e+00,-1.203289002487025749e+00,-1.332625628057889422e+00,1.601544000206657881e+00,8.418750882285568338e-01,2.263044186913215849e+00,1.029271598103496776e+00,-2.495175166289292701e+00,-3.505668153458368352e-01,2.120751313372439384e+00,1.471798863654806055e+01,-6.476424903503482433e+00,9.243124754654366004e-01,-5.491977931356500919e-01,-4.154785677988306891e-01,-3.678862595077507427e-03
4.020000000000000240e-01,8.744011260844499756e-01,2.666845855449925473e+00,-1.437234637199731768e+00,-1.208308247232023236e+00,-1.333128656750317331e+00,1.605688828697773518e+00,8.841924122812210296e-01,2.259024914935761075e+00,1.056631787907044151e+00,-2.487011829431269749e+00,-3.899364203606373036e-01,2.143261782319413555e+00,1.504213193622978828e+01,-2.905739678593183051e+00,2.264514006998657347e+00,-8.134078507570964567e-02,-3.549290611468035594e-01,-1.359437488705524111e-02
4.040000000000000258e-01,8.759824364799123630e-01,2.671388405107298691e+00,-1.435240433322041875e+00,-1.213315986156024762e+00,-1.333725311995565210e+00,1.609876216206691524e+00,9.274240797797199676e-01,2.261638406023313230e+00,1.087342101024443952e+00,-2.477104804180385145e+00,-4.230534658581101004e-01,2.166589816854538331e+00,1.543751382958939189e+01,8.070163816491928710e-01,3.672698938038263972e+00,4.082531828187095368e-01,-2.904433528911412044e-01,-2.470984182533879706e-02
4.060000000000000275e-01,8.776461051390191948e-01,2.675909542296930343e+00,-1.433199168585149952e+00,-1.218311810334580247e+00,-1.334413626596548941e+00,1.614108224361043398e+00,9.715265553330474368e-01,2.272055906856484508e+00,1.121633836288149721e+00,-2.464972489349042561e+00,-4.480998616226481435e-01,2.190757849332887197e+00,1.594119103582957209e+01,4.564670685254238691e+00,5.127715518676113859e+00,9.081607649355578626e-01,-2.253664051141074653e-01,-3.705295524298062720e-02
4.080000000000000293e-01,8.793942005058020817e-01,2.680416402613455151e+00,-1.431105382203602394e+00,-1.223295185506722671e+00,-1.335191257671284326e+00,1.618386868383774102e+00,1.016457260755650349e+00,2.291410869354668645e+00,1.159731685764584741e+00,-2.450134090556751243e+00,-4.632939504779408635e-01,2.215770264146180502e+00,1.658652143242237642e+01,8.268237653284494115e+00,6.606752189527218100e+00,1.406620005225811099e+00,-1.629987802386862195e-01,-5.062676864156129275e-02
4.100000000000000311e-01,8.812285776777105673e-01,2.684921021926805373e+00,-1.428952582402307492e+00,-1.228262511912914468e+00,-1.336046673782330885e+00,1.622713028525327728e+00,1.062197029330832487e+00,2.319912355722909769e+00,1.201698752284890315e+00,-2.432128546427414495e+00,-4.677451597710856612e-01,2.241190025998586410e+00,1.731639609296098214e+01,1.177438941037057774e+01,8.046401531920784223e+00,1.883587164794908286e+00,-1.055551074252708416e-01,-6.483172766228628703e-02
