prominentjohnson/z1_sdk/examples/robust_nominal_trajectory.csv
t,q0,q1,q2,q3,q4,q5,qdot0,qdot1,qdot2,qdot3,qdot4,qdot5,tau0,tau1,tau2,tau3,tau4,tau5
0.000000000000000000e+00,1.168251025037042109e-08,2.062630960228924337e+00,-1.286620325453555314e+00,-7.760106225370887456e-01,-1.099681652644651784e-08,1.570799990142405678e+00,1.143086753201496906e-22,-3.446670091983262763e-21,-2.872783754619301357e-21,-4.130684025211348744e-22,1.438480705062748292e-20,-4.203243150627571407e-21,-1.377773991354403904e+01,-2.921735716465892096e+01,-2.330742846729082984e+01,-5.554899191193885422e+00,4.284062931673390473e+00,7.764750866496002504e-03
2.000000000000000042e-03,6.284089136720233523e-04,2.062758616362859954e+00,-1.285947248487396388e+00,-7.776842521268673147e-01,-3.207473203701555371e-03,1.570869268098419091e+00,-3.661250407416796748e-01,-7.407205919527870552e-02,-3.978525124306156457e-01,9.712065123346264039e-01,1.860760429644144454e+00,-3.998776621953673005e-02,-1.174250543402024149e+01,-2.915889767401685617e+01,-2.269233479747169824e+01,-7.438488378804025025e+00,6.917359104475446774e-01,9.254636341437784408e-03
4.000000000000000083e-03,4.050466507557196538e-04,2.062712081200561265e+00,-1.286179024149026517e+00,-7.770843273193099865e-01,-2.052160581341498299e-03,1.570843990887910824e+00,-5.779109354531750675e-01,-1.111589320056908109e-01,-6.607606194663668830e-01,1.510973182614406163e+00,2.866144051627457667e+00,-6.011485312477202192e-02,-9.709213185306403204e+00,-2.910530805404881249e+01,-2.208459703462960633e+01,-8.402530665485285155e+00,-1.089839329934045420e+00,9.952879339695529931e-03
6.000000000000000125e-03,-4.463464253745681688e-04,2.062543129688842125e+00,-1.287116735143319479e+00,-7.748341771768938457e-01,2.240941298120601756e-03,1.570752381506800299e+00,-6.773585361304756969e-01,-1.222344979749464128e-01,-8.238141123771742791e-01,1.737738813125065729e+00,3.256324674853940504e+00,-6.606629003523566135e-02,-7.875702419101203944e+00,-2.905295004886872690e+01,-2.148725225861460686e+01,-8.698902169209006274e+00,-1.602895613992549873e+00,1.007840294170596340e-02
8.000000000000000167e-03,-1.702041633854746525e-03,2.062303536774516832e+00,-1.288561464175150384e+00,-7.715571307620960884e-01,8.446846862541700432e-03,1.570622662951007609e+00,-7.064686947695714148e-01,-1.182726366467556217e-01,-9.221027824329579570e-01,1.769942206152329556e+00,3.271476108227589386e+00,-6.352710627045740632e-02,-6.439812387103332370e+00,-2.899818540259054700e+01,-2.090333754927674903e+01,-8.579479007946527958e+00,-1.389665766249137846e+00,9.850130227905819560e-03
1.000000000000000021e-02,-3.138310293820722584e-03,2.062045077404400573e+00,-1.290314293949393676e+00,-7.678765171373944654e-01,1.534057053977875423e-02,1.570483058216452843e+00,-7.072422633664517955e-01,-1.102472275648285344e-01,-9.907164209036387614e-01,1.726022163981924429e+00,3.151772160652405841e+00,-5.818233114996705646e-02,-5.599382341011475361e+00,-2.893737585932822043e+01,-2.033588998646609625e+01,-8.296137299669192444e+00,-9.923826112249789499e-01,9.486984278731840081e-03
1.200000000000000025e-02,-4.564380431591224391e-03,2.061810915677724676e+00,-1.292203840992763419e+00,-7.643227302760827735e-01,2.188558336075447502e-02,1.570357329440817074e+00,-7.155364147554275078e-01,-1.074843796559788317e-01,-1.059608026416715365e+00,1.706914378609985405e+00,3.100437356730019189e+00,-5.483390435172592198e-02,-5.423473740546675970e+00,-2.886788506403921417e+01,-1.978652176136989382e+01,-8.063397188037303209e+00,-8.529363346635885357e-01,9.177892936506100094e-03
1.400000000000000029e-02,-5.967960353137130233e-03,2.061597582804229223e+00,-1.294207833944256425e+00,-7.609228650622932300e-01,2.806596157131433650e-02,1.570245080546543326e+00,-7.339366247900775964e-01,-1.103865384823880941e-01,-1.130911793304448132e+00,1.718764731814700575e+00,3.120593748486445662e+00,-5.350130699948642266e-02,-5.283739284364945554e+00,-2.879250255395076863e+01,-1.924912844089016772e+01,-7.893473874511512278e+00,-8.698017218947783347e-01,8.949341890054061249e-03
1.600000000000000033e-02,-7.396475415941396354e-03,2.061386019987220486e+00,-1.296353891104694789e+00,-7.575356727372520860e-01,3.420671875310601212e-02,1.570137847840193723e+00,-7.538711578650023615e-01,-1.163722144456512259e-01,-1.197454064174139576e+00,1.736010960356018318e+00,3.148518340626906831e+00,-5.260622980077731686e-02,-4.328927800283111083e+00,-2.871578804768195425e+01,-1.871513454788108888e+01,-7.730934357149168434e+00,-7.616583262581471114e-01,8.773175321342406921e-03
1.800000000000000211e-02,-8.874754726424837273e-03,2.061163754162878003e+00,-1.298650688090822847e+00,-7.540864827602854481e-01,4.047453679127809012e-02,1.570031051291916890e+00,-7.696425484935707217e-01,-1.240861917014906973e-01,-1.255579836148831063e+00,1.745478836270693446e+00,3.151531055816780391e+00,-5.130207103303180416e-02,-2.355757620714475031e+00,-2.863918854623160826e+01,-1.818288341583966528e+01,-7.548116191254960583e+00,-4.244984582845495735e-01,8.626224197254287601e-03
2.000000000000000042e-02,-1.039400153377829233e-02,2.060928110552138204e+00,-1.301078711790429443e+00,-7.505996921335826855e-01,4.680056925566798698e-02,1.569925887730662550e+00,-7.798346110189683378e-01,-1.339978020792625402e-01,-1.306870284652314362e+00,1.752427806362329754e+00,3.143130101494255868e+00,-4.983071493597918122e-02,-1.235153570164909120e-01,-2.855952627094954011e+01,-1.766099647670221984e+01,-7.358676259850954082e+00,-1.784961239280662137e-02,8.492787331264508785e-03
2.199999999999999872e-02,-1.194257849891486659e-02,2.060676849661077004e+00,-1.303617325945786831e+00,-7.471038138097214620e-01,5.310635275105438091e-02,1.569823831832288796e+00,-7.835886907056995865e-01,-1.466433046542105767e-01,-1.353135989429084418e+00,1.762867762518778525e+00,3.138699211899471209e+00,-4.848216604864079987e-02,1.606341737210672527e+00,-2.847367567939880928e+01,-1.715851107615777238e+01,-7.177996795694863152e+00,2.944400549209154616e-01,8.358938877255743527e-03
2.400000000000000050e-02,-1.350800934762343836e-02,2.060405068392536787e+00,-1.306254514103462938e+00,-7.435983172669179408e-01,5.938372203761248941e-02,1.569724945056298004e+00,-7.816043494662008317e-01,-1.619582774269315295e-01,-1.394740313586188440e+00,1.777290180442826051e+00,3.139839284866580371e+00,-4.724878721654315883e-02,2.634814763806657911e+00,-2.838167799637289335e+01,-1.668136902200702565e+01,-7.009410677392853728e+00,4.749007528346297358e-01,8.219420218800219113e-03
2.600000000000000228e-02,-1.507745648529030917e-02,2.060106672192858479e+00,-1.308982126006526858e+00,-7.400696586935772148e-01,6.565601585698296883e-02,1.569628656234118402e+00,-7.752826197576001555e-01,-1.796089440097110856e-01,-1.431398356441165642e+00,1.793713177565516403e+00,3.141974466930591348e+00,-4.598961945068208435e-02,3.019148022358709493e+00,-2.828499114853761753e+01,-1.623410670829359148e+01,-6.850845789768460037e+00,5.434123208138227357e-01,8.073000578218483825e-03
2.800000000000000058e-02,-1.663998317399659199e-02,2.059776189661511658e+00,-1.311791274886343173e+00,-7.365084177090557294e-01,7.193732820091290614e-02,1.569534665874038781e+00,-7.662057710750871387e-01,-1.993209217147459966e-01,-1.463052643155365207e+00,1.810845035611195364e+00,3.142341453969783149e+00,-4.461087894528964481e-02,3.253440100686470604e+00,-2.818435359333783197e+01,-1.581944827279909838e+01,-6.701191237598022710e+00,5.904478166524180782e-01,7.934868618865836484e-03
2.999999999999999889e-02,-1.818835840227846223e-02,2.059409374199212106e+00,-1.314671603546973433e+00,-7.329133261178428782e-01,7.822345421195181503e-02,1.569443209513371684e+00,-7.563025625879993274e-01,-2.209380120292150085e-01,-1.490094683669531017e+00,1.828761259385663696e+00,3.141764661106061673e+00,-4.311190462173786209e-02,4.680288469938929552e+00,-2.807908929715409130e+01,-1.543660110028276122e+01,-6.561258512584583258e+00,8.434449765242264530e-01,7.852156386317725098e-03
3.200000000000000067e-02,-1.971636619739967553e-02,2.059002157367894270e+00,-1.317612727886080304e+00,-7.292839405268417563e-01,8.450853464352328648e-02,1.569354579173342534e+00,-7.469245054842725828e-01,-2.443046773992772203e-01,-1.512975504085201983e+00,1.847668397351547087e+00,3.141392867230867303e+00,-4.150144227211324810e-02,8.446248583039256630e+00,-2.796839941166144072e+01,-1.508570121013519127e+01,-6.432378099619612044e+00,1.495602174663094530e+00,7.865414582895911486e-03
3.400000000000000244e-02,-2.122388523659184817e-02,2.058550853888103660e+00,-1.320605742538072169e+00,-7.256186245414346647e-01,9.079143080019709544e-02,1.569269012965119448e+00,-7.330237520096265502e-01,-2.691309587739544318e-01,-1.532226515496333485e+00,1.867497372228997143e+00,3.141449327886821408e+00,-3.977445571066689362e-02,1.265094595566923985e+01,-2.785190253888979584e+01,-1.478071697883954450e+01,-6.318963667463258105e+00,2.221383891305165559e+00,7.908771130700978022e-03
3.600000000000000422e-02,-2.271437693929152443e-02,2.058052006323814798e+00,-1.323642619010886756e+00,-7.219150363803782389e-01,9.707379700472118511e-02,1.569186717132345699e+00,-7.057795463063191166e-01,-2.950474031278822462e-01,-1.548426621124729285e+00,1.888015750487592959e+00,3.141609692318616531e+00,-3.791775533206855064e-02,1.359534215733197726e+01,-2.772946813671449462e+01,-1.454372494045633424e+01,-6.227229931192542089e+00,2.389039547853229806e+00,7.853517546346153178e-03
3.799999999999999906e-02,-2.417998503564788501e-02,2.057502638535015471e+00,-1.326716063728029305e+00,-7.181711802453876192e-01,1.033567869953839202e-01,1.569107917171103983e+00,-6.631953769667173759e-01,-3.217168948735966705e-01,-1.562114391894761978e+00,1.908893782126022787e+00,3.141647755642268613e+00,-3.592006729228862383e-02,9.790822621908187529e+00,-2.760269087216872208e+01,-1.436048645143281632e+01,-6.152441111414547414e+00,1.744961806635973556e+00,7.642240214914766336e-03
4.000000000000000083e-02,-2.558351569124782052e-02,2.056901009177671380e+00,-1.329820650759607314e+00,-7.143859772717220391e-01,1.096401681152091162e-01,1.569032889351974269e+00,-6.210187954998385162e-01,-3.488884771338960911e-01,-1.573722679635469746e+00,1.929555998141318174e+00,3.141609133180508273e+00,-3.377533809804417197e-02,5.515639235651240924e+00,-2.747761061735330657e+01,-1.412274131756190343e+01,-6.061531829134244376e+00,1.022046784045455237e+00,7.403692179173537898e-03
4.200000000000000261e-02,-2.688648754202827701e-02,2.056245616483820982e+00,-1.332951327886161552e+00,-7.105586043439791055e-01,1.159235075254778924e-01,1.568961918876883965e+00,-5.964587749042549181e-01,-3.763690758274469417e-01,-1.583570216899810701e+00,1.949414008668311826e+00,3.141578688401258646e+00,-3.147836219490698917e-02,5.553715879831541358e+00,-2.736008097889033053e+01,-1.372026594062042726e+01,-5.920808674973329744e+00,1.039580227458044126e+00,7.284482223546696888e-03
4.399999999999999745e-02,-2.810136889650872646e-02,2.055535606381599933e+00,-1.336104193455869948e+00,-7.066898917583358530e-01,1.222066815028362008e-01,1.568895303725119650e+00,-5.861909115888760402e-01,-4.046308251426961045e-01,-1.590510435187399763e+00,1.968273969896471742e+00,3.141580678822197381e+00,-2.902418842865612039e-02,8.478050021094619026e+00,-2.724249208450440207e+01,-1.323869703880788862e+01,-5.755044041679093780e+00,1.552684914108173331e+00,7.253784781794512040e-03
4.599999999999999922e-02,-2.928001811813656097e-02,2.054770625472819301e+00,-1.339276235163163964e+00,-7.027819481408396074e-01,1.284898053146771024e-01,1.568833351755292371e+00,-5.710162175099616766e-01,-4.346601158260559039e-01,-1.592263986429068856e+00,1.986247088002677685e+00,3.141592504822945831e+00,-2.640806237209353952e-02,8.059879165934493273e+00,-2.710682531325326039e+01,-1.291509304220908838e+01,-5.634210949116930323e+00,1.493763309912450099e+00,7.143596800374411165e-03
4.800000000000000100e-02,-3.045612576185273424e-02,2.053949355378634323e+00,-1.342462203714167801e+00,-6.988368018425539230e-01,1.347729708873879328e-01,1.568776375877515061e+00,-5.402625856170459873e-01,-4.669252981331232788e-01,-1.587790952670298905e+00,2.003507613260458786e+00,3.141596143080491288e+00,-2.362561252428787770e-02,4.136919302146789268e-01,-2.694084220746325897e+01,-1.290412257120953399e+01,-5.604598845074861835e+00,1.964178561819022173e-01,6.849338236464074837e-03
5.000000000000000278e-02,-3.159691790971577707e-02,2.053067090642513914e+00,-1.345649022402435335e+00,-6.948560881978597115e-01,1.410561678103432748e-01,1.568724705608130154e+00,-5.142173078671942177e-01,-5.000543196225557541e-01,-1.580445864340755513e+00,2.020420695506333519e+00,3.141593634728779172e+00,-2.067377588301066646e-02,-9.798627186148067381e+00,-2.675325923815018214e+01,-1.306149003573174738e+01,-5.626407129091496984e+00,-1.542252994936753163e+00,6.498423746812484816e-03
5.200000000000000455e-02,-3.265807393111638118e-02,2.052118578826598760e+00,-1.348822373008037090e+00,-6.908413147723488912e-01,1.473393643827954069e-01,1.568678674343530588e+00,-5.188833266660906052e-01,-5.323195588315778881e-01,-1.574415582994132201e+00,2.037363114855555768e+00,3.141591195097648725e+00,-1.754974512660501668e-02,-1.626771591065421418e+01,-2.655721956934290162e+01,-1.318334607796473712e+01,-5.642541282014242654e+00,-2.642992889741039964e+00,6.262824444401398662e-03
5.399999999999999939e-02,-3.366104609338302356e-02,2.051102881923848376e+00,-1.351978431290033367e+00,-6.867929964136387788e-01,1.536225486267380480e-01,1.568638622157137785e+00,-5.574564203600278489e-01,-5.629822756562812280e-01,-1.571138277528046689e+00,2.054022617017336572e+00,3.141591172625722184e+00,-1.425007665488131972e-02,-1.736731864355319388e+01,-2.636338956453070637e+01,-1.318483036842821221e+01,-5.626809176439476978e+00,-2.826659053929264420e+00,6.183694485528232199e-03
5.600000000000000117e-02,-3.469341467222895881e-02,2.050023399651814238e+00,-1.355123923643874351e+00,-6.827106498916473143e-01,1.599057283933899842e-01,1.568604895835452595e+00,-6.102020664656296889e-01,-5.922979503607352925e-01,-1.569288583884943966e+00,2.069394193171146590e+00,3.141592027982907709e+00,-1.077068715382449929e-02,-1.617957073382992661e+01,-2.617994541432037181e+01,-1.310071403238772092e+01,-5.584087919933548250e+00,-2.618542137091750099e+00,6.170664783943328839e-03
5.800000000000000294e-02,-3.583065433866783334e-02,2.048883505720030307e+00,-1.358264992755672695e+00,-6.785944975693295467e-01,1.661889108355476541e-01,1.568577845442598928e+00,-6.598036744718266400e-01,-6.205955381505959823e-01,-1.567576098259577444e+00,2.082775729900880446e+00,3.141592358773587002e+00,-7.108101633269879593e-03,-1.539069875956369415e+01,-2.601010687395637788e+01,-1.297055115743759401e+01,-5.522039664605371989e+00,-2.476875029655409399e+00,6.145197862141012907e-03
5.999999999999999778e-02,-3.707799524706351102e-02,2.047685560853034215e+00,-1.361402881589226510e+00,-6.744482692404896174e-01,1.724720957629515550e-01,1.568557835003521861e+00,-7.049726306977326384e-01,-6.483435962095799310e-01,-1.565441855656415804e+00,2.095025081299133340e+00,3.141592202300519165e+00,-3.261823656800615697e-03,-1.486655297905571160e+01,-2.583440794441615651e+01,-1.283170097933995990e+01,-5.454977580625131495e+00,-2.380758117009788233e+00,6.111154971751704863e-03
6.199999999999999956e-02,-3.842031567479891468e-02,2.046431602467504440e+00,-1.364537382433814283e+00,-6.702766497956845759e-01,1.787552808699058304e-01,1.568545232603930639e+00,-7.490315577344017761e-01,-6.760384673330535055e-01,-1.562551542122625703e+00,2.107428729947758761e+00,3.141592010624361997e+00,7.677939434122364737e-04,-1.366694770200991016e+01,-2.562730826325195466e+01,-1.272020702518669744e+01,-5.398853880101704306e+00,-2.172321226167202024e+00,6.095978456893177098e-03
6.400000000000000133e-02,-3.984964791034208142e-02,2.045122594878873379e+00,-1.367667560377977098e+00,-6.660815562083562957e-01,1.850384650743355786e-01,1.568540405535324478e+00,-7.923872438289483178e-01,-7.036627947527585025e-01,-1.558998627101076062e+00,2.120193544545193820e+00,3.141591995899486012e+00,4.981242344784890183e-03,-1.157718685049837859e+01,-2.538523813269531360e+01,-1.264551838767383529e+01,-5.357583730483807649e+00,-1.815396589370415148e+00,6.107191011600439888e-03
6.600000000000000311e-02,-4.136738162573164873e-02,2.043758099336919098e+00,-1.370791529902408268e+00,-6.618612861501506073e-01,1.913216488944325389e-01,1.568543720050095125e+00,-8.316331822294239506e-01,-7.305275370589430217e-01,-1.555435885798174489e+00,2.132114692065318895e+00,3.141592056527871435e+00,9.380116433029503722e-03,-9.331306688686316519e+00,-2.513335624317626582e+01,-1.258231121527211016e+01,-5.319343178579611475e+00,-1.432968562194404827e+00,6.126265908086347967e-03
6.800000000000000488e-02,-4.297364335595751234e-02,2.042337962159275211e+00,-1.373907698412441647e+00,-6.576145653488109089e-01,1.976048328758894246e-01,1.568555543194176005e+00,-8.637001027154100896e-01,-7.560112326394790028e-01,-1.552472403717901184e+00,2.142143659843841252e+00,3.141592085519614663e+00,1.396604671533967570e-02,-7.574106595138180076e+00,-2.489396051618522776e+01,-1.250726233622687644e+01,-5.273461098425831217e+00,-1.133082489864690068e+00,6.136525860898885479e-03
7.000000000000000666e-02,-4.465650385569561870e-02,2.040864446086386508e+00,-1.377016745427309674e+00,-6.533443975259037861e-01,2.038880170521748803e-01,1.568576247509054999e+00,-8.893021490212859037e-01,-7.802108780157023249e-01,-1.550199081206999674e+00,2.150832842515367549e+00,3.141592076312761161e+00,1.874041638691222034e-02,-5.975148739151816102e+00,-2.465880869819005028e+01,-1.242471173322767974e+01,-5.223360790069042636e+00,-8.603806270678637791e-01,6.144248212344072604e-03
7.200000000000000844e-02,-4.639935722517831568e-02,2.039340752610756535e+00,-1.380120238594535698e+00,-6.490554369848149374e-01,2.101712012569020849e-01,1.568606207719078771e+00,-9.106134811531790829e-01,-8.035014959306095994e-01,-1.548505229589228538e+00,2.159352198537966672e+00,3.141592061529556723e+00,2.370448253285576887e-02,-3.830743481161082986e+00,-2.440786164699902727e+01,-1.234967881459903083e+01,-5.177899620379009527e+00,-4.969658803478032572e-01,6.164471501401640186e-03
7.399999999999999634e-02,-4.818947286162134080e-02,2.037769415632668224e+00,-1.383219548628455531e+00,-6.447502556038637866e-01,2.164543853968755316e-01,1.568645800824390868e+00,-9.279870677900740050e-01,-8.259735661770709614e-01,-1.547401130938510949e+00,2.168083251391418997e+00,3.141592059442126494e+00,2.885719169656186106e-02,-1.151515181711963542e+00,-2.413487328782969854e+01,-1.228420265713452508e+01,-5.138757525132513493e+00,-4.460973890391744384e-02,6.193503362269901953e-03
7.599999999999999811e-02,-5.002075943452331114e-02,2.036151824780400243e+00,-1.386315706244845236e+00,-6.404278610461855425e-01,2.227375695047407733e-01,1.568695407704343570e+00,-9.386587160171222521e-01,-8.472303431568878329e-01,-1.547104540798141414e+00,2.176058092845040370e+00,3.141592063649920608e+00,3.419354361370333106e-02,8.300869568063096171e-01,-2.385720880232493712e+01,-1.220810403181309667e+01,-5.095330789839244368e+00,2.902247130946455367e-01,6.195616572242282349e-03
7.799999999999999989e-02,-5.188668814165395965e-02,2.034489415131017331e+00,-1.389409793210743871e+00,-6.360873018255902567e-01,2.290207536214976802e-01,1.568755407710001881e+00,-9.402524056185191936e-01,-8.669055317336331612e-01,-1.547788026054677246e+00,2.182326142225011090e+00,3.141592066114386572e+00,3.970782321510564483e-02,9.344530197576416120e-01,-2.359136488443350643e+01,-1.210250756249273962e+01,-5.037513441929556635e+00,3.098803537611757863e-01,6.136836602614988839e-03
8.000000000000000167e-02,-5.377116992491468711e-02,2.032785006084686596e+00,-1.392503632814078074e+00,-6.317310526858418429e-01,2.353039377533320264e-01,1.568826163414343666e+00,-9.364880764457812479e-01,-8.853198778824656889e-01,-1.549048226468533240e+00,2.187250376906091809e+00,3.141592065622709207e+00,4.539142550010222960e-02,-5.019766725706300559e-01,-2.332588326604143347e+01,-1.197912289611856984e+01,-4.970146738607281733e+00,7.027701356390488041e-02,6.026168213627734575e-03
8.200000000000000344e-02,-5.565319591850672459e-02,2.031042131501239023e+00,-1.395599428844992218e+00,-6.273633607721881278e-01,2.415871218883706151e-01,1.568908028612230998e+00,-9.342406740479733962e-01,-9.031493688781696560e-01,-1.550184215378626051e+00,2.191873412960972267e+00,3.141592064502802373e+00,5.123425175811952698e-02,-2.356818172412941781e+00,-2.303488690497275471e+01,-1.186548209789938113e+01,-4.905809279645339416e+00,-2.412037299710539928e-01,5.894912144030782508e-03
8.400000000000000522e-02,-5.752160634051286386e-02,2.029263357522565148e+00,-1.398698379584474960e+00,-6.229869846000327671e-01,2.478703060188715002e-01,1.569001342545234712e+00,-9.380778504770808102e-01,-9.207344096055960492e-01,-1.550825548859077863e+00,2.196695959378542451e+00,3.141592064272577201e+00,5.722773813024906175e-02,-3.793623782607933315e+00,-2.271403026892058108e+01,-1.177597732481722304e+01,-4.851710174217308769e+00,-4.842152630252191670e-01,5.769549437517705777e-03
8.600000000000000699e-02,-5.938751579630561356e-02,2.027449057295581003e+00,-1.401799411621188263e+00,-6.186012963046196855e-01,2.541534901467429330e-01,1.569106411849565452e+00,-9.473107304849428534e-01,-9.376528622306222749e-01,-1.551351734708463326e+00,2.200985317903326521e+00,3.141592064557891639e+00,6.336680588112195145e-02,-4.634950368988934422e+00,-2.240773312236973425e+01,-1.169510626384243324e+01,-4.802818058204531226e+00,-6.268554474005155752e-01,5.665279448659308117e-03
8.799999999999999489e-02,-6.126476152251985469e-02,2.025599424992753583e+00,-1.404901251620521929e+00,-6.142054119766588993e-01,2.604366742750285346e-01,1.569223537645668909e+00,-9.605021862043949810e-01,-9.534233964615758117e-01,-1.552206724787784431e+00,2.203912458140104391e+00,3.141592064762006586e+00,6.964625106562463697e-02,-4.810154954907587488e+00,-2.216130484744465790e+01,-1.160359886882029201e+01,-4.752418985784511385e+00,-6.550521272395142258e-01,5.594027785013330062e-03
8.999999999999999667e-02,-6.316313287444406954e-02,2.023716168512792013e+00,-1.408004012438321517e+00,-6.098010396189192939e-01,2.667198584044643273e-01,1.569353007820299517e+00,-9.758465680286448896e-01,-9.681290907621280528e-01,-1.553357363868076435e+00,2.205553905686700400e+00,3.141592064740593937e+00,7.605333575993154793e-02,-4.457453628206207163e+00,-2.194770719083173560e+01,-1.148619446983338577e+01,-4.693689726774697313e+00,-5.922970109036769237e-01,5.546049146956533692e-03
9.199999999999999845e-02,-6.508966191347799468e-02,2.021802025913651768e+00,-1.411108750349302055e+00,-6.053916512296075858e-01,2.730030425342159783e-01,1.569495101237303514e+00,-9.912876516282169703e-01,-9.822371524976178936e-01,-1.554445735629624403e+00,2.206602531223609276e+00,3.141592064657285466e+00,8.257019338962076627e-02,-3.857220405893224235e+00,-2.169067132603296599e+01,-1.133037068791191082e+01,-4.619736581000689846e+00,-4.876493350545005323e-01,5.496850434056925125e-03
9.400000000000000022e-02,-6.704902535352806614e-02,2.019859224803217224e+00,-1.414216132935400161e+00,-6.009799653648808526e-01,2.792862266636586543e-01,1.569650076520781035e+00,-1.005218816253744096e+00,-9.960585944377234879e-01,-1.555174546905124133e+00,2.207553629704464448e+00,3.141592064634534776e+00,8.917938271121760019e-02,-3.248661051615719497e+00,-2.134608078126123587e+01,-1.113657442072168102e+01,-4.529448022202591240e+00,-3.828267950239577777e-01,5.429588973798251186e-03
9.600000000000000200e-02,-6.903898354290419204e-02,2.017888400079296485e+00,-1.417325605815046519e+00,-5.965663356568881026e-01,2.855694107928893888e-01,1.569818132016377099e+00,-1.017398449971800289e+00,-1.009413099065775032e+00,-1.555447325566667871e+00,2.208273479014017937e+00,3.141592064653355276e+00,9.586503567778044410e-02,-2.739123645959017139e+00,-2.096923883971960834e+01,-1.094405333059936503e+01,-4.439085723807496109e+00,-2.960204092222195049e-01,5.351253148578197748e-03
9.800000000000000377e-02,-7.105600541537666903e-02,2.015889926494981221e+00,-1.420436377953736118e+00,-5.921507083095336466e-01,2.918525949221318361e-01,1.569999452642342641e+00,-1.027856936408157784e+00,-1.022035544265124773e+00,-1.555215373925568301e+00,2.208511335256358343e+00,3.141592064669875839e+00,1.026116094374797533e-01,-2.411016946286124618e+00,-2.062942896943362214e+01,-1.079637016364703683e+01,-4.366882427046023807e+00,-2.409841514785710792e-01,5.272542414759361258e-03
1.000000000000000056e-01,-7.309659518560994440e-02,2.013864883203186462e+00,-1.423547505838454574e+00,-5.877336799715415783e-01,2.981357790514607697e-01,1.570194183013654987e+00,-1.036937809082078665e+00,-1.033792981356888019e+00,-1.554621105694183880e+00,2.208027654284942187e+00,3.141592064669453066e+00,1.094041410697049604e-01,-2.341458013706632091e+00,-2.030974208001062564e+01,-1.068211826289794253e+01,-4.307186672318296772e+00,-2.307661580280277736e-01,5.190226017974496932e-03
1.020000000000000073e-01,-7.515728835091961546e-02,2.011814973929830774e+00,-1.426657910757459957e+00,-5.833164240241387466e-01,3.044189631808184027e-01,1.570402432009429861e+00,-1.045262263377096934e+00,-1.044669656411084002e+00,-1.553976388092607408e+00,2.206592822479646276e+00,3.141592064663364159e+00,1.162281818637710962e-01,-2.602871899920471854e+00,-1.991684438172288196e+01,-1.054115103165896450e+01,-4.233169500471958280e+00,-2.777887172724342046e-01,5.088721648382885619e-03
1.040000000000000091e-01,-7.723515111599926763e-02,2.009741933859075402e+00,-1.429766776082969759e+00,-5.789003263228710283e-01,3.107021473101559406e-01,1.570624295154617656e+00,-1.053553892853144269e+00,-1.054623200472700084e+00,-1.553543604401218303e+00,2.204127035014837421e+00,3.141592064661244521e+00,1.230665332823061286e-01,-3.155041407547572785e+00,-1.938638950847767006e+01,-1.032922764215462408e+01,-4.125719512406084810e+00,-3.753476714616494903e-01,4.959353612973286390e-03
1.059999999999999970e-01,-7.932939457903209757e-02,2.007647537934376558e+00,-1.432874365558309604e+00,-5.744875522829195891e-01,3.169853314394764365e-01,1.570859818906408911e+00,-1.062912025664525473e+00,-1.063487012755090166e+00,-1.553360957397996067e+00,2.201155796134855347e+00,3.141592064662441786e+00,1.298907882580108419e-01,-3.502223972035355182e+00,-1.878214981303485942e+01,-1.007336249927541871e+01,-3.999951921817628264e+00,-4.393675219428083145e-01,4.823150156419868384e-03
1.079999999999999988e-01,-8.143986261927575743e-02,2.005533586064945251e+00,-1.435981214990132537e+00,-5.700804135674435447e-01,3.232685155687964329e-01,1.571109034951214012e+00,-1.074462921808843285e+00,-1.071065818782815260e+00,-1.553408316573094750e+00,2.198335364795867886e+00,3.141592064663761175e+00,1.366697704589765749e-01,-3.061997437753412932e+00,-1.819786778411606321e+01,-9.817597771801512607e+00,-3.879071276414310265e+00,-3.710221563903109976e-01,4.707489216665056153e-03
1.100000000000000006e-01,-8.356910735651694455e-02,2.003402327206409872e+00,-1.439087818146083775e+00,-5.656796829249046699e-01,3.295516996981228131e-01,1.571371904132931263e+00,-1.087278593936054749e+00,-1.077247851671214507e+00,-1.553617646394619189e+00,2.195645261620889244e+00,3.141592064663834005e+00,1.433743461461163826e-01,-2.114375892428586035e+00,-1.765319844582604603e+01,-9.575600679027038709e+00,-3.768987361058672381e+00,-2.171266899178196097e-01,4.604528278428110522e-03
1.120000000000000023e-01,-8.572280193791045888e-02,2.001256527803947805e+00,-1.442194620347239997e+00,-5.612843596294569970e-01,3.358348838274516912e-01,1.571648305655215072e+00,-1.098063701341165155e+00,-1.082017580259116096e+00,-1.553865704685233329e+00,2.192285121215169053e+00,3.141592064663401906e+00,1.499777355030231518e-01,-1.933261208958683586e+00,-1.708241702957222330e+01,-9.326033774722162661e+00,-3.655679149367486502e+00,-1.923359337230849953e-01,4.465836111946076478e-03
1.140000000000000041e-01,-8.790470102320303847e-02,1.999098989204487697e+00,-1.445301987139663513e+00,-5.568938595724743923e-01,3.421180679567794591e-01,1.571938097931652845e+00,-1.104596321137447656e+00,-1.085378975007248670e+00,-1.554004645566680054e+00,2.187546113453953112e+00,3.141592064663194517e+00,1.564530436384711509e-01,-3.512228100218585336e+00,-1.642356859696971938e+01,-9.048523195083651771e+00,-3.526186276358763028e+00,-4.643433780453515847e-01,4.252936531715463021e-03
1.160000000000000059e-01,-9.010708914465111186e-02,1.996932546892820071e+00,-1.448409861281785949e+00,-5.525104224964851873e-01,3.484012520861057838e-01,1.572241050168459164e+00,-1.111260974154627323e+00,-1.087413711672753358e+00,-1.553768466977867524e+00,2.181458437908339043e+00,3.141592064663238926e+00,1.627720291552496312e-01,-6.005388213611108306e+00,-1.566132159985821204e+01,-8.738618212374186456e+00,-3.379422710308479072e+00,-8.922822931550831171e-01,3.994285599478411553e-03
1.180000000000000077e-01,-9.231857129122128525e-02,1.994760044211051797e+00,-1.451518030626218980e+00,-5.481372413201796023e-01,3.546844362154319974e-01,1.572556900144146619e+00,-1.124618848583558206e+00,-1.088225214152721554e+00,-1.552857295418013983e+00,2.174302800457912799e+00,3.141592064663330408e+00,1.689059522299715121e-01,-7.945782064983284876e+00,-1.479634887346176164e+01,-8.397185576520296735e+00,-3.218315030895797957e+00,-1.231091533160148188e+00,3.740919458530908657e-03
1.199999999999999956e-01,-9.454056052975995383e-02,1.992584115733590844e+00,-1.454625691813415722e+00,-5.437769647646335525e-01,3.609676203447584886e-01,1.572885330230846312e+00,-1.147017975747019358e+00,-1.087654783181215112e+00,-1.551325602844439766e+00,2.166275438124609209e+00,3.141592064663360606e+00,1.748239100616024722e-01,-8.211564532388225146e+00,-1.383505956495829814e+01,-8.018863322454436116e+00,-3.043749244642480534e+00,-1.292883369036987196e+00,3.530283334478989590e-03
1.219999999999999973e-01,-9.679370635922521227e-02,1.990407082553550921e+00,-1.457731153958052639e+00,-5.394314232035078982e-01,3.672508044740852018e-01,1.573225939646413440e+00,-1.174477418924459116e+00,-1.085150105535328313e+00,-1.549759965335140155e+00,2.157445435288827262e+00,3.141592064663371708e+00,1.804917527068052863e-01,-6.199883916629958414e+00,-1.279245563055963686e+01,-7.588930081087196911e+00,-2.853542247605117765e+00,-9.757508528618835664e-01,3.379386418854945801e-03
1.239999999999999991e-01,-9.909831916590122747e-02,1.988231489743718328e+00,-1.460832922388714206e+00,-5.351023545764141964e-01,3.735339886034119150e-01,1.573578306057469955e+00,-1.202120051463662964e+00,-1.080135287623519069e+00,-1.548739124233359910e+00,2.147807535385025446e+00,3.141592064663408124e+00,1.858759550185624387e-01,-1.602912448126992961e+00,-1.168211550780528896e+01,-7.094077007430955817e+00,-2.645126102281186053e+00,-2.271681400001065165e-01,3.296519335475532261e-03
1.260000000000000009e-01,-1.014602664971718526e-01,1.986061758177756209e+00,-1.463931524737513090e+00,-5.307913087942015551e-01,3.798171727327386282e-01,1.573941896720344680e+00,-1.222252973684241795e+00,-1.072100784840954946e+00,-1.548453919680959023e+00,2.136876866384222140e+00,3.141592064663455641e+00,1.909496917677917793e-01,3.992707548358142677e+00,-1.050161394719416030e+01,-6.537390464947591795e+00,-2.414941053338057309e+00,6.877448528153543572e-01,3.237140373336275419e-03
1.280000000000000027e-01,-1.038787401254622766e-01,1.983903167192161643e+00,-1.467028407870727413e+00,-5.264997590982497533e-01,3.861003568620655080e-01,1.574316128417383442e+00,-1.225949713366059068e+00,-1.060569861202117048e+00,-1.548917483937361395e+00,2.123955953078847436e+00,3.141592064663473405e+00,1.956891015969178249e-01,8.148197835603134820e+00,-9.241283265496210930e+00,-5.929363898318389836e+00,-2.159003104780814475e+00,1.360989739156352352e+00,3.132878722038582968e-03
1.300000000000000044e-01,-1.063386231161182610e-01,1.981761762349782519e+00,-1.470125044999320396e+00,-5.222302974905317363e-01,3.923835409913924432e-01,1.574700379894793389e+00,-1.210151154922871841e+00,-1.045404310757195754e+00,-1.549961005505634759e+00,2.109029844179096447e+00,3.141592064663443207e+00,2.000600168312471339e-01,9.545926465986088516e+00,-7.895326498160676110e+00,-5.274928046779169932e+00,-1.876703473926030208e+00,1.572441251376333504e+00,2.938343693418315767e-03
1.320000000000000062e-01,-1.087966767573967652e-01,1.979645090170822908e+00,-1.473222952142342779e+00,-5.179877206614762475e-01,3.986667251207194340e-01,1.575093955467679940e+00,-1.183368926764893025e+00,-1.027132498782341807e+00,-1.551059005605853747e+00,2.093430245800995237e+00,3.141592064663393469e+00,2.040079373005260766e-01,9.085318276969916340e+00,-6.465643519458362576e+00,-4.567982011108169260e+00,-1.574086658862246857e+00,1.473492369248646128e+00,2.653650508343403415e-03
1.340000000000000080e-01,-1.112091858026763164e-01,1.977560699874055361e+00,-1.476323488725723276e+00,-5.137766587196570534e-01,4.049499092500463693e-01,1.575496134546076954e+00,-1.154977940929608371e+00,-1.006326829161380942e+00,-1.551594448847688490e+00,2.078411323280876299e+00,3.141592064663357498e+00,2.074793371183956403e-01,7.912265481224904917e+00,-4.949854141666059526e+00,-3.803183252113520041e+00,-1.257524097600424717e+00,1.256202299355358099e+00,2.288276528589469182e-03
1.360000000000000098e-01,-1.135620004269590338e-01,1.975514323493178015e+00,-1.479426314212313631e+00,-5.095972784884904572e-01,4.112330933793731935e-01,1.575906026064259002e+00,-1.129207311622403509e+00,-9.832033682456152723e-01,-1.550425700967841935e+00,2.062755682836135307e+00,3.141592064663345951e+00,2.104559404439757808e-01,7.039357168891820393e+00,-3.291088820863165676e+00,-2.996731492142380215e+00,-9.286457091258811802e-01,1.083612395321890354e+00,1.894232895353380446e-03
1.380000000000000115e-01,-1.158586698045171309e-01,1.973510605399547257e+00,-1.482530066826104553e+00,-5.054470822825920528e-01,4.175162775086999623e-01,1.576322636927464327e+00,-1.107202433244482087e+00,-9.577639095618293297e-01,-1.546099760690154978e+00,2.043769437676263401e+00,3.141592064663360606e+00,2.129405825014887566e-01,7.398033353904246212e+00,-1.400007832252938345e+00,-2.177717817983264137e+00,-5.862574101602540111e-01,1.101179644438551763e+00,1.548893634476114197e-03
1.400000000000000133e-01,-1.181043817449040356e-01,1.971554175408652521e+00,-1.485631525938358566e+00,-5.013269699921685252e-01,4.237994616380265089e-01,1.576744976591739400e+00,-1.088220922386510248e+00,-9.295189476831431374e-01,-1.538456254397613687e+00,2.020140506814465109e+00,3.141592064663392581e+00,2.149425093830612254e-01,9.246724247289387577e+00,7.420918149904788264e-01,-1.374126236639773957e+00,-2.360355583078624919e-01,1.347550638975620663e+00,1.282897442603625048e-03
1.420000000000000151e-01,-1.203079808025527553e-01,1.969649663648203930e+00,-1.488722651075238046e+00,-4.972468108337731452e-01,4.300826457673533887e-01,1.577172064772708104e+00,-1.066697685204491153e+00,-8.967031200761387266e-01,-1.530722485847691772e+00,1.994218511242744185e+00,3.141592064663417894e+00,2.164869700609931280e-01,1.108863156501042191e+01,2.968245867888845702e+00,-6.105943807349760721e-01,9.829645128005053134e-02,1.582973310793064803e+00,1.003903393272818174e-03
1.440000000000000169e-01,-1.224777698941530157e-01,1.967802051860941370e+00,-1.491795297607585447e+00,-4.932173959535446905e-01,4.363658298966801019e-01,1.577602927804033106e+00,-1.036781607196640254e+00,-8.574473266691792217e-01,-1.526442916699029428e+00,1.968669073678281256e+00,3.141592064663408568e+00,2.176041817745741902e-01,1.125482091007274477e+01,5.092060162349255847e+00,9.189197375829868952e-02,3.924341553400237936e-01,1.540767274768212847e+00,6.077220120602751892e-04
1.459999999999999909e-01,-1.246047308113794189e-01,1.966021704554923311e+00,-1.494851625959738861e+00,-4.892414875939217200e-01,4.426490140260069261e-01,1.578036668017409827e+00,-1.000149182894265243e+00,-8.114441304433119839e-01,-1.525654105542629591e+00,1.941955669641054261e+00,3.141592064663372597e+00,2.183609206421354143e-01,9.774303213593508843e+00,7.088047158145887927e+00,7.599982992505722734e-01,6.577329349698914918e-01,1.229297076008379452e+00,1.123777161157588805e-04
1.479999999999999927e-01,-1.266663078521738373e-01,1.964323193296073855e+00,-1.497901850702224813e+00,-4.853155730260645950e-01,4.489321981553336949e-01,1.578472447150956803e+00,-9.643602710578497161e-01,-7.596066661382708807e-01,-1.525650914190237906e+00,1.909257535582461696e+00,3.141592064663341954e+00,2.188525363034038440e-01,8.003163013971709816e+00,9.056478746754182296e+00,1.457631548849483316e+00,9.334183300814032913e-01,8.718957833750221598e-01,-3.685860476195544698e-04
1.499999999999999944e-01,-1.286470472795238351e-01,1.962720287146742848e+00,-1.500953714159732888e+00,-4.814407190291318250e-01,4.552153822846604636e-01,1.578909521465940324e+00,-9.350646210554204307e-01,-7.027255497752793456e-01,-1.524352445481761187e+00,1.867342730476144519e+00,3.141592064663341954e+00,2.191670451856633783e-01,6.973806031687746376e+00,1.104892610417053334e+01,2.218274479778280295e+00,1.242234901290923954e+00,6.389372910292248076e-01,-7.507346263403506499e-04
1.519999999999999962e-01,-1.305576592660964430e-01,1.961223548917870207e+00,-1.504005539033166139e+00,-4.776346344765694529e-01,4.614985664139871768e-01,1.579347473097391541e+00,-9.106658515357901607e-01,-6.410479436086833349e-01,-1.522122312407568012e+00,1.818856451548524378e+00,3.141592064663359274e+00,2.193640861452426649e-01,6.459941461234953941e+00,1.293447293005477050e+01,2.965262113162952851e+00,1.546541426394716368e+00,4.950538175192916168e-01,-1.060606353689295478e-03
1.539999999999999980e-01,-1.324142591464946006e-01,1.959842825997459403e+00,-1.507053676744415149e+00,-4.739182710505377982e-01,4.677817505433138900e-01,1.579785961029201768e+00,-8.880597502853921910e-01,-5.747152158091560770e-01,-1.519822657058545134e+00,1.767604560356509369e+00,3.141592064663373041e+00,2.194986767373619807e-01,5.967174946409530278e+00,1.454966419460650329e+01,3.601404258553534632e+00,1.797241571176161568e+00,3.609100224500392251e-01,-1.348312187729185660e-03
1.559999999999999998e-01,-1.342252447011282879e-01,1.958587655184617971e+00,-1.510096658197823682e+00,-4.703030473113402055e-01,4.740649346726406588e-01,1.580224773751017331e+00,-8.660222059535468420e-01,-5.041824350616548323e-01,-1.517441136583888017e+00,1.714392675179288617e+00,3.141592064663376149e+00,2.196635996205593966e-01,5.181236423990811524e+00,1.590710197707649520e+01,4.114814579325127397e+00,1.987204931343358849e+00,1.831934860734027726e-01,-1.646549517257140088e-03
1.580000000000000016e-01,-1.359911704767306218e-01,1.957467257631646529e+00,-1.513135229272809079e+00,-4.667906934516278805e-01,4.803481188019674830e-01,1.580663831367222549e+00,-8.452398252790509492e-01,-4.302234791422609450e-01,-1.514076682304271504e+00,1.656977312401179958e+00,3.141592064663370820e+00,2.199900175570602134e-01,3.970913427162246379e+00,1.719831253556448303e+01,4.580299756138886735e+00,2.151950442877467395e+00,-6.496151043798920055e-02,-1.970318583829344227e-03
1.600000000000000033e-01,-1.377127914568461453e-01,1.956490277471190309e+00,-1.516169563026612543e+00,-4.633842058325175484e-01,4.866313029312942517e-01,1.581103154775553188e+00,-8.266200758898951673e-01,-3.534641932147641330e-01,-1.508935708576094603e+00,1.593251700423330641e+00,3.141592064663361050e+00,2.206154580962708944e-01,2.307192054490848854e+00,1.857078576158665939e+01,5.061020043161768456e+00,2.321249887785716393e+00,-3.918135203007229173e-01,-2.326656362632278235e-03
1.620000000000000051e-01,-1.393934758635015092e-01,1.955662691350172011e+00,-1.519196648228129165e+00,-4.600946357459491098e-01,4.929144870606209650e-01,1.581543214608701842e+00,-8.117118342340690074e-01,-2.737613003675701262e-01,-1.501922460048421559e+00,1.522403582936642907e+00,3.141592064663356609e+00,2.216994711150173936e-01,6.065425117463038029e-01,1.992538218308099118e+01,5.546558808767621862e+00,2.488594896485444519e+00,-7.230527479782553613e-01,-2.688616058195635386e-03
1.640000000000000069e-01,-1.410374552183468744e-01,1.954989705743585215e+00,-1.522212537078228234e+00,-4.569354403244538232e-01,4.991976711899477337e-01,1.581984623180471949e+00,-8.022098569003849322e-01,-1.907574769816956506e-01,-1.493134716726655764e+00,1.444000486802783811e+00,3.141592064663366823e+00,2.234080841690377350e-01,-5.877664756468344853e-01,2.109272573632311776e+01,6.005085742790553738e+00,2.636982591885102423e+00,-9.609298024109382830e-01,-3.019522066226769039e-03
1.660000000000000087e-01,-1.426525997910136345e-01,1.954477303219028128e+00,-1.525213513464241277e+00,-4.539209750943811184e-01,5.054808553192744469e-01,1.582428340357426189e+00,-7.980326956052952170e-01,-1.046434160705329852e-01,-1.482145912601803728e+00,1.357476861269238499e+00,3.141592064663388584e+00,2.259057401338646354e-01,-9.358426157541321899e-01,2.201448647530268943e+01,6.419297833926293606e+00,2.759177458578839115e+00,-1.047893287289992870e+00,-3.295949773359998277e-03
1.680000000000000104e-01,-1.442515894738941040e-01,1.954132492359522910e+00,-1.528196167711494580e+00,-4.510667826193760499e-01,5.117640394486012712e-01,1.582875785382349187e+00,-7.967510365704438824e-01,-1.633423708594800017e-02,-1.467836347824184928e+00,1.262091173521051823e+00,3.141592064663405459e+00,2.293547859077278428e-01,-3.666476633019914999e-01,2.277913238263457885e+01,6.791098961208838602e+00,2.860856858867745878e+00,-9.795313316574215667e-01,-3.511992046151656954e-03
1.700000000000000122e-01,-1.458461140266028300e-01,1.953961860460633693e+00,-1.531156516338829876e+00,-4.483888709228787683e-01,5.180472235779280954e-01,1.583328491667224780e+00,-7.957227173934358078e-01,7.333165571866444299e-02,-1.449257040048639311e+00,1.157249634390106863e+00,3.141592064663402795e+00,2.339129436063956402e-01,1.068079280633439598e+00,2.347545362745585962e+01,7.123331359431210430e+00,2.947485224604499798e+00,-7.711228356565844599e-01,-3.671145619598411430e-03
1.720000000000000140e-01,-1.474393546640521968e-01,1.953968825712252944e+00,-1.534086741826724776e+00,-4.459057233848855439e-01,5.243304077072549196e-01,1.583788525411532699e+00,-7.919717032497920473e-01,1.643306311612218185e-01,-1.426865849692799282e+00,1.043388565260328305e+00,3.141592064663411232e+00,2.397090523569458675e-01,2.644090053660376860e+00,2.412941256480079133e+01,7.416393529120331785e+00,3.017445277967087502e+00,-5.413715198626565250e-01,-3.829776109235561582e-03
1.740000000000000158e-01,-1.490310512944052201e-01,1.954155555725343607e+00,-1.536977527663303533e+00,-4.436367871306742261e-01,5.306135918365818549e-01,1.584258166649442412e+00,-7.824231461948180089e-01,2.569597384133340823e-01,-1.401669413105596007e+00,9.213378172237812747e-01,3.141592064663472073e+00,2.468604177387197229e-01,3.378705494597626924e+00,2.474202299038603314e+01,7.669772374690865924e+00,3.066380943741636500e+00,-4.486579349531757965e-01,-4.064511706185026073e-03
1.759999999999999898e-01,-1.506154887111392227e-01,1.954524741171590252e+00,-1.539821335784418155e+00,-4.416000296750815513e-01,5.368967759659084571e-01,1.584739901550833663e+00,-7.667566410737363114e-01,3.513125524217257101e-01,-1.373918796263414066e+00,7.906944641012367825e-01,3.141592064663551120e+00,2.554779780092162889e-01,2.969942947988267523e+00,2.531190725121143714e+01,7.887680254140727598e+00,3.095674324665012911e+00,-5.411764844909122685e-01,-4.394057742463716200e-03
1.779999999999999916e-01,-1.521775426301640033e-01,1.955079981776637554e+00,-1.542613707015229485e+00,-4.398108582291897495e-01,5.431799600952355034e-01,1.585236571467878663e+00,-7.494106758027866411e-01,4.471297405225528876e-01,-1.342557387242254041e+00,6.489241732971571253e-01,3.141592064663482731e+00,2.656617216281963456e-01,2.292886657400126538e+00,2.583366476025506486e+01,8.082496989462404358e+00,3.116632470688895928e+00,-6.765960051903748829e-01,-4.736966300421344492e-03
1.799999999999999933e-01,-1.537028655358355922e-01,1.955824864957967701e+00,-1.545350074503609505e+00,-4.382853824197960324e-01,5.494631442245626607e-01,1.585751087463338038e+00,-7.347503110994728637e-01,5.441385306237976893e-01,-1.306565581481441418e+00,4.936624451305592909e-01,3.141592064663145223e+00,2.774973216624511685e-01,2.210456938901379065e+00,2.630266484145628070e+01,8.264045349554223208e+00,3.139744719618550395e+00,-7.147820008920788837e-01,-5.011844686640115967e-03
1.819999999999999951e-01,-1.551923641271698018e-01,1.956762063778001215e+00,-1.548022186135989520e+00,-4.370482412332580835e-01,5.557463283538897070e-01,1.586286667814807094e+00,-7.222737663163258937e-01,6.422586751860226428e-01,-1.266411188188912407e+00,3.259456434767407096e-01,3.141592064662971140e+00,2.909524969181933596e-01,2.435285906276765111e+00,2.672470259208146359e+01,8.412118593426837876e+00,3.159424514090364067e+00,-7.038218543021440565e-01,-5.226438630774528013e-03
1.839999999999999969e-01,-1.566549378754681088e-01,1.957893771214467282e+00,-1.550619861933423493e+00,-4.361285360226780372e-01,5.620295124832157541e-01,1.586846691572883827e+00,-7.089317672995233410e-01,7.415112359792092045e-01,-1.223343190358171295e+00,1.485940642492937502e-01,3.141592064663675021e+00,3.059329065040156670e-01,2.077797836350525618e+00,2.711103136559529503e+01,8.490859836734873767e+00,3.161691339430123815e+00,-7.903350961997448465e-01,-5.435170615578129721e-03
1.859999999999999987e-01,-1.580951906311864608e-01,1.959222206834182245e+00,-1.553134685044768259e+00,-4.355513844848193372e-01,5.683126966125414681e-01,1.587434404857225978e+00,-6.936508686073875607e-01,8.419639256163863328e-01,-1.178614723469579184e+00,-3.606808084134308090e-02,3.141592064665012618e+00,3.223178707593126746e-01,6.915002380600655529e-01,2.746890589566005403e+01,8.492591431296936832e+00,3.143945808377082596e+00,-1.046749840732708270e+00,-5.660535540316417001e-03
1.880000000000000004e-01,-1.595077782330177607e-01,1.960749660480379797e+00,-1.555562294426637848e+00,-4.353327383683146534e-01,5.745958807418689585e-01,1.588052747688470046e+00,-6.799105387479482676e-01,9.437886924289414781e-01,-1.133472600550932796e+00,-2.268828297224764201e-01,3.141592064664546324e+00,3.399279574141075844e-01,-1.148475165374071238e+00,2.779636075619180247e+01,8.474151448072250403e+00,3.129687251073944410e+00,-1.374476389261644060e+00,-5.851346025675275599e-03
1.900000000000000022e-01,-1.608869042045011910e-01,1.962478473732186979e+00,-1.557899171763060586e+00,-4.354870548404922714e-01,5.808790648712004456e-01,1.588704575414610520e+00,-6.715672911199109807e-01,1.047142140341699168e+00,-1.089133892039288787e+00,-4.227160485006533075e-01,3.141592064660110317e+00,3.585695361866283459e-01,-2.751609395159874349e+00,2.809078320700759335e+01,8.496934565515156024e+00,3.144122971102267350e+00,-1.656052117596941819e+00,-5.950031788239993832e-03
1.920000000000000040e-01,-1.622385464389918819e-01,1.964411522108057362e+00,-1.560145367817011852e+00,-4.360259369289953280e-01,5.871622490005308226e-01,1.589392206140222141e+00,-6.692505655554775723e-01,1.151802166826729312e+00,-1.046448675529849659e+00,-6.206820250777209669e-01,3.141592064656849370e+00,3.779719723411275600e-01,-3.760152043180392756e+00,2.835757355366334664e+01,8.566611919415779042e+00,3.188197852955151568e+00,-1.835346992169954561e+00,-5.947675780704077264e-03
1.940000000000000058e-01,-1.635767858921533813e-01,1.966552048305538314e+00,-1.562303390297754335e+00,-4.369590204552047941e-01,5.934454331298489871e-01,1.590117587975916180e+00,-6.713685174750352314e-01,1.257286124144175510e+00,-1.006014520297099146e+00,-8.166897843824239001e-01,3.141592064664933126e+00,3.978116331843987163e-01,-4.045497180433955009e+00,2.860764498965829361e+01,8.650508018724538672e+00,3.246160268253067915e+00,-1.898460262991778169e+00,-5.868849449214936717e-03
1.960000000000000075e-01,-1.649140564859230551e-01,1.968902763249216648e+00,-1.564376449910694689e+00,-4.382913563671840262e-01,5.997286172591552722e-01,1.590882302943363635e+00,-6.760691148621970070e-01,1.363294970355336533e+00,-9.685705186222495211e-01,-1.007166299703550205e+00,3.141592064684092911e+00,4.177692181913699732e-01,-3.656348440111571119e+00,2.884805007386786357e+01,8.727122869099307678e+00,3.306918380872623242e+00,-1.856954807577503086e+00,-5.740584158392865628e-03
1.980000000000000093e-01,-1.662572984309436119e-01,1.971464738988593979e+00,-1.566369747492010411e+00,-4.400141732565944208e-01,6.060118013884845389e-01,1.591686842156508463e+00,-6.808424245453793544e-01,1.470103541080964860e+00,-9.353012055599173591e-01,-1.190185641432163877e+00,3.141592064682019458e+00,4.375417768322936718e-01,-3.166779007600222240e+00,2.907377251417638320e+01,8.811235063027117675e+00,3.374549673501985758e+00,-1.797283451760476547e+00,-5.595382522048023173e-03
2.000000000000000111e-01,-1.676120551951199023e-01,1.974238789136912864e+00,-1.568289032424930785e+00,-4.421158639489853881e-01,6.122949855178726475e-01,1.592531449631902074e+00,-6.831977411241051401e-01,1.578068377674482825e+00,-9.074193392987635054e-01,-1.364161261298703964e+00,3.141592064625154723e+00,4.568269560749683156e-01,-3.217803451734844611e+00,2.927790627237046195e+01,8.923966076734100028e+00,3.455751787356764471e+00,-1.815140919959381538e+00,-5.465455057735685296e-03
2.020000000000000129e-01,-1.689770859519779123e-01,1.977226715020107495e+00,-1.570143321909633682e+00,-4.445806647206006490e-01,6.185781696472570923e-01,1.593415598098837815e+00,-6.833812924496365238e-01,1.687032871671218182e+00,-8.850695056900643731e-01,-1.528029819671462120e+00,3.141592064571623322e+00,4.752748512759203958e-01,-3.831106858647496782e+00,2.946107407761418528e+01,9.076412350883643398e+00,3.552421179543487462e+00,-1.912220900523504241e+00,-5.357735426425590773e-03
2.040000000000000147e-01,-1.703450691771017378e-01,1.980431203241522109e+00,-1.571944562059270689e+00,-4.473890863724326872e-01,6.248613537764871051e-01,1.594338068989243240e+00,-6.840923933800727719e-01,1.796380483349306445e+00,-8.674388979704847902e-01,-1.681196923799541887e+00,3.141592064661728134e+00,4.924929377388522767e-01,-4.473275242907826410e+00,2.963064662101757918e+01,9.270684982975792465e+00,3.662151051929289913e+00,-2.005964855313084882e+00,-5.256501885115079549e-03
2.060000000000000164e-01,-1.717107781025889179e-01,1.983854446895671364e+00,-1.573704100422965046e+00,-4.505210287555586612e-01,6.311445379055271587e-01,1.595297291445725296e+00,-6.873965517282717430e-01,1.905563876980787663e+00,-8.537069477231721271e-01,-1.823309663578836393e+00,3.141592064928509842e+00,5.081699316178701631e-01,-4.693507284045232097e+00,2.979288253628540772e+01,9.513853682730333716e+00,3.784647272498334214e+00,-2.026117637964629292e+00,-5.158635329437914405e-03
2.080000000000000182e-01,-1.730784575869298569e-01,1.987496487058792560e+00,-1.575430405189073291e+00,-4.539544272934769031e-01,6.374277220348275597e-01,1.596290350437943983e+00,-6.924044613391929781e-01,2.014386222698184348e+00,-8.431602030679770099e-01,-1.954937228113198255e+00,3.141592064953296681e+00,5.223338474837592171e-01,-4.460298558724037576e+00,2.994850137098626064e+01,9.834624037318516088e+00,3.928902818982799694e+00,-1.965099017659575509e+00,-5.115979327701016162e-03
2.099999999999999922e-01,-1.744546593734164763e-01,1.991356805520149598e+00,-1.577131156511242693e+00,-4.576667729262753337e-01,6.437109061649238795e-01,1.597313995238752948e+00,-6.974799403600419057e-01,2.122730343359883420e+00,-8.350913809713103042e-01,-2.076884122713200664e+00,3.141592064237927584e+00,5.350717825374340375e-01,-3.855198464889725063e+00,3.009677142676649453e+01,1.026631782962359729e+01,4.105972941308160706e+00,-1.832284401767680038e+00,-5.190484282489924231e-03
2.119999999999999940e-01,-1.758422269466801968e-01,1.995434644094880916e+00,-1.578812490127721624e+00,-4.616373718797094905e-01,6.499940902951502064e-01,1.598365245327443285e+00,-7.013056287095033037e-01,2.230165796548424950e+00,-8.281377256034285761e-01,-2.189924385152047126e+00,3.141592063401732915e+00,5.456124765541473520e-01,-3.132266495557098462e+00,3.023598311593174515e+01,1.081366214881117571e+01,4.317127029182387332e+00,-1.664584168609783088e+00,-5.321567305462892097e-03
2.139999999999999958e-01,-1.772396839247242506e-01,1.999728965045209250e+00,-1.580478742640017753e+00,-4.658476450622109910e-01,6.562772744234404154e-01,1.599441434955351848e+00,-7.029355721218221165e-01,2.335897207391099961e+00,-8.201729006067570715e-01,-2.294796560476237257e+00,3.141592064365826165e+00,5.521847421704715320e-01,-2.746524414245201662e+00,3.036328767819188101e+01,1.144807323839033408e+01,4.552234619901478041e+00,-1.530985024553343621e+00,-5.305902683150751607e-03
2.159999999999999976e-01,-1.786447509061803995e-01,2.004238222506588230e+00,-1.582132841643751897e+00,-4.702795760958183302e-01,6.625604585488468201e-01,1.600538804920220715e+00,-7.018649471260403061e-01,2.439124896898121619e+00,-8.090626652194227164e-01,-2.392331584748605966e+00,3.141592068010807370e+00,5.537504343297208198e-01,-3.014912070285626022e+00,3.047853554419174316e+01,1.215464756103896171e+01,4.805890615889288675e+00,-1.478769567251460471e+00,-5.058690201112160147e-03
2.179999999999999993e-01,-1.800520415525705131e-01,2.008958136033638375e+00,-1.583770452616983571e+00,-4.749176115722237856e-01,6.688436426770770771e-01,1.601647424378168427e+00,-6.999226453305334994e-01,2.539139582661169126e+00,-7.928680410982552607e-01,-2.483884651340618976e+00,3.141592069030545886e+00,5.536559218254972770e-01,-3.424517100630481092e+00,3.059692527869346890e+01,1.300489503550135950e+01,5.102505223960120517e+00,-1.424628852600736018e+00,-5.198130253273290820e-03
2.200000000000000011e-01,-1.814551865401644593e-01,2.013883458631541501e+00,-1.585384671505649212e+00,-4.797471000700389565e-01,6.751268268158844288e-01,1.602755398521173991e+00,-6.997033367587963681e-01,2.635256152957115461e+00,-7.697035519341707266e-01,-2.570973681576627090e+00,3.141592060216416460e+00,5.565860423207372731e-01,-3.190365563259771164e+00,3.073835235123636878e+01,1.409722989720168940e+01,5.475728890237360424e+00,-1.242581440594243025e+00,-6.558575377047268923e-03
2.220000000000000029e-01,-1.828528940028273930e-01,2.019007657666120448e+00,-1.586965026466967243e+00,-4.847563328479266853e-01,6.814100109587957199e-01,1.603860273828193739e+00,-7.015448808472795061e-01,2.726390325787684699e+00,-7.368948198730153054e-01,-2.654081664610173696e+00,3.141592047586609482e+00,5.572945549041092850e-01,-2.343822610025630748e+00,3.088860386733871621e+01,1.536412350443540653e+01,5.899539583894223505e+00,-9.431196375602002302e-01,-8.469808223655329177e-03
2.240000000000000047e-01,-1.842515817591719174e-01,2.024322250114079846e+00,-1.588495632954939785e+00,-4.899380672604117803e-01,6.876931950777374070e-01,1.604973932759698574e+00,-7.023578913990344841e-01,2.810851789470754980e+00,-6.905697299863764460e-01,-2.732120187683955592e+00,3.141592057242155622e+00,5.354565642111458468e-01,-2.155958053754747361e+00,3.098167903705104465e+01,1.648608465422756097e+01,6.257311043716195620e+00,-7.439827733802697463e-01,-7.977158670850770586e-03
2.260000000000000064e-01,-1.856568672755183058e-01,2.029817846115163693e+00,-1.589958467199194203e+00,-4.952849218846144819e-01,6.939763791544885096e-01,1.606100270240437444e+00,-6.995933135094455357e-01,2.887285484570851768e+00,-6.274056730904985502e-01,-2.804739104165509644e+00,3.141592106123284101e+00,4.773355163217422037e-01,-3.519641579655709229e+00,3.097652818838475852e+01,1.723855962324713076e+01,6.467369629464983838e+00,-7.991499296280865083e-01,-3.208289750630744647e-03
2.280000000000000082e-01,-1.870633717219002401e-01,2.035479395786432555e+00,-1.591322669966718450e+00,-5.007856174612480560e-01,7.002595632595559616e-01,1.607173274101669991e+00,-6.969947463605898896e-01,2.957273236288724405e+00,-5.490238943826919460e-01,-2.878206350028683413e+00,3.141592128677887175e+00,4.289266242553400610e-01,-3.660822402615057314e+00,3.105493211552150967e+01,1.827979153756988850e+01,6.771682213838211339e+00,-6.455145110397557673e-01,-1.981008994331171467e-03
2.300000000000000100e-01,-1.884607423666152526e-01,2.041289283180933722e+00,-1.592551529075520333e+00,-5.064271932402772958e-01,7.065427475030112703e-01,1.608095677220049202e+00,-7.011235819665001534e-01,3.023714789148558069e+00,-4.592665746834650453e-01,-2.961745490616350729e+00,3.141592022142547957e+00,4.628291992637031393e-01,1.856886844911832757e+00,3.149901246098006879e+01,2.066765617737305405e+01,7.558707383066843200e+00,4.597308172421137873e-01,-1.645435174194151071e-02
2.320000000000000118e-01,-1.898494353045227234e-01,2.047234672453124293e+00,-1.593614681533426447e+00,-5.122113673616978113e-01,7.128259318320753213e-01,1.608887554039970746e+00,-7.085627345610586714e-01,3.085226228567820694e+00,-3.550831574519016098e-01,-3.053037046444005753e+00,3.141591778406543689e+00,5.378819887159833613e-01,1.435681795865072452e+01,3.231190694410184250e+01,2.463500970124279732e+01,8.912201983230064073e+00,2.729578938739580352e+00,-4.369652542107527876e-02
2.340000000000000135e-01,-1.912514955647292014e-01,2.053312279114566596e+00,-1.594494476697855045e+00,-5.181691233676912756e-01,7.191091158690724461e-01,1.609803111095891026e+00,-6.959833398408411531e-01,3.131874576681498379e+00,-2.196659297346866824e-01,-3.126730907037169160e+00,3.141591578346289992e+00,3.859757374421614595e-01,2.894204519084961191e+01,3.293982169563318507e+01,2.876665084599940769e+01,1.030726292721255533e+01,5.318423881866471525e+00,-5.066156524932270699e-02
2.360000000000000153e-01,-1.926841041538198407e-01,2.059516780086454002e+00,-1.595169461779381681e+00,-5.243270617788906574e-01,7.253922992544892256e-01,1.611040738371598779e+00,-6.400058271017043943e-01,3.153829435954083937e+00,-3.641314164586078456e-02,-3.157770440968460601e+00,3.141591603857067927e+00,-2.294205622984781812e-01,4.000253582731684787e+01,3.285877276153336624e+01,3.156938929093809776e+01,1.119436552899391479e+01,7.270261603670410189e+00,-5.626974540615620711e-03
2.380000000000000171e-01,-1.940852174149354514e-01,2.065809011641777548e+00,-1.595561521055178567e+00,-5.306279833191831496e-01,7.316754822336268838e-01,1.611906905347665120e+00,-5.418941700722106347e-01,3.153168364250582112e+00,1.916782016383510312e-01,-3.153361179150320659e+00,3.141591808675174402e+00,-9.207236549756810939e-01,4.218404908638140682e+01,3.256738459466875213e+01,3.280207284753400643e+01,1.153101843591950271e+01,7.789634283498847012e+00,7.091408334989950102e-02
2.399999999999999911e-01,-1.953448883066052633e-01,2.072129354057611561e+00,-1.595558284608118882e+00,-5.369640337151073695e-01,7.379586654174055127e-01,1.611170104697250416e+00,-4.178423114373814307e-01,3.139173204786586791e+00,4.497526379076747793e-01,-3.140218981146892574e+00,3.141592008570563976e+00,-9.233288912482768840e-01,3.029625178946455932e+01,3.318116410080092038e+01,3.298144207741638212e+01,1.158150282907244133e+01,6.179685227382954338e+00,1.268948919913214513e-01
2.419999999999999929e-01,-1.963768859759053853e-01,2.078431426856092834e+00,-1.595068173983712256e+00,-5.432603061722691695e-01,7.442418491925987256e-01,1.608571966174831669e+00,-2.922224778658135125e-01,3.119752011771517619e+00,7.245465684164612563e-01,-3.136965473700819018e+00,3.141592082578662293e+00,1.535925917083775516e-01,3.997507300682971998e+00,3.474201606465133096e+01,3.269966192618513645e+01,1.156148747934650345e+01,2.508950337287490395e+00,1.252253969898110830e-01
2.439999999999999947e-01,-1.971594374027748620e-01,2.084704600693132459e+00,-1.594055834252039228e+00,-5.495308556669955546e-01,7.505250333399823282e-01,1.606446391132313689e+00,-2.104757669513720453e-01,3.098915837173541910e+00,1.007441352894047348e+00,-3.140106630839957891e+00,3.141592082058093371e+00,1.698916545806826495e+00,-2.424252161541465256e+01,3.443109097874942393e+01,3.272035384486358822e+01,1.154683299555282616e+01,-1.134382256053681592e+00,6.956910240861176320e-02
2.459999999999999964e-01,-1.976878118187812283e-01,2.090943745445736468e+00,-1.592495177308646870e+00,-5.558030928030439632e-01,7.568082175532686584e-01,1.607406676742296536e+00,-2.183294913133660975e-01,3.079243513098108398e+00,1.291789515091835039e+00,-3.142828253349277290e+00,3.141592082347339332e+00,2.958050766793471897e+00,-4.054186536403022245e+01,2.919212481820509453e+01,3.372084471198225231e+01,1.156897193043045391e+01,-2.468314710919088384e+00,-2.860492692244800961e-02
2.479999999999999982e-01,-1.980586798374855406e-01,2.097138436928226657e+00,-1.590361417925258092e+00,-5.620861422788060446e-01,7.630914017116297021e-01,1.611824487189099875e+00,-3.123993061309843222e-01,3.050927631374504845e+00,1.589817485887326187e+00,-3.142861955304909749e+00,3.141592093934112206e+00,3.490583943522060917e+00,-4.160660531514437110e+01,1.954658547262517487e+01,3.459925852602896157e+01,1.132321790821808349e+01,-1.328867420014586020e+00,-1.399392111551318041e-01
2.500000000000000000e-01,-1.984488310258187838e-01,2.103274068026124155e+00,-1.587630800298185818e+00,-5.683746807884115793e-01,7.693745858407733396e-01,1.618300334377563710e+00,-4.504969122880538301e-01,2.994374205112838805e+00,1.928664290594263697e+00,-3.141531075037067744e+00,3.141592076066435091e+00,3.104344422232732104e+00,-3.250862165575340157e+01,8.842767555199742446e+00,3.284794088504710174e+01,1.023931128156946357e+01,7.744570600569615770e-01,-2.209423300496145270e-01
2.520000000000000018e-01,-1.990372384752402413e-01,2.109335917625364765e+00,-1.584279596679199376e+00,-5.746629912668312912e-01,7.756577699704011453e-01,1.625386460055684434e+00,-5.893764658250467692e-01,2.889722528578539507e+00,2.335875375408836163e+00,-3.140256838050937471e+00,3.141591986595866359e+00,1.613925956824522334e+00,-1.854779214578496749e+01,5.060066941099874427e-01,2.592092495925443529e+01,7.739754593255368853e+00,2.286547871553961997e+00,-2.277376635572155861e-01
2.540000000000000036e-01,-2.000028752772091134e-01,2.115309264611883400e+00,-1.580284079320069424e+00,-5.809453566490364596e-01,7.819409541302146938e-01,1.631635105971459776e+00,-6.857921227824352872e-01,2.717111896037038399e+00,2.838996186527232624e+00,-3.140460469851703351e+00,3.141591783373967495e+00,-1.166077698803532847e+00,-5.023994545166731385e+00,-2.038361482462881735e+00,1.127224391886871402e+01,3.247050386046568260e+00,1.652294156734828601e+00,-1.164485916292544582e-01
2.560000000000000053e-01,-2.013888869759561107e-01,2.120861570370295102e+00,-1.574912384486706562e+00,-5.872239884421746048e-01,7.882241378630159279e-01,1.630957628249591229e+00,-6.594679212194595186e-01,2.620834461648478886e+00,3.119994758491700715e+00,-3.141592242595667717e+00,3.141589367967762225e+00,-3.118191577368812695e+00,2.817122024440624983e+01,-1.172829963269506237e+01,-4.913153727645903857e+00,-2.089810541751570216e+00,4.190145196568502151e+00,8.474209504366156387e-03
2.580000000000000071e-01,-2.027982570251608552e-01,2.126054432590869236e+00,-1.568629199250074047e+00,-5.935071728860995544e-01,7.945073211074905606e-01,1.624674568070575642e+00,-5.671277560756368130e-01,2.670669796647498373e+00,3.075888661600339802e+00,-3.141592284731784535e+00,3.141584764408305475e+00,-3.070530805141129083e+00,1.831048435081442705e+01,-1.639860029081940596e+01,-7.069600417255253788e+00,-2.899995112287434118e+00,2.990463342345246467e+00,7.111000588452671273e-03
2.600000000000000089e-01,-2.042076270743656274e-01,2.131247294811443371e+00,-1.562346014013441531e+00,-5.997903573300245039e-01,8.007905043519651933e-01,1.618391507891560055e+00,-4.747875909318141074e-01,2.720505131646517860e+00,3.031782564708979333e+00,-3.141592326867901797e+00,3.141580160848849168e+00,-3.022870032913445026e+00,8.449748457222600706e+00,-2.106890094894374954e+01,-9.226047106864605496e+00,-3.710179682823297576e+00,1.790781488121990783e+00,5.747791672539186159e-03
2.620000000000000107e-01,-2.056169971235703720e-01,2.136440157032017506e+00,-1.556062828776809015e+00,-6.060735417739494535e-01,8.070736875964398260e-01,1.612108447712544246e+00,-3.824474257879914574e-01,2.770340466645537347e+00,2.987676467817618420e+00,-3.141592369004018614e+00,3.141575557289392862e+00,-2.975209260685760970e+00,-1.410987436369225634e+00,-2.573920160706808957e+01,-1.138249379647395543e+01,-4.520364253359161033e+00,5.910996338987350995e-01,4.384582756625701044e-03
2.640000000000000124e-01,-2.070263671727751165e-01,2.141633019252591641e+00,-1.549779643540176277e+00,-6.123567262178744031e-01,8.133568708409144588e-01,1.605825387533528659e+00,-2.901072606441687518e-01,2.820175801644556834e+00,2.943570370926257951e+00,-3.141592411140135876e+00,3.141570953729936555e+00,-2.927548488458077358e+00,-1.127172332996105553e+01,-3.040950226519243316e+01,-1.353894048608330714e+01,-5.330548823895025379e+00,-6.085822203245196960e-01,3.021373840712215930e-03
2.660000000000000142e-01,-2.079835621144613400e-01,2.147069917185321142e+00,-1.543712438847579138e+00,-6.186399108681331915e-01,8.196400315424904326e-01,1.599775714578511421e+00,-2.615546648066060520e-01,2.837110895136581323e+00,2.910598442259967555e+00,-3.141592432233017540e+00,3.112248252428759798e+00,-2.924275176846371505e+00,-1.470706258435620484e+01,-2.958119705590134885e+01,-1.320566856312997750e+01,-5.181448454242316259e+00,-1.101237025386804902e+00,2.097934485920949828e-03
2.680000000000000160e-01,-2.084695314154217660e-01,2.152761132268438349e+00,-1.537870314148451545e+00,-6.249230957334188652e-01,8.259231687514154707e-01,1.593969261655594938e+00,-2.994770644229876044e-01,2.819759631139254985e+00,2.889229774075221080e+00,-3.141592431396094121e+00,3.052372256256887351e+00,-2.967259408432344703e+00,-1.144629761302615378e+01,-2.302262489938549095e+01,-1.027778400245285617e+01,-4.032647629914745124e+00,-8.570771126294751685e-01,1.632792568927073735e-03
2.700000000000000178e-01,-2.089555007163821920e-01,2.158452347351555112e+00,-1.532028189449323730e+00,-6.312062805987045389e-01,8.322063059603406199e-01,1.588162808732678455e+00,-3.373994640393691014e-01,2.802408367141928647e+00,2.867861105890474160e+00,-3.141592430559170257e+00,2.992496260085014903e+00,-3.010243640018318345e+00,-8.185532641696100953e+00,-1.646405274286962950e+01,-7.349899441775734843e+00,-2.883846805587173101e+00,-6.129171998721456571e-01,1.167650651933197642e-03
2.720000000000000195e-01,-2.094414700173426180e-01,2.164143562434672319e+00,-1.526186064750196136e+00,-6.374894654639902125e-01,8.384894431692657690e-01,1.582356355809761972e+00,-3.753218636557507093e-01,2.785057103144602308e+00,2.846492437705727241e+00,-3.141592429722246838e+00,2.932620263913142455e+00,-3.053227871604291543e+00,-4.924767670366044570e+00,-9.905480586353764494e+00,-4.422014881098609962e+00,-1.735045981259601078e+00,-3.687572871148159237e-01,7.025087349393211150e-04
2.740000000000000213e-01,-2.099274393183030440e-01,2.169834777517789082e+00,-1.520343940051068321e+00,-6.437726503292759972e-01,8.447725803781909182e-01,1.576549902886845489e+00,-4.132442632721322617e-01,2.767705839147275970e+00,2.825123769520980321e+00,-3.141592428885322974e+00,2.872744267741270008e+00,-3.096212103190265186e+00,-1.664002699035989963e+00,-3.346908429837895937e+00,-1.494130320421486857e+00,-5.862451569320281664e-01,-1.245973743574861903e-01,2.373668179454445880e-04
2.760000000000000231e-01,-2.104820338402997593e-01,2.175120106615546778e+00,-1.513807469031313913e+00,-6.500540916300378003e-01,8.504893629270295907e-01,1.569489522827070882e+00,-4.695524071075894423e-01,2.874506321988720803e+00,2.528696880229721611e+00,-3.142989874132504191e+00,2.958652333075072693e+00,-2.759371025120265219e+00,-3.704472799272097205e+01,-3.302270299541962117e+01,-2.674301955025570976e+01,-9.031226793230478833e+00,-5.386368398623046616e+00,3.364830930098574452e-02
2.780000000000000249e-01,-2.112298735941997851e-01,2.180375005010594780e+00,-1.507507271563282680e+00,-6.563361351926408904e-01,8.559535497773300694e-01,1.562366380378731545e+00,-5.549051452138392682e-01,3.037241098669940964e+00,2.101594331957067130e+00,-3.143896394688737050e+00,3.101930908161595113e+00,-2.196440789628909318e+00,-4.010502377520510464e+01,-3.303770315485044762e+01,-1.944691840502741798e+01,-6.989128689167221964e+00,-4.860106167472766359e+00,2.248834832120705576e-02
2.800000000000000266e-01,-2.121461077734922984e-01,2.186064780189208800e+00,-1.502297701056341417e+00,-6.626204114607856521e-01,8.617862949944207207e-01,1.556671882891260461e+00,-6.491435745575798721e-01,3.119143320643116724e+00,1.846720979661407913e+00,-3.142996643308814342e+00,3.149196324467622876e+00,-1.826861926517358903e+00,-3.777743984468699523e+01,-3.302354981170434911e+01,-1.599297741433384878e+01,-6.050223693326747920e+00,-3.836477245605201425e+00,1.462204405716755265e-02
2.820000000000000284e-01,-2.132367180445632060e-01,2.192078403571720457e+00,-1.497940121574496741e+00,-6.689056970468816310e-01,8.678855355215744360e-01,1.552115079492563998e+00,-7.469838825935675164e-01,3.141628449747228657e+00,1.719295373186862985e+00,-3.141264221173912574e+00,3.137717716116797728e+00,-1.609035673203774053e+00,-3.201008102869636218e+01,-3.299590960299723008e+01,-1.494052489009502160e+01,-5.799541769167603888e+00,-2.559849677617040964e+00,9.699918869648320452e-03
2.840000000000000302e-01,-2.145076860737985258e-01,2.198304846578464034e+00,-1.494195897181757493e+00,-6.751907685633387057e-01,8.741492083020648840e-01,1.548405019310550301e+00,-8.431422567765578524e-01,3.126111947821260895e+00,1.674536062377551815e+00,-3.139672729465208700e+00,3.104764217232763190e+00,-1.501363267106319066e+00,-2.475105215476288834e+01,-3.297044916574498075e+01,-1.484888914423096651e+01,-5.822112880148349490e+00,-1.274591508104976567e+00,7.372495119430480873e-03
2.860000000000000320e-01,-2.159649935275839983e-01,2.204633080629770703e+00,-1.490826391942130957e+00,-6.814744026225659779e-01,8.804752502791649560e-01,1.545250751473126849e+00,-9.323348845613069757e-01,3.094009276704193567e+00,1.667661597077592539e+00,-3.139195769363877897e+00,3.087604961939160564e+00,-1.462245945643155354e+00,-1.794845805041627074e+01,-3.296283513696348422e+01,-1.427739848866169581e+01,-5.702966989727530134e+00,-2.250707816656971061e-01,7.290295167295140003e-03
2.880000000000000338e-01,-2.176146220723058078e-01,2.210952077145974748e+00,-1.487592969919625752e+00,-6.877553758369738812e-01,8.867615983961483206e-01,1.542361325108201564e+00,-1.009277953402571537e+00,3.066735898235010360e+00,1.653890527131105737e+00,-3.140806942051098449e+00,3.123509084359634258e+00,-1.450084946232446548e+00,-1.355040354318621709e+01,-3.298873415366865203e+01,-1.178538123530724135e+01,-5.027134061363706330e+00,3.443444571041075486e-01,9.103841374023414340e-03
2.900000000000000355e-01,-2.194586914731241067e-01,2.217165061160098372e+00,-1.484286831321807387e+00,-6.940330701158626825e-01,8.929300922420554398e-01,1.539474755285753504e+00,-1.069173951258171051e+00,3.060248259148790950e+00,1.599745887072424377e+00,-3.145002116879485943e+00,3.235372380625786803e+00,-1.427762506765937189e+00,-1.318993815924871527e+01,-3.305613013081346452e+01,-6.354985338955676077e+00,-3.499768879651819375e+00,2.390320768421377862e-01,1.233502478676643324e-02
2.920000000000000373e-01,-2.214697094486706708e-01,2.223284550671899229e+00,-1.480927952086034782e+00,-7.003115086264669609e-01,8.990858506296245389e-01,1.536551160328603949e+00,-1.110954190901092931e+00,3.048644508980467016e+00,1.558430537531119819e+00,-3.148614040737025110e+00,3.335879657894500028e+00,-1.392520002453592864e+00,-1.608434993895439291e+01,-3.311409788394472287e+01,-2.104289696946148869e-01,-1.747111877154237769e+00,-3.541914277933380650e-01,1.551942524952065749e-02
2.940000000000000391e-01,-2.236064808636684109e-01,2.229373638556294779e+00,-1.477642173186729302e+00,-7.065968622592242454e-01,9.054188040857865660e-01,1.533653435935107501e+00,-1.135275483598461088e+00,2.986653040742192289e+00,1.623258075578654092e+00,-3.146780365512644728e+00,3.286716037110689825e+00,-1.357498359340053806e+00,-2.033304313550890541e+01,-3.308445228282078432e+01,2.923814916584950296e+00,-8.216321180579122530e-01,-1.072000391714274858e+00,1.673621111468642439e-02
2.960000000000000409e-01,-2.258279663297272644e-01,2.235491712591954450e+00,-1.474547694689026134e+00,-7.128948982892476804e-01,9.121074402309219398e-01,1.530843460634061515e+00,-1.143082648881788010e+00,2.830845151818061289e+00,1.883707309473853453e+00,-3.134833078741971590e+00,2.955016767345573836e+00,-1.335586300282168404e+00,-2.406542020139594129e+01,-3.289412685118827540e+01,-5.699350528711246699e-01,-1.745630104128201854e+00,-1.559913252012381291e+00,1.413582068918668028e-02
2.980000000000000426e-01,-2.281003498648480898e-01,2.241573262328580007e+00,-1.471504875861369577e+00,-7.191983511525806838e-01,9.189566751235000996e-01,1.528133673133285297e+00,-1.144065052034184404e+00,2.598929973230016177e+00,2.302072180754393127e+00,-3.114491976086079195e+00,2.387652563742417300e+00,-1.329047614307342196e+00,-2.654286123282443910e+01,-3.263534155566513562e+01,-1.070218151424570330e+01,-4.521970023424318086e+00,-1.771090195560342417e+00,8.183169716315373890e-03
3.000000000000000444e-01,-2.303983079083763430e-01,2.247405936846424535e+00,-1.468070937457408132e+00,-7.254846328245488918e-01,9.253322238503030039e-01,1.525478386684526511e+00,-1.158192854262928728e+00,2.380495222804996924e+00,2.691117805042240185e+00,-3.094986877580774287e+00,1.842805706334439853e+00,-1.327654558062548285e+00,-2.835759088630915414e+01,-3.259464048632440836e+01,-2.324253575199991317e+01,-7.954984202360914303e+00,-2.020379956251598053e+00,2.064260988407701225e-03
3.020000000000000462e-01,-2.326970143047471518e-01,2.252769038636257548e+00,-1.463785871531019467e+00,-7.317302840979670320e-01,9.305748262821825767e-01,1.522828598154838398e+00,-1.206020135976975327e+00,2.269225034386252116e+00,2.855087357396968617e+00,-3.085975548193746310e+00,1.590700009449471430e+00,-1.320464753798150426e+00,-3.017780183892842771e+01,-3.306953241644342967e+01,-3.371849115305983702e+01,-1.078057981809923405e+01,-2.643242271511303088e+00,-8.798335740497261609e-04
3.040000000000000480e-01,-2.349934039682246567e-01,2.257552497917147516e+00,-1.458421999310136163e+00,-7.379229382311456309e-01,9.343359721408753815e-01,1.520155196814310772e+00,-1.299485708728796540e+00,2.325264656860894341e+00,2.667654282422957213e+00,-3.093501974940905619e+00,1.800516472205445639e+00,-1.297125251856837247e+00,-3.228495403618097725e+01,-3.405593576482118578e+01,-3.881907300541720218e+01,-1.206400924373383177e+01,-3.802717959194428232e+00,1.407486417579068005e-03
3.060000000000000497e-01,-2.373514924024002215e-01,2.261987265513702106e+00,-1.452467819032181140e+00,-7.440844220734443848e-01,9.372250674313967744e-01,1.517490392177366143e+00,-1.423970989758538641e+00,2.505372502626809439e+00,2.216517503932400324e+00,-3.112470326961166656e+00,2.329961904039253628e+00,-1.249100071329161121e+00,-3.376836660740084994e+01,-3.462008769502215699e+01,-3.881384032350020874e+01,-1.188576307405349120e+01,-5.130349945423173352e+00,7.023314397175644055e-03
3.080000000000000515e-01,-2.398481795890352319e-01,2.266369793651033415e+00,-1.446549388355820920e+00,-7.502431301949582521e-01,9.400355095572309194e-01,1.514878171820567498e+00,-1.559756395097266601e+00,2.746448997574157946e+00,1.630484806620970062e+00,-3.135645097196630537e+00,2.976916830247298584e+00,-1.168202224872992412e+00,-3.348837869717158355e+01,-3.364965720419966999e+01,-3.466008174810422560e+01,-1.052133339139739654e+01,-6.155593904970146468e+00,1.330422303645520041e-02
3.100000000000000533e-01,-2.425603655098910183e-01,2.270996534554253987e+00,-1.441292764939723137e+00,-7.564274571657818580e-01,9.435606959218616474e-01,1.512362523320477603e+00,-1.687122340776046947e+00,2.985394567593099957e+00,1.038363975184333210e+00,-3.155790778589396162e+00,3.539261776125984582e+00,-1.046244725146200150e+00,-3.030532945007673362e+01,-3.003231328950705503e+01,-2.731508592002463942e+01,-8.246212278104724902e+00,-6.407905512607968035e+00,1.758678500713295803e-02
3.120000000000000551e-01,-2.455649501467288554e-01,2.276163940448475920e+00,-1.437324006442553870e+00,-7.626657975560096059e-01,9.485940239287723452e-01,1.509987434253659000e+00,-1.786349242825944650e+00,3.159109638573796452e+00,5.689627943181603253e-01,-3.165671864081565534e+00,3.814877266971714143e+00,-8.750405848066539205e-01,-2.307955801069981661e+01,-2.265572494809763171e+01,-1.773614148005684399e+01,-5.335891816514664043e+00,-5.416740443109250513e+00,1.720757298092411014e-02
3.140000000000000013e-01,-2.489388334813100179e-01,2.282168463558812199e+00,-1.435269170522980087e+00,-7.689865459357365651e-01,9.559288909814470658e-01,1.507796892196674232e+00,-1.837717517278025792e+00,3.204494636406407082e+00,3.510890487181210773e-01,-3.158052846615237996e+00,3.601643828080893783e+00,-6.464028165122244207e-01,-1.067140352362444133e+01,-1.040756117712477646e+01,-6.880537068996262384e+00,-2.065864088966407053e+00,-2.711554371246621908e+00,9.503159629543914133e-03
3.160000000000000031e-01,-2.529642467443627418e-01,2.288810021065800004e+00,-1.435282139263466705e+00,-7.752429005346724855e-01,9.640560099676284134e-01,1.506510761126364617e+00,-1.804995563622609156e+00,3.139445839481452172e+00,4.446334180725056706e-01,-3.154102863904114873e+00,3.159339105080781973e+00,-5.118127638628348075e-01,3.295135506079397203e+01,-1.681675560244176992e+01,-3.278378092429349522e+00,-2.005587070131710448e+00,4.858316841504171535e+00,4.461019101035872472e-03
3.180000000000000049e-01,-2.573478823961069528e-01,2.295066667348184986e+00,-1.435238596947511880e+00,-7.813153444399423275e-01,9.697585666391599357e-01,1.506214314894587680e+00,-1.720818098983667666e+00,3.135445608391815853e+00,5.460591512744884524e-01,-3.180589149821452910e+00,3.199594164213555025e+00,-5.940707338569052309e-01,3.277997186215601744e+01,-1.972090176366944192e+01,-5.802871665529088396e+00,-2.754490949699698099e+00,4.563913740966238031e+00,5.950562241798748944e-03
3.200000000000000067e-01,-2.615613117487615158e-01,2.301332521679892995e+00,-1.434943488310311821e+00,-7.874611934936665003e-01,9.756620007837309982e-01,1.505702947789752555e+00,-1.634994510509321985e+00,3.133386718065508170e+00,6.195233441840034549e-01,-3.199028455790816405e+00,3.231275907709341144e+00,-6.555166766383477839e-01,3.254315995822727103e+01,-2.226995930410573976e+01,-7.999150256417530080e+00,-3.400246146329427788e+00,4.265162279662296996e+00,7.219097568632381473e-03
3.220000000000000084e-01,-2.656036256423783826e-01,2.307606507436660515e+00,-1.434423721174541866e+00,-7.936717867926466052e-01,9.817429838582547585e-01,1.504998710657109440e+00,-1.547708147848996241e+00,3.132887610169770909e+00,6.672583684066805132e-01,-3.209992665224877584e+00,3.253908712554770766e+00,-6.976565128690364048e-01,3.224192636604507811e+01,-2.448548776540591021e+01,-9.886665692106658909e+00,-3.949367409277800167e+00,3.964125341384304946e+00,8.281100768439375939e-03
3.240000000000000102e-01,-2.694739149170091719e-01,2.313887547994222249e+00,-1.433706203362877574e+00,-7.999384634336832445e-01,9.879781873196433750e-01,1.504123654341906313e+00,-1.459142360652112336e+00,3.133566726371846300e+00,6.914965955481496840e-01,-3.214053661536306450e+00,3.267016955736470329e+00,-7.219961632108439220e-01,3.187727810264670936e+01,-2.638904668922520358e+01,-1.148486979960845211e+01,-4.408369487801715003e+00,3.662865809924213956e+00,9.151047528122333019e-03
3.260000000000000120e-01,-2.731712704127060576e-01,2.320174566728314236e+00,-1.432817842697993393e+00,-8.062525625135775753e-01,9.943442826248098942e-01,1.503099829689393374e+00,-1.369480498568094395e+00,3.135042508338977907e+00,6.944703972140408021e-01,-3.211783328137772120e+00,3.270125014241069383e+00,-7.300415483256438298e-01,3.145022218506948164e+01,-2.800219561721888439e+01,-1.281321440593488958e+01,-4.783767131158071173e+00,3.363446569073981429e+00,9.843413534583856858e-03
3.280000000000000138e-01,-2.766947829695207139e-01,2.326466487014670736e+00,-1.431785547002565107e+00,-8.126054231291306440e-01,1.000817941230666808e+00,1.501949287544819267e+00,-1.278905911246364102e+00,3.136933397738406626e+00,6.784121450099834805e-01,-3.203753548441946819e+00,3.262757265055195699e+00,-7.232985888753091785e-01,3.096176563035068696e+01,-2.934649409104218520e+01,-1.389115133809795033e+01,-5.082075088603768442e+00,3.067930502625558109e+00,1.037267447472654813e-02
3.300000000000000155e-01,-2.800435434275047597e-01,2.332762232229026012e+00,-1.430636224099265386e+00,-8.189883843771426086e-01,1.007375834594126163e+00,1.500694078753431304e+00,-1.187601948336343805e+00,3.138857836237372467e+00,6.455542105416072207e-01,-3.190536205861496111e+00,3.244438085165474384e+00,-7.032732055217125744e-01,3.041291545552758890e+01,-3.044350165235034211e+01,-1.473813242310960625e+01,-5.309808109395704356e+00,2.778380494370896514e+00,1.075330603545300232e-02
3.320000000000000173e-01,-2.832166426267103132e-01,2.339060725747116987e+00,-1.429396781810771344e+00,-8.253927853544151816e-01,1.013994634172100673e+00,1.499356254160480351e+00,-1.095751959487457183e+00,3.140434265503120326e+00,5.981289654145423018e-01,-3.172703183809093996e+00,3.214691851558537206e+00,-6.714713189267281779e-01,2.980467867763753276e+01,-3.131477784279863030e+01,-1.537360948798184701e+01,-5.473480942790778236e+00,2.496859428101953160e+00,1.099978390366582702e-02
3.340000000000000191e-01,-2.862131714071889377e-01,2.345360890944677479e+00,-1.428094127959756765e+00,-8.318099651577490761e-01,1.020651011421503052e+00,1.497957864611214163e+00,-1.003539294349126587e+00,3.141281127202889767e+00,5.383687812344182255e-01,-3.150826365697408260e+00,3.173042941221009272e+00,-6.293988497522283732e-01,2.913806231371778210e+01,-3.198188220404227877e+01,-1.581703435972664096e+01,-5.579608338045891180e+00,2.225430187610679678e+00,1.112658376626762466e-02
3.360000000000000209e-01,-2.890322206089925849e-01,2.351661651197442637e+00,-1.426755170368896097e+00,-8.382312628839447832e-01,1.027321637799245346e+00,1.496520960950881829e+00,-9.111473025707746975e-01,3.141016863003923465e+00,4.685060296068648822e-01,-3.125477634939108462e+00,3.119015731139520131e+00,-5.785617186600867656e-01,2.841407338080564315e+01,-3.246637427773652718e+01,-1.608785886535596887e+01,-5.634705044417938957e+00,1.966155656689031028e+00,1.114818131016098897e-02
3.380000000000000226e-01,-2.916728810721731513e-01,2.357961929881148500e+00,-1.425406816860865788e+00,-8.446480176298037934e-01,1.033983184762240937e+00,1.495067594024732882e+00,-8.187593338018241962e-01,3.139259914573463650e+00,3.907730821375118846e-01,-3.097228874946867272e+00,3.052134598300697110e+00,-5.204658463121762946e-01,2.763371889593842567e+01,-3.278981360553664359e+01,-1.620553483188181687e+01,-5.645285811163825329e+00,1.721098719128959953e+00,1.107905222224853624e-02
3.400000000000000244e-01,-2.941342436367823110e-01,2.364260650371528882e+00,-1.424075975258338955e+00,-8.510515684921268198e-01,1.040612323767401870e+00,1.493619814678015301e+00,-7.265587376916974316e-01,3.135628723578752108e+00,3.074023104319886790e-01,-3.066651969133351141e+00,2.971923919691166649e+00,-4.566171533703699548e-01,2.679800587615340390e+01,-3.297375972909785702e+01,-1.618951408631615507e+01,-5.617865387540445177e+00,1.492322258722419415e+00,1.093367218943285153e-02
3.420000000000000262e-01,-2.964153991428720158e-01,2.370556736044320267e+00,-1.422789553383991379e+00,-8.574332545677144646e-01,1.047185726271640416e+00,1.492199673755978839e+00,-6.347288638898176405e-01,3.129741731687029738e+00,2.206260860959256553e-01,-3.034318800911232294e+00,2.877908072297559183e+00,-3.885215604965412961e-01,2.590794133848789116e+01,-3.303977219007543198e+01,-1.605924845567096426e+01,-5.558958522804700486e+00,1.281889159261364153e+00,1.072651689861654767e-02
3.439999999999999725e-01,-2.985154384304939956e-01,2.376849110275256471e+00,-1.421574459060498397e+00,-8.637844149533682181e-01,1.053680063731869732e+00,1.490829222103872143e+00,-5.434530620456079486e-01,3.121217380565540100e+00,1.326767807349526485e-01,-3.000801253693181181e+00,2.769611433106501597e+00,-3.176849883525636464e-01,2.496453229997918299e+01,-3.300941053012460458e+01,-1.583418976695822522e+01,-5.475079966213491467e+00,1.091862304537748907e+00,1.047206203670222532e-02
3.459999999999999742e-01,-3.004334523397001466e-01,2.383136696440073532e+00,-1.420457600110533791e+00,-8.700963887458886825e-01,1.060072007605001865e+00,1.489530510566943633e+00,-4.529146818084900938e-01,3.109674111881523650e+00,4.578676595469871602e-02,-2.966671210891865584e+00,2.646558379104621661e+00,-2.456133576003095842e-01,2.396878577766456786e+01,-3.290423429090063223e+01,-1.553378984718991518e+01,-5.372744467023713000e+00,9.243045783435247520e-01,1.018478329059247997e-02
3.479999999999999760e-01,-3.021685317105421986e-01,2.389418417914505710e+00,-1.419465884356772900e+00,-8.763605150420766821e-01,1.066338229347949307e+00,1.488325589990442843e+00,-3.632970728278873129e-01,3.094730367302222618e+00,-3.781158663920577284e-02,-2.932500555919955953e+00,2.508273287278546260e+00,-1.738125889016525760e-01,2.292170878858134131e+01,-3.274580301405875105e+01,-1.517750052337801314e+01,-5.258466774492267071e+00,7.812788644706467611e-01,9.879156347189917489e-03
3.499999999999999778e-01,-3.037197673830721034e-01,2.395693198074289487e+00,-1.418626219621891282e+00,-8.825681329387334850e-01,1.072455400417625215e+00,1.487236511219618418e+00,-2.747835847532220654e-01,3.076004588494879677e+00,-1.158859054411314621e-01,-2.898861172190123625e+00,2.354280534614905385e+00,-1.037886029184657971e-01,2.182430834976681311e+01,-3.255567624125421133e+01,-1.478477362253449812e+01,-5.138761637876053001e+00,6.648480467110680081e-01,9.569656893397140290e-03
3.519999999999999796e-01,-3.050862501973414798e-01,2.401959960295157792e+00,-1.417965513728562277e+00,-8.887105815326594715e-01,1.078400192270941416e+00,1.486285325099718779e+00,-1.875575672339172550e-01,3.053115217126734393e+00,-1.862038188454483434e-01,-2.866324943115036827e+00,2.184104498100324587e+00,-3.704732031262236713e-02,2.067759147825826460e+01,-3.235541351414226341e+01,-1.437506097167134556e+01,-5.020143806431968336e+00,5.770750088567424552e-01,9.270760616116745581e-03
3.539999999999999813e-01,-3.062670709934024460e-01,2.408217627952848439e+00,-1.417510674499462331e+00,-8.947791999206561320e-01,1.084149276364810843e+00,1.485494082475994126e+00,-1.018023699193960352e-01,3.025680694865032550e+00,-2.465329552465263530e-01,-2.835463752107367341e+00,1.997269554721434748e+00,2.490533825400424728e-02,1.948256519109301266e+01,-3.216657437437815759e+01,-1.396781439780053979e+01,-4.909128029416915062e+00,5.200226346996241755e-01,8.996943202251344446e-03
3.559999999999999831e-01,-3.072613667503024115e-01,2.414465028405901936e+00,-1.417288047992435240e+00,-9.007654711110422152e-01,1.089679204468060991e+00,1.484884455236504808e+00,-1.770453080229491757e-02,2.993329977515302165e+00,-2.946786764825979343e-01,-2.806841257774182363e+00,1.793351862463073099e+00,8.058573317634069866e-02,1.824033409610760259e+01,-3.201044605851105018e+01,-1.358226656349503081e+01,-4.812144117178434044e+00,4.956766727708963316e-01,8.762489612683912327e-03
3.579999999999999849e-01,-3.080701729103694775e-01,2.420697038230924303e+00,-1.417300865546900601e+00,-9.066667995832875526e-01,1.094961603590577148e+00,1.484462522465685330e+00,6.441822260949715828e-02,2.956124642032287753e+00,-3.299989476957719270e-01,-2.780682695853026853e+00,1.574058191856272382e+00,1.294270148069803228e-01,1.695601833170990602e+01,-3.189711137105079075e+01,-1.322863225759844497e+01,-4.732126931874982567e+00,5.028490170986837926e-01,8.573837079124600052e-03
3.599999999999999867e-01,-3.086970534945028821e-01,2.426903271926145855e+00,-1.417521571822154769e+00,-9.124884766720982032e-01,1.099961541416037747e+00,1.484213595066905089e+00,1.440734304334087279e-01,2.914702476972660605e+00,-3.539196589054444675e-01,-2.756762553928843840e+00,1.343933093486456398e+00,1.720834134459653941e-01,1.564008635389994417e+01,-3.182172984300124696e+01,-1.290511529011739000e+01,-4.667356385951197950e+00,5.361242792704660198e-01,8.426970379429927355e-03
3.619999999999999885e-01,-3.091457479398282970e-01,2.433072978941258402e+00,-1.417920475699202543e+00,-9.182363408505601621e-01,1.104643630585017577e+00,1.484121543183113179e+00,2.207565109987572327e-01,2.869741244681344838e+00,-3.680101592194541804e-01,-2.734824049630986131e+00,1.107717984539124290e+00,2.092938699251863655e-01,1.430337764993470273e+01,-3.177842572635920249e+01,-1.260908622798753065e+01,-4.615789461918425651e+00,5.897938096957262566e-01,8.317149168644514395e-03
3.639999999999999902e-01,-3.094199956834710052e-01,2.439195408725949310e+00,-1.418467886059048721e+00,-9.239162305917579809e-01,1.108972483738090986e+00,1.484170236957255140e+00,2.939628826348592017e-01,2.821918707503263235e+00,-3.738397977456393573e-01,-2.714610400588800765e+00,8.701542821997757526e-01,2.417973250765330373e-01,1.295673170707115851e+01,-3.176132327312140902e+01,-1.233791563814452275e+01,-4.575383142288007576e+00,6.581489587839470801e-01,8.239633101812981336e-03
3.659999999999999920e-01,-3.095235361625563453e-01,2.445259810729909500e+00,-1.419134111782697438e+00,-9.295339843687768777e-01,1.112912713515832319e+00,1.484343546532278735e+00,3.631879636710318993e-01,2.771912627783339911e+00,-3.729779235918384006e-01,-2.695864824431639217e+00,6.359834036539108171e-01,2.703327197318955988e-01,1.161098801256629720e+01,-3.176454673528465023e+01,-1.208897408752403102e+01,-4.544094409571286519e+00,7.354810769446114005e-01,8.189681833979948339e-03
3.679999999999999938e-01,-3.094601088142096001e-01,2.451255434402826783e+00,-1.419889461751152826e+00,-9.350954406547014042e-01,1.116428932558815479e+00,1.484625342051129948e+00,4.279271724365920071e-01,2.720400767866497205e+00,-3.669938858658894909e-01,-2.678330538788850301e+00,4.099467660870280139e-01,2.956389947231640170e-01,1.027698605367709206e+01,-3.178222036484566360e+01,-1.185963214306170777e+01,-4.519880246279604386e+00,8.160815145872016840e-01,8.162555020190033830e-03
3.699999999999999956e-01,-3.092334530755562749e-01,2.457171529194391191e+00,-1.420704244845419684e+00,-9.406064379226172223e-01,1.119485753507615033e+00,1.484999493656757208e+00,4.876759272608565121e-01,2.668060890097659676e+00,-3.574570336756314748e-01,-2.661750761289785050e+00,1.967857866846284831e-01,3.184550908822284532e-01,8.965565317660530553e+00,-3.180846841380124346e+01,-1.164726037169322304e+01,-4.500697634924304857e+00,8.942416221212010630e-01,8.153512315487863177e-03
3.719999999999999973e-01,-3.088473083837215971e-01,2.462997344554292312e+00,-1.421548769946501922e+00,-9.460728146456092169e-01,1.122047789002805551e+00,1.485449871492106277e+00,5.419296464731427898e-01,2.615570756821750109e+00,-3.459367161289023662e-01,-2.645868709563791832e+00,1.241882632209700965e-03,3.395199490409790966e-01,7.687565291773582388e+00,-3.183741513414814861e+01,-1.144922934035422735e+01,-4.484503558016730729e+00,9.642527499560924475e-01,8.157813374918051336e-03
3.739999999999999991e-01,-3.083054141758310163e-01,2.468722129932218401e+00,-1.422393345935403897e+00,-9.515004092967621618e-01,1.124079651684960934e+00,1.485960345700124696e+00,5.901837484027673275e-01,2.563608130383691730e+00,-3.340022823335406232e-01,-2.630427601240221236e+00,-1.719435288847278587e-01,3.595725100313059142e-01,6.453825463273234142e+00,-3.186318477788314141e+01,-1.126290961598038542e+01,-4.469254998068223905e+00,1.020406248501358526e+00,8.170717853525220203e-03
3.760000000000000009e-01,-3.076116089799875719e-01,2.474335276967870811e+00,-1.423208630460236046e+00,-9.568950002914407005e-01,1.125546917154244486e+00,1.486514957227740963e+00,6.319438390495859537e-01,2.512840686096386555e+00,-3.232012197742794024e-01,-2.615171823380632254e+00,-3.181107834104680010e-01,3.793416086490078998e-01,5.275083303933648438e+00,-3.187997651947638644e+01,-1.108570933931669877e+01,-4.452936032431432878e+00,1.057080200921433288e+00,8.187526063283002628e-03
3.780000000000000027e-01,-3.067737578169482116e-01,2.479831955092729689e+00,-1.423979453076785084e+00,-9.622599256414871016e-01,1.126454290201024833e+00,1.487104687522349478e+00,6.671294932889053619e-01,2.463526219773144899e+00,-3.141926841530238157e-01,-2.599893282107486048e+00,-4.359221815533469435e-01,3.991454279731889709e-01,4.157930957650511239e+00,-3.188503395576494981e+01,-1.091656343660250705e+01,-4.434631718407558765e+00,1.072177015288562574e+00,8.205190382073478117e-03
3.800000000000000044e-01,-3.058050594128891575e-01,2.485214987307266199e+00,-1.424709416200318435e+00,-9.675952906709897050e-01,1.126858308213358306e+00,1.487729711785843012e+00,6.962086510929075267e-01,2.415379579134242061e+00,-3.064590998446756198e-01,-2.584446829807996782e+00,-5.284404747821219717e-01,4.187581800702466772e-01,3.103469447468498732e+00,-3.187963348669059016e+01,-1.075642929500395617e+01,-4.414885529647314399e+00,1.068267607101756056e+00,8.222851601777098410e-03
3.820000000000000062e-01,-3.047190795229532401e-01,2.490487723277995613e+00,-1.425403414065329333e+00,-9.729009782526735206e-01,1.126819075342607279e+00,1.488390837871141015e+00,7.196869871527071805e-01,2.368078249942012992e+00,-2.994019166578540392e-01,-2.568691650398908344e+00,-5.990312233645427309e-01,4.379166446583331318e-01,2.112421935216983293e+00,-3.186532902200110939e+01,-1.060640347355473168e+01,-4.394341297995887352e+00,1.048244146470479476e+00,8.239801105892209654e-03
3.840000000000000080e-01,-3.035293839022831786e-01,2.495653512671430985e+00,-1.426066340906312124e+00,-9.781768712592632253e-01,1.126396695740134124e+00,1.489088873631164045e+00,7.380701761594190558e-01,2.321299717958794862e+00,-2.924225844011785203e-01,-2.552486927796962402e+00,-6.510599875683596993e-01,4.563576014556003924e-01,1.185511582725333746e+00,-3.184367447144429875e+01,-1.046758253128851912e+01,-4.373642855298468746e+00,1.014998803504197911e+00,8.255330277917166670e-03
3.860000000000000098e-01,-3.022495383060217478e-01,2.500715705154084922e+00,-1.426703090957760489e+00,-9.834228525634834961e-01,1.125651273557301213e+00,1.489824626918831108e+00,7.518638928041574410e-01,2.274721468946919956e+00,-2.849225528832683985e-01,-2.535691845918899734e+00,-6.878923276613231330e-01,4.738178301802006831e-01,3.234615518229189690e-01,-3.181622374476794235e+01,-1.034106302723899518e+01,-4.353434033400242598e+00,9.714237483123765449e-01,8.268730501350308668e-03
3.880000000000000115e-01,-3.008931084893117780e-01,2.505677650392471367e+00,-1.427318558454168329e+00,-9.886388050380591208e-01,1.124642912945470030e+00,1.490598905587062095e+00,7.615738117780374017e-01,2.228020988668725444e+00,-2.763032719127430092e-01,-2.518165588681463340e+00,-7.128938039111832881e-01,4.900341105502858952e-01,-4.730049956608912698e-01,-3.178453075171983144e+01,-1.022794152043984894e+01,-4.334358664146398255e+00,9.204111510044805655e-01,8.279293159689992201e-03
3.900000000000000133e-01,-2.994736602072959886e-01,2.510542698053104260e+00,-1.427917637630029546e+00,-9.938246115557146654e-01,1.123431718056003170e+00,1.491412517488776679e+00,7.677056077721735594e-01,2.180875762886545832e+00,-2.659661912982218546e-01,-2.499767340001395777e+00,-7.294299765856904205e-01,5.047432222840081417e-01,-1.203164897896723540e+00,-3.175014940204776082e+01,-1.012931456992476420e+01,-4.317060579382125951e+00,8.648531816899756031e-01,8.286309636434561685e-03
3.920000000000000151e-01,-2.980047592151173208e-01,2.515314197802497986e+00,-1.428505222719838264e+00,-9.989801549891753618e-01,1.122077793040263005e+00,1.492266270476895196e+00,7.707649554776804246e-01,2.132963277362717402e+00,-2.533127608483241033e-01,-2.480356283795438266e+00,-7.408664059525954526e-01,5.176819450995198135e-01,-1.866294993055217732e+00,-3.171463360549951815e+01,-1.004627873472742650e+01,-4.302183610952612369e+00,8.076420104783267329e-01,8.289071315082368469e-03
3.940000000000000169e-01,-2.964999712679183830e-01,2.519995499307164266e+00,-1.429086207958087940e+00,-1.004105318211165443e+00,1.120641242049611686e+00,1.493160972404337095e+00,7.712575295856727298e-01,2.083961017859572884e+00,-2.377444303716691743e-01,-2.459791603980332475e+00,-7.505686522796480853e-01,5.285870587149726907e-01,-2.461672119306999473e+00,-3.167953727182289470e+01,-9.979930573881516054e+00,-4.290371590703045079e+00,7.516698074789991413e-01,8.286869579131760435e-03
3.960000000000000187e-01,-2.949727592540358767e-01,2.524589884661649464e+00,-1.429665356166322177e+00,-1.009199957501467182e+00,1.119181477913214318e+00,1.494097371267584906e+00,7.696850877517605882e-01,2.033552123687807800e+00,-2.186739895712364323e-01,-2.437934945321810876e+00,-7.618608125193438996e-01,5.372002607039222388e-01,-2.988631383920911322e+00,-3.164639396317904030e+01,-9.931336273993156993e+00,-4.282256796606400684e+00,6.997919788330877466e-01,8.279012096198580875e-03
3.980000000000000204e-01,-2.934324578930875838e-01,2.529097924216072268e+00,-1.430242156406215770e+00,-1.014262861933075133e+00,1.117730169868583756e+00,1.495073812952261161e+00,7.663921922832139799e-01,1.981646617856856363e+00,-1.959693117564461906e-01,-2.414746709416787152e+00,-7.764030108884211190e-01,5.434606080951144280e-01,-3.448846303194696539e+00,-3.161592066859186900e+01,-9.900343139602023612e+00,-4.278007835840512918e+00,6.533885483913327574e-01,8.265460035129163982e-03
4.000000000000000222e-01,-2.918829632896832726e-01,2.533516615759708213e+00,-1.430809149876721698e+00,-1.019291414597967238e+00,1.116282436633080355e+00,1.496085478706818961e+00,7.615163100319143341e-01,1.928453429058851532e+00,-1.700978156285615217e-01,-2.390317404071698792e+00,-7.936631871967211316e-01,5.475671671776199956e-01,-3.847071107250277233e+00,-3.158775859088997962e+01,-9.885192671136639575e+00,-4.277182457084632183e+00,6.118958122127697852e-01,8.247035513496096121e-03
4.020000000000000240e-01,-2.903278003319626488e-01,2.537842713234193415e+00,-1.431358403545562874e+00,-1.024282902621904245e+00,1.114830902142754709e+00,1.497127333775188474e+00,7.551807724046328829e-01,1.874201888002293259e+00,-1.415678422787721435e-01,-2.364746417583284188e+00,-8.129596521746011994e-01,5.497367513543730544e-01,-4.188270302485702423e+00,-3.156147550436303462e+01,-9.884016763743133538e+00,-4.279296714444076777e+00,5.746173958569441576e-01,8.224619413529253228e-03
4.040000000000000258e-01,-2.887704939080651956e-01,2.542072970581166658e+00,-1.431881984380463768e+00,-1.029234613130647125e+00,1.113368190333657637e+00,1.498194343401299866e+00,7.475089108081405254e-01,1.819121325395683053e+00,-1.108877327982678573e-01,-2.338133138248283061e+00,-8.336107165524195839e-01,5.501861740283081614e-01,-4.477408395299020683e+00,-3.153663918330067517e+01,-9.894947312567639486e+00,-4.283866662024160554e+00,5.408569248834015353e-01,8.199092617458516447e-03
4.060000000000000275e-01,-2.872145689061306184e-01,2.546204141742261839e+00,-1.432371959349147961e+00,-1.034143833249956401e+00,1.111886925141840177e+00,1.499281472829083084e+00,7.386240566492081605e-01,1.763441071947520200e+00,-7.856582827823781201e-02,-2.310576954363432023e+00,-8.549346910605338801e-01,5.491322486023592075e-01,-4.719449892088286802e+00,-3.151281740199253534e+01,-9.916116212756284298e+00,-4.290408353930200924e+00,5.099180248516865799e-01,8.171336007513758243e-03
4.080000000000000293e-01,-2.856635502142984562e-01,2.550232980659116411e+00,-1.432820395419337922e+00,-1.039007850105592379e+00,1.110379730503352480e+00,1.500383687302467628e+00,7.286495413346066874e-01,1.707390458366305097e+00,-4.511046980987182264e-02,-2.282177254225469909e+00,-8.762498864293013501e-01,5.467917884794604166e-01,-4.919359299251543582e+00,-3.148957793472826339e+01,-9.945655359455194855e+00,-4.298437844267508190e+00,4.811043213213446190e-01,8.142230465924856289e-03
4.100000000000000311e-01,-2.841209627207082478e-01,2.554156241273366490e+00,-1.433219359558757899e+00,-1.043823950823316027e+00,1.108839230354245142e+00,1.501495952065383666e+00,7.177086962711072271e-01,1.651198815360538141e+00,-1.102999848435951002e-02,-2.253033426131135109e+00,-8.968746133890801442e-01,5.433816070625460126e-01,-5.082101123186841818e+00,-3.146648855579749693e+01,-9.981696647810499812e+00,-4.307471187141399760e+00,4.537194398519209249e-01,8.112656874921684788e-03
