prominentjohnson/z1_sdk/examples/robust_nominal_trajectory.csv
t,q0,q1,q2,q3,q4,q5,qdot0,qdot1,qdot2,qdot3,qdot4,qdot5,tau0,tau1,tau2,tau3,tau4,tau5
0.000000000000000000e+00,6.437414035671045198e-01,2.292229859902122246e+00,-1.545202305100775719e+00,-7.470275508543359200e-01,-6.437413926104768036e-01,1.570799998693296562e+00,0.000000000000000000e+00,-2.171697444252519076e-25,0.000000000000000000e+00,0.000000000000000000e+00,0.000000000000000000e+00,0.000000000000000000e+00,2.018205101742190255e+00,-2.558367144982705810e+01,-1.473513726217788999e+01,-4.948916384209128161e+00,2.212766180170864516e-01,6.511712368364877893e-03
2.000000000000000042e-03,6.437224511194418186e-01,2.292238424594135182e+00,-1.545063072591254416e+00,-7.471679371968960037e-01,-6.436509033685228198e-01,1.570817675436025906e+00,9.673394776064776768e-03,-4.271060030560069366e-03,-7.097180485860379862e-02,7.146185168151393541e-02,-4.621071637413732419e-02,-9.015670584399990140e-03,1.992235963414058064e+00,-2.538414579316906128e+01,-1.461281610014334653e+01,-4.908566612269920526e+00,2.185106962292920896e-01,6.488942791905838794e-03
4.000000000000000083e-03,6.437230717981762274e-01,2.292238048005922124e+00,-1.545067721332916699e+00,-7.471631560171884123e-01,-6.436538431847570463e-01,1.570817090217581313e+00,1.923035242546911397e-02,-8.336775652554881053e-03,-1.409468063108216263e-01,1.417693893923908655e-01,-9.190306816650967159e-02,-1.791270060809242032e-02,1.966629846364859935e+00,-2.518865188783930620e+01,-1.449121157729519460e+01,-4.868526290925529132e+00,2.154697758529851292e-01,6.477359194504758028e-03
6.000000000000000125e-03,6.437430327290639687e-01,2.292229140826568035e+00,-1.545214257718702466e+00,-7.470155159432730896e-01,-6.437491753300232933e-01,1.570798480319075541e+00,2.867087295188837023e-02,-1.219714676452294394e-02,-2.099250042632472557e-01,2.109226130877248639e-01,-1.370770553799809666e-01,-2.669109007407993381e-02,1.941376593490444558e+00,-2.499698608288355572e+01,-1.437028886446813836e+01,-4.828774484456055838e+00,2.121681528619493995e-01,6.476408608433317088e-03
8.000000000000000167e-03,6.437821010378620423e-01,2.292212113745158764e+00,-1.545500688141552059e+00,-7.467273256032103124e-01,-6.439358630751658152e-01,1.570762083021622679e+00,3.799495635899791113e-02,-1.585217326500277732e-02,-2.779063986224745708e-01,2.789215227226102267e-01,-1.817326780174153278e-01,-3.535083898536518776e-02,1.916466047686663732e+00,-2.480894472734758693e+01,-1.425001313249688373e+01,-4.789290257141601614e+00,2.086201232299689512e-01,6.485538065963203543e-03
1.000000000000000021e-02,6.438400438503261158e-01,2.292187377450779273e+00,-1.545925018994405375e+00,-7.463008936250599135e-01,-6.442128696910287555e-01,1.570708135606335487e+00,4.720260265047309528e-02,-1.930185505253287706e-02,-3.448909892950973721e-01,3.457661182521409859e-01,-2.258699360816766311e-01,-4.389194734495081157e-02,1.891888051849366814e+00,-2.462432417027714493e+01,-1.413034955221613842e+01,-4.750052673262268321e+00,2.048399829308276965e-01,6.504194599366099755e-03
1.200000000000000025e-02,6.439166282922129669e-01,2.292155342632515413e+00,-1.546485256670202757e+00,-7.457385286368821697e-01,-6.445791584484562575e-01,1.570636875354328277e+00,5.629381182998909744e-02,-2.254619202565992866e-02,-4.108787761877172873e-01,4.114563996314162253e-01,-2.694888295756291963e-01,-5.231441515583929586e-02,1.867632448298982339e+00,-2.444292076259138113e+01,-1.401126329427108708e+01,-4.711040796973389178e+00,2.008420274239909042e-01,6.531825256928232813e-03
1.400000000000000029e-02,6.440116214892852575e-01,2.292116419979624897e+00,-1.547179407561724229e+00,-7.450425392668137414e-01,-6.450336926182971276e-01,1.570548539546709144e+00,6.526858390103480734e-02,-2.558518409083208531e-02,-4.758697592144318089e-01,4.759923668201386238e-01,-3.125893585023221122e-01,-6.061824242087704429e-02,1.843688522399029805e+00,-2.426453266846234769e+01,-1.389271934586845347e+01,-4.672233571665754148e+00,1.966400543551211633e-01,6.567892587555204664e-03
1.600000000000000033e-02,6.441247905673236351e-01,2.292071020181862373e+00,-1.548005478061295292e+00,-7.442152341432110019e-01,-6.455754354714144938e-01,1.570443365464571306e+00,7.412691886656509743e-02,-2.841883117714823215e-02,-5.398639383108270184e-01,5.393740197912091361e-01,-3.551715228653350431e-01,-6.880342914246294350e-02,1.820043962917178959e+00,-2.408896325000845806e+01,-1.377468216836264148e+01,-4.633609594541500343e+00,1.922464343161161271e-01,6.611903574873263280e-03
1.800000000000000211e-02,6.442559026521119669e-01,2.292019553929071751e+00,-1.548961474561157514e+00,-7.432589218944692933e-01,-6.462033502786737049e-01,1.570321590389006650e+00,8.286881672943953447e-02,-3.104713321775224438e-02,-6.028613134163266496e-01,6.016013585198851654e-01,-3.972353226683423277e-01,-7.686997532291561797e-02,1.796686173667420450e+00,-2.391601680060159296e+01,-1.365711612967523969e+01,-4.595147401460457637e+00,1.876732829042663253e-01,6.663373143783619772e-03
2.000000000000000042e-02,6.444047248694377839e-01,2.291962431911187537e+00,-1.550045403453470527e+00,-7.421759111490170424e-01,-6.469164003109455496e-01,1.570183451601102398e+00,9.149427749242949881e-02,-3.347009014965453971e-02,-6.648618844742287814e-01,6.626743829836387878e-01,-4.387807579151369319e-01,-8.481788096435302626e-02,1.773602341514726843e+00,-2.374549948947392153e+01,-1.353998566450160190e+01,-4.556825627678331436e+00,1.829324228323475077e-01,6.721825803907060561e-03
2.199999999999999872e-02,6.445710243450991639e-01,2.291900064818371163e+00,-1.551255271130190794e+00,-7.409685105353641665e-01,-6.477135488391139173e-01,1.570029186381938890e+00,1.000033011580915704e-01,-3.568770191929619695e-02,-7.258656514372814339e-01,7.225930931653428146e-01,-4.798078286098012013e-01,-9.264714606840379618e-02,1.750779124179169699e+00,-2.357722206113470520e+01,-1.342325537040018268e+01,-4.518623150880226369e+00,1.780349624593671465e-01,6.786809442271491549e-03
2.400000000000000050e-02,6.447545682048950733e-01,2.291832863340815596e+00,-1.552589083983243246e+00,-7.396390286820331283e-01,-6.485937591340648067e-01,1.569859032012594247e+00,1.083958877289495498e-01,-3.769996847455407696e-02,-7.858726142596713649e-01,7.813574890486928437e-01,-5.203165347564618903e-01,-1.003577706366214767e-01,1.728203099404297394e+00,-2.341099596054259280e+01,-1.330688987062906037e+01,-4.480518886516722254e+00,1.729919014329562021e-01,6.857875505837236069e-03
2.600000000000000228e-02,6.449551235746293631e-01,2.291761238168810166e+00,-1.554044848404469770e+00,-7.381897742175763666e-01,-6.495559944666918772e-01,1.569673225774144809e+00,1.166720372074404460e-01,-3.950688976727399077e-02,-8.448827728996515241e-01,8.389675706196596527e-01,-5.603068763593865853e-01,-1.079497546702613137e-01,1.705860714676453060e+00,-2.324663517072824348e+01,-1.319085399994606078e+01,-4.442491987444133983e+00,1.678139462494046275e-01,6.934585402685148302e-03
2.800000000000000058e-02,6.451724575801148776e-01,2.291685599992842270e+00,-1.555620570785536394e+00,-7.366230557706088256e-01,-6.505992181079032211e-01,1.569472004947660260e+00,1.248317495958202183e-01,-4.110846575757030191e-02,-9.028961273239440866e-01,8.954233378689531175e-01,-5.997788534231368596e-01,-1.154230981699571612e-01,1.683738146115516310e+00,-2.308395896231925448e+01,-1.307511303372903022e+01,-4.404522101109092702e+00,1.625111926791743822e-01,7.016521293022154673e-03
2.999999999999999889e-02,6.454063373471665699e-01,2.291606359503425505e+00,-1.557314257518088718e+00,-7.349411819697542203e-01,-6.517223933286095949e-01,1.569255606814210280e+00,1.328750248963217473e-01,-4.250469640662453419e-02,-9.599126775003676837e-01,9.507247907878966231e-01,-6.387324659523131443e-01,-1.227778011362609251e-01,1.661821536512913422e+00,-2.292278730031157963e+01,-1.295963230693531187e+01,-4.366588941346561725e+00,1.570936577484888241e-01,7.103268019802387416e-03
3.200000000000000067e-02,6.456565300016028353e-01,2.291523927391146742e+00,-1.559123914993707061e+00,-7.331464614436524752e-01,-6.529244833997305264e-01,1.569024268654862109e+00,1.408018631111161711e-01,-4.369558167870863513e-02,-1.015932423400083939e+00,1.004871929369580696e+00,-6.771677139516590893e-01,-1.300138635693273148e-01,1.640097081344254804e+00,-2.276294321257114106e+01,-1.284437756594009272e+01,-4.328672639336912376e+00,1.515711371852835609e-01,7.194418587855247287e-03
3.400000000000000244e-02,6.459228026692502844e-01,2.291438714346731409e+00,-1.561047549603862272e+00,-7.312412028209733794e-01,-6.542044515922018633e-01,1.568778227750682763e+00,1.486122642422650353e-01,-4.468112154361360278e-02,-1.070955365000228365e+00,1.057864753610253894e+00,-7.150845974261752502e-01,-1.371312854686018157e-01,1.618551070170795247e+00,-2.260425519676638828e+01,-1.272931529184593202e+01,-4.290754071573571693e+00,1.459530315136718104e-01,7.289580577831506099e-03
3.600000000000000422e-02,6.462049224759368604e-01,2.291351131060918700e+00,-1.563083167740011659e+00,-7.292277147303904972e-01,-6.555612611769615627e-01,1.568517721382738150e+00,1.563062282918177281e-01,-4.546131597174819100e-02,-1.124981502278606493e+00,1.109703263506519155e+00,-7.524831163808916035e-01,-1.441300668334478119e-01,1.597169806015221516e+00,-2.244655237960695260e+01,-1.261441205226461193e+01,-4.252814201870140032e+00,1.402486974880107484e-01,7.388363197742608100e-03
3.799999999999999906e-02,6.465026565474943920e-01,2.291261588224512646e+00,-1.565228775793565008e+00,-7.271083058005847199e-01,-6.569938754249581292e-01,1.568242986832095953e+00,1.638837552617763427e-01,-4.603616493622728761e-02,-1.178010835216112939e+00,1.160387459056533954e+00,-7.893632708209951110e-01,-1.510102076627166390e-01,1.575939809436290195e+00,-2.228966755149919265e+01,-1.249963502473246457e+01,-4.214834587278929234e+00,1.344673254142857155e-01,7.490382558168673030e-03
4.000000000000000083e-02,6.468157720097617025e-01,2.291170496528416756e+00,-1.567482380155853727e+00,-7.248852846602481526e-01,-6.585012576071572754e-01,1.567954261379824743e+00,1.713448451540707240e-01,-4.640566841432080397e-02,-1.230043363798383194e+00,1.209917340260844076e+00,-8.257250607519135421e-01,-1.577717079544737888e-01,1.554847935003748738e+00,-2.213343912819222936e+01,-1.238495232328107498e+01,-4.176797695727615611e+00,1.286178500289804072e-01,7.595265368087470575e-03
4.200000000000000261e-02,6.471440359885786142e-01,2.291078266663546970e+00,-1.569841987218204116e+00,-7.225609599380744541e-01,-6.600823709945261575e-01,1.567651782306994868e+00,1.786894979706237230e-01,-4.656982638370863598e-02,-1.281079088011525258e+00,1.258292907120230453e+00,-8.615684861790997573e-01,-1.644145677067022360e-01,1.533881075284992512e+00,-2.197770610832840532e+01,-1.227033216159628815e+01,-4.138686091499120145e+00,1.227091817348365532e-01,7.702639372365416119e-03
4.399999999999999745e-02,6.474872156097890574e-01,2.290985309320871188e+00,-1.572305603371908278e+00,-7.201376402627553963e-01,-6.617361788580456983e-01,1.567335786894680894e+00,1.859177137133262159e-01,-4.652863882438449533e-02,-1.331118007844485751e+00,1.305514159636808946e+00,-8.968935471081759259e-01,-1.709387869167482144e-01,1.513026513249883687e+00,-2.182231175327882156e+01,-1.215574356901189468e+01,-4.100483108998191462e+00,1.167501243319590543e-01,7.812137821795246684e-03
4.599999999999999922e-02,6.478450779992438457e-01,2.290892035191428810e+00,-1.574871235008213466e+00,-7.176176342629799754e-01,-6.634616444687135850e-01,1.567006512423963827e+00,1.930294923840265298e-01,-4.628210571940367946e-02,-1.380160123289966290e+00,1.351581097814461785e+00,-9.317002435449891484e-01,-1.773443655811157427e-01,1.492272048425473896e+00,-2.166710496460223112e+01,-1.204115665407826619e+01,-4.062173101608718362e+00,1.107493405702212746e-01,7.923401252281993962e-03
4.800000000000000100e-02,6.482173902827943479e-01,2.290798854966266784e+00,-1.577536888518365377e+00,-7.150032505674376315e-01,-6.652577310975301694e-01,1.566664196175926227e+00,2.000248339845696333e-01,-4.583022705210033909e-02,-1.428205434341018654e+00,1.396493721657231291e+00,-9.659885754954083970e-01,-1.836313036962247958e-01,1.471605534565554985e+00,-2.151193519587242875e+01,-1.192654163385924626e+01,-4.023740524396288265e+00,1.047154817017578177e-01,8.036070846297106371e-03
5.000000000000000278e-02,6.486039195862954854e-01,2.290706179336474246e+00,-1.580300570293586615e+00,-7.122967978048054816e-01,-6.671234020155097921e-01,1.566309075431658204e+00,2.069037385167811216e-01,-4.517300280783528854e-02,-1.475253940993394020e+00,1.440252031170322189e+00,-9.997585429654837208e-01,-1.897996012577233826e-01,1.451015379877151679e+00,-2.135665676898629428e+01,-1.181186974240343623e+01,-3.985170769719585948e+00,9.865714548605289402e-02,8.149792108833509366e-03
5.200000000000000455e-02,6.490044330356093960e-01,2.290614418993191848e+00,-1.583160286725084021e+00,-7.095005846037505393e-01,-6.690576204936856675e-01,1.565941387472262081e+00,2.136662059824650794e-01,-4.431043297428378241e-02,-1.521305643245930428e+00,1.482856026360270141e+00,-1.033010145961476445e+00,-1.958492582603783838e-01,1.430490625714102126e+00,-2.120112956512517499e+01,-1.169711337508494964e+01,-3.946450300260461841e+00,9.258286859772624222e-02,8.264215480901308461e-03
5.399999999999999939e-02,6.494186977565975516e-01,2.290523984627565124e+00,-1.586114044204058882e+00,-7.066169195929368207e-01,-6.710593498030918980e-01,1.565561369578841289e+00,2.203122363834238984e-01,-4.324251753932706333e-02,-1.566360541097750581e+00,1.524305707233726048e+00,-1.065743384489666212e+00,-2.017802746988675844e-01,1.410020379435298565e+00,-2.104521401240065615e+01,-1.158224504452909365e+01,-3.907565685663130228e+00,8.650118398732246916e-02,8.378991824175922518e-03
5.600000000000000117e-02,6.498464808751276411e-01,2.290435286930773362e+00,-1.589159849121712265e+00,-7.036481114010109117e-01,-6.731275532147815710e-01,1.565169259032513471e+00,2.268418297214533086e-01,-4.196925649263304886e-02,-1.610418634550602635e+00,1.564601073798339792e+00,-1.097958258556528399e+00,-2.075926505669531130e-01,1.389594453771923810e+00,-2.088877600047157657e+01,-1.146723847154335374e+01,-3.868504584378105626e+00,8.042061587465351713e-02,8.493775392367279575e-03
5.800000000000000294e-02,6.502875495170713505e-01,2.290348736594030488e+00,-1.592295707869241905e+00,-7.005964686565996358e-01,-6.752611939998236501e-01,1.564765293114411371e+00,2.332549859983421292e-01,-4.049064982563177484e-02,-1.653479923608822455e+00,1.603742126062744244e+00,-1.129654768168729229e+00,-2.132863858574939597e-01,1.369203357128797149e+00,-2.073168680544942433e+01,-1.135206856850525448e+01,-3.829255728691456806e+00,7.434967986884347124e-02,8.608223784580378013e-03
5.999999999999999778e-02,6.507416708083013646e-01,2.290264744308551759e+00,-1.595519626837844429e+00,-6.974642999883282624e-01,-6.774592354292904295e-01,1.564349709105670172e+00,2.395517052158789850e-01,-3.880669752991906113e-02,-1.695544408277004367e+00,1.641728864035660207e+00,-1.160832913332955352e+00,-2.188614805632496663e-01,1.348837675106982825e+00,-2.057381827621439996e+01,-1.123671037724011690e+01,-3.789807965969297587e+00,6.829689255251729374e-02,8.721994903519769693e-03
6.199999999999999956e-02,6.512086118746959196e-01,2.290183720765580411e+00,-1.598829612418732449e+00,-6.942539140247958596e-01,-6.797206407742737433e-01,1.563922744287445710e+00,2.457319873758572748e-01,-3.691739959868498705e-02,-1.736612088562346612e+00,1.678561287726632933e+00,-1.191492694056095925e+00,-2.243179346759121007e-01,1.328488828514113873e+00,-2.041504829167152479e+01,-1.112114032152760501e+01,-3.750151361363721847e+00,6.227079394792168349e-02,8.834749484122092489e-03
6.400000000000000133e-02,6.516881398421374705e-01,2.290106076656380996e+00,-1.602223671003128791e+00,-6.909676193945781808e-01,-6.820443733058829672e-01,1.563484635940913803e+00,2.517958324800738668e-01,-3.482275602647754570e-02,-1.776682964474263215e+00,1.714239397145904231e+00,-1.221634110345212632e+00,-2.296557481862636918e-01,1.308148949528368910e+00,-2.025525986667927114e+01,-1.100533600219942798e+01,-3.710277017251756515e+00,5.627994404153389973e-02,8.946150673621196953e-03
6.600000000000000311e-02,6.521800218365094715e-01,2.290032222672218509e+00,-1.605699808982259613e+00,-6.876077247262486480e-01,-6.844293962952299193e-01,1.563035621347251825e+00,2.577432405303270446e-01,-3.252276680799112002e-02,-1.815757036022425996e+00,1.748763192303785630e+00,-1.251257162207388918e+00,-2.348749210849699065e-01,1.287810260177167709e+00,-2.009433664973100520e+01,-1.088927516738017687e+01,-3.670176163548633408e+00,5.033290633400066411e-02,9.055861890778865719e-03
6.800000000000000488e-02,6.526840249837011498e-01,2.289962569504379264e+00,-1.609256032747379939e+00,-6.841765386483472655e-01,-6.868746730134488443e-01,1.562575937787668234e+00,2.635742115284300802e-01,-3.001743193935864709e-02,-1.853834303219124680e+00,1.782132673211198837e+00,-1.280361849649913397e+00,-2.399754533614693042e-01,1.267465919987049272e+00,-1.993216884754016149e+01,-1.077293709721301163e+01,-3.629841348666155376e+00,4.443828450078282644e-02,9.163549270354754209e-03
7.000000000000000666e-02,6.531999164096057298e-01,2.289897527844158009e+00,-1.612890348689770104e+00,-6.806763697893895015e-01,-6.893791667316906402e-01,1.562105822543392586e+00,2.692887454762071808e-01,-2.730675141777027387e-02,-1.890914766078571008e+00,1.814347839879515645e+00,-1.308948172680226563e+00,-2.449573450042985545e-01,1.247109777467308112e+00,-1.976865148655861759e+01,-1.065630219774546106e+01,-3.589266089999860299e+00,3.860471174244003989e-02,9.268880943137828426e-03
7.200000000000000844e-02,6.537274632401168795e-01,2.289837508382852160e+00,-1.616600763200711999e+00,-6.771095267778870497e-01,-6.919418407211092026e-01,1.561625512895657764e+00,2.748868423754851631e-01,-2.439072524055671196e-02,-1.926998424615254502e+00,1.845408692320149813e+00,-1.337016131305791111e+00,-2.498205960018506644e-01,1.226735785857733241e+00,-1.960368032515264503e+01,-1.053935104691234592e+01,-3.548444049677276890e+00,3.284082539389752975e-02,9.371525359627711632e-03
7.399999999999999634e-02,6.542664326011355946e-01,2.289782921811770677e+00,-1.620385282671539029e+00,-6.734783182423130787e-01,-6.945616582528839622e-01,1.561135246125737730e+00,2.803685022281158234e-01,-2.126935340636446764e-02,-1.962085278846312120e+00,1.875315230544861711e+00,-1.364565725534272911e+00,-2.545652063411261157e-01,1.206338904607551443e+00,-1.943715815239062294e+01,-1.042206587535203965e+01,-3.507370275939688753e+00,2.715530190176764988e-02,9.471154070076247614e-03
7.599999999999999811e-02,6.548165916185650914e-01,2.289734178822225630e+00,-1.624241913493613243e+00,-6.697850528111159996e-01,-6.972375825982096709e-01,1.560635259514929096e+00,2.857337250359668901e-01,-1.794263591467290878e-02,-1.996175328790554149e+00,1.904067454565631312e+00,-1.391596955373467726e+00,-2.591911760082433736e-01,1.185914730166963915e+00,-1.926899220826726378e+01,-1.030442995997989364e+01,-3.466040694535364786e+00,2.155684247309713059e-02,9.567440587095318513e-03
7.799999999999999989e-02,6.553777074183109175e-01,2.289691690105530864e+00,-1.628168662058305349e+00,-6.660320391127392270e-01,-6.999685770282849662e-01,1.560125790344535579e+00,2.909825108009098105e-01,-1.441057276510595772e-02,-2.029268574467104624e+00,1.931665364394443030e+00,-1.418109820831192636e+00,-2.636985049891391042e-01,1.165458980359355134e+00,-1.909909060121204405e+01,-1.018642678103748445e+01,-3.424451397265630526e+00,1.605415073209017982e-02,9.660058884823507011e-03
8.000000000000000167e-02,6.559495471262845046e-01,2.289655866353001556e+00,-1.632163534757052448e+00,-6.622215857755839874e-01,-7.027536048143356862e-01,1.559607075895909079e+00,2.961148595248505044e-01,-1.067316395851016300e-02,-2.061365015897750563e+00,1.958108960043285496e+00,-1.444104321915458788e+00,-2.680871932681855863e-01,1.144968409482575611e+00,-1.892736887146611480e+01,-1.006804155815613200e+01,-3.382599893066542407e+00,1.065594916438387420e-02,9.748686946431718917e-03
8.200000000000000344e-02,6.565318778684008372e-01,2.289627118255953775e+00,-1.636224537981328719e+00,-6.583560014280276373e-01,-7.055916292276027679e-01,1.559079353450429251e+00,3.011307712097133771e-01,-6.730409496397211228e-03,-2.092464653105728711e+00,1.983398241524149563e+00,-1.469580458634381026e+00,-2.723572408289040570e-01,1.124440335697788118e+00,-1.875374660232818869e+01,-9.949260457230758803e+00,-3.340484461824441809e+00,5.370970516620599683e-03,9.833004936086449030e-03
8.400000000000000522e-02,6.571244667705760101e-01,2.289605856505704029e+00,-1.640349678122619004e+00,-6.544375946984420933e-01,-7.084816135393318115e-01,1.558542860289483301e+00,3.060302458574286621e-01,-2.582309380435184737e-03,-2.122567486114631308e+00,2.007533208848970574e+00,-1.494538230996097949e+00,-2.765086476545818850e-01,1.103872215365499843e+00,-1.857814441951228801e+01,-9.830069884977890027e+00,-3.298103573456636184e+00,2.079449292921295759e-04,9.912693743142554637e-03
8.600000000000000699e-02,6.577270809587332234e-01,2.289592491793560836e+00,-1.644536961572493405e+00,-6.504686742151548628e-01,-7.114225210207973937e-01,1.557997833694519496e+00,3.108132834699692260e-01,1.771136386550234507e-03,-2.151673514950685817e+00,2.030513862029255101e+00,-1.518977639008918468e+00,-2.805414137267646657e-01,1.083262529696664256e+00,-1.840049069526023828e+01,-9.710458036792372738e+00,-3.255457107440215214e+00,-4.824418399576958782e-03,9.987439694919218389e-03
8.799999999999999489e-02,6.583394875587991191e-01,2.289587434810832711e+00,-1.648784394722564439e+00,-6.464515486064731364e-01,-7.144133149432886354e-01,1.557444510947014749e+00,3.154798840493281964e-01,6.329927801193827377e-03,-2.179782739641349831e+00,2.052340201076307658e+00,-1.542898682681234312e+00,-2.844555390261869765e-01,1.062610237528508694e+00,-1.822071741204328532e+01,-9.590413941673375575e+00,-3.212545600170347626e+00,-9.717420032091040813e-03,1.005693165307090450e-02
8.999999999999999667e-02,6.589614536967014491e-01,2.289591096248825064e+00,-1.653089983964458165e+00,-6.423885265006972212e-01,-7.174529585780997643e-01,1.556883129328457516e+00,3.200300475975065284e-01,1.109406485995433067e-02,-2.206895160214477070e+00,2.073012226001284652e+00,-1.566301362021458088e+00,-2.882510235332808590e-01,1.041914450338034648e+00,-1.803875780376204929e+01,-9.469926911446378881e+00,-3.169369802525247692e+00,-1.446237288283955431e-02,1.012085962962003954e-02
9.199999999999999845e-02,6.595927464983751820e-01,2.289603886798829979e+00,-1.657451735689905892e+00,-6.382819165260843475e-01,-7.205404151965562054e-01,1.556313926120407976e+00,3.244637741165556921e-01,1.606354755817093055e-02,-2.233010776700438349e+00,2.092529936814380154e+00,-1.589185677038140510e+00,-2.919278672265549490e-01,1.021175249288790887e+00,-1.785455306543261500e+01,-9.348988056529700330e+00,-3.125931828461036677e+00,-1.905066938481167829e-02,1.017892098318127700e-02
9.400000000000000022e-02,6.602331330897590611e-01,2.289626217152135546e+00,-1.661867656290680895e+00,-6.341340273108754255e-01,-7.236746480699967066e-01,1.555737138604456726e+00,3.287810636085470306e-01,2.123837589073755000e-02,-2.258129589130609460e+00,2.110893333525405868e+00,-1.611551627739889803e+00,-2.954860700837529386e-01,1.000393101273526764e+00,-1.766804755890338896e+01,-9.227589202799437729e+00,-3.082234334149209776e+00,-2.347373360242312190e-02,1.023081599475193955e-02
9.600000000000000200e-02,6.608823805967921627e-01,2.289658498000025411e+00,-1.666335752158577321e+00,-6.299471674833033719e-01,-7.268546204697655666e-01,1.555153004062209465e+00,3.329819160755629337e-01,2.661854985234329840e-02,-2.282251597536783194e+00,2.128102416143883069e+00,-1.633399214135331068e+00,-2.989256320822283319e-01,9.795686344601044482e-01,-1.747918713740944696e+01,-9.105722503301022286e+00,-3.038280212440958028e+00,-2.772301817234713861e-02,1.027624672984409245e-02
9.800000000000000377e-02,6.615402561454225561e-01,2.289701140033763682e+00,-1.670854029685512110e+00,-6.257236456715635775e-01,-7.300792956672408351e-01,1.554561759775358043e+00,3.370663315197425791e-01,3.220406943657004584e-02,-2.305376801953019417e+00,2.144157184677756067e+00,-1.654728436233184219e+00,-3.022465531972251540e-01,9.587033484269481542e-01,-1.728792571809485423e+01,-8.983381879791904723e+00,-2.994073635360158470e+00,-3.179013062501980652e-02,1.031492491487664281e-02
1.000000000000000056e-01,6.622065268616005307e-01,2.289754553944606918e+00,-1.675420495263442389e+00,-6.214657705038389990e-01,-7.333476369338115530e-01,1.553963643025624064e+00,3.410343099432447955e-01,3.799493463662520498e-02,-2.327505202414143159e+00,2.159057639134438045e+00,-1.675539294042203586e+00,-3.054488334032742225e-01,9.377990374635587489e-01,-1.709421994531791356e+01,-8.860561852207990086e+00,-2.949619207546924304e+00,-3.566673087595199909e-02,1.034656554358744790e-02
1.020000000000000073e-01,6.628809598712788187e-01,2.289819150423809457e+00,-1.680033155284356150e+00,-6.171758506083057094e-01,-7.366586075408745327e-01,1.553358891094751115e+00,3.448858513482422894e-01,4.399114544547173822e-02,-2.348636798955382243e+00,2.172803779520854128e+00,-1.695831787571150828e+00,-3.085324726744048118e-01,9.168576558655450182e-01,-1.689802821999881033e+01,-8.737257311688754413e+00,-2.904921787167556779e+00,-3.934453206530422881e-02,1.037088628866893875e-02
1.040000000000000091e-01,6.635633223004178127e-01,2.289895340162593662e+00,-1.684690016140375279e+00,-6.128561946131108051e-01,-7.400111707598603372e-01,1.552747741264580261e+00,3.486209557369703282e-01,5.019270185495276759e-02,-2.368771591613790140e+00,2.185395605841689015e+00,-1.715605916828826683e+00,-3.114974709823473131e-01,8.958818906817286321e-01,-1.669931698912821361e+01,-8.613464849621893293e+00,-2.859987393544057177e+00,-4.281549124235892873e-02,1.038761709720268690e-02
1.059999999999999970e-01,6.642533812749806810e-01,2.289983533852177899e+00,-1.689389084223663406e+00,-6.085091111463937219e-01,-7.434042898622096329e-01,1.552130430816984097e+00,3.522396231116826093e-01,5.659960385659056070e-02,-2.387909580426948786e+00,2.196833118100989246e+00,-1.734861681824043433e+00,-3.143438282981744214e-01,8.748746388968647869e-01,-1.649805500491998700e+01,-8.489181544521283485e+00,-2.814822378672963143e+00,-4.607163533712026887e-02,1.039649143292027504e-02
1.079999999999999988e-01,6.649509039209328121e-01,2.290084142183771210e+00,-1.694128365926421020e+00,-6.041369088362887885e-01,-7.468369281193723008e-01,1.551507197033861862e+00,3.557418534746499272e-01,6.321185144160926250e-02,-2.406050765432745209e+00,2.207116316302054404e+00,-1.753599082565606038e+00,-3.170715445923162346e-01,8.538389417508056578e-01,-1.629421305927014529e+01,-8.364404886864353017e+00,-2.769433356308810268e+00,-4.910507962540153204e-02,1.039724664445368374e-02
1.100000000000000006e-01,6.656556573642489205e-01,2.290197575848549771e+00,-1.698905867640996492e+00,-5.997418963109154566e-01,-7.503080488028326389e-01,1.550878277197229371e+00,3.591276468282106338e-01,7.002944460007731742e-02,-2.423195146670253486e+00,2.216245200445299268e+00,-1.771818119062292141e+00,-3.196806198327150628e-01,8.327783993541608698e-01,-1.608776984639042951e+01,-8.239133963187045495e+00,-2.723827954320180211e+00,-5.190828166970115620e-02,1.038963513193701810e-02
1.120000000000000023e-01,6.663674087309047200e-01,2.290324245537679992e+00,-1.703719595759772387e+00,-5.953263821983884041e-01,-7.538166151840824947e-01,1.550243908589126196e+00,3.623970031747192344e-01,7.705238332178319938e-02,-2.439342724178831023e+00,2.224219770530434293e+00,-1.789518791322869840e+00,-3.221710539867103651e-01,8.116967471827080116e-01,-1.587870597472092982e+01,-8.113368246642684412e+00,-2.678014046220884570e+00,-5.447378195535923506e-02,1.037341294177272603e-02
1.140000000000000041e-01,6.670859251468801432e-01,2.290464561942318067e+00,-1.708567556675181009e+00,-5.908926751268234190e-01,-7.573615905346257060e-01,1.549604328491634098e+00,3.655499225165518284e-01,8.428066759614542824e-02,-2.454493497997944029e+00,2.231040026556120104e+00,-1.806701099356077256e+00,-3.245428470208246985e-01,7.905978298080884592e-01,-1.566700438257009864e+01,-7.987107656292388391e+00,-2.631999763426923877e+00,-5.679425675121090727e-02,1.034834156467738867e-02
1.160000000000000059e-01,6.678109737381633382e-01,2.290618935753579777e+00,-1.713447756779805653e+00,-5.864430837243370664e-01,-7.609419381259989734e-01,1.548959774186960292e+00,3.685864048561549589e-01,9.171429741136971625e-02,-2.468647468167397108e+00,2.236705968517560095e+00,-1.823365043170545263e+00,-3.267959988989031506e-01,7.694858493042447956e-01,-1.545265564312152584e+01,-7.860353572417294821e+00,-2.585794082488313883e+00,-5.886282728257794666e-02,1.031420033214331018e-02
1.180000000000000077e-01,6.685423216307444516e-01,2.290787777662572022e+00,-1.718358202466261364e+00,-5.819799166190461337e-01,-7.645566212297466580e-01,1.548310482957338863e+00,3.715064501959893239e-01,9.935327275541311343e-02,-2.481804634727064141e+00,2.241217596409250223e+00,-1.839510622774883197e+00,-3.289305095842419147e-01,7.483650809271743531e-01,-1.523565189448594381e+01,-7.733107674765493655e+00,-2.539406153116404052e+00,-6.067270603663593026e-02,1.027077223418164029e-02
1.199999999999999956e-01,6.692797359506172938e-01,2.290971498360385272e+00,-1.723296900127219589e+00,-5.775054824390749575e-01,-7.682046031174247780e-01,1.547656692085053631e+00,3.743100585385417678e-01,1.071975936157684994e-01,-2.493964997716590304e+00,2.244574910224296893e+00,-1.855137838177631560e+00,-3.309463790391058979e-01,7.272398497377873250e-01,-1.501598788580742116e+01,-7.605372111983185412e+00,-2.492845363571501771e+00,-6.221730222369093594e-02,1.021784763605283405e-02
1.219999999999999973e-01,6.700229838237847790e-01,2.291170508538064254e+00,-1.728261856155503429e+00,-5.730220898125691908e-01,-7.718848470606224366e-01,1.546998638852530528e+00,3.769972298863710214e-01,1.152472599786388829e-01,-2.505128557174979953e+00,2.246777909951933161e+00,-1.870246689387140115e+00,-3.328436072228933562e-01,7.061146192338194627e-01,-1.479366562381075667e+01,-7.477150336057258428e+00,-2.446121765180251373e+00,-6.349057186208253989e-02,1.015523740312608732e-02
1.239999999999999991e-01,6.707718323762521528e-01,2.291385218886646147e+00,-1.733251076943964630e+00,-5.685320473676781505e-01,-7.755963163309348429e-01,1.546336560542220129e+00,3.795679642420486943e-01,1.235022718300026745e-01,-2.515295313141126421e+00,2.247826595580722842e+00,-1.884837176411727100e+00,-3.346221940945038886e-01,6.849938766408560920e-01,-1.456868837626359259e+01,-7.348446025304051332e+00,-2.399245524265439133e+00,-6.448656617826448167e-02,1.008275596836276551e-02
1.260000000000000009e-01,6.715260487340282136e-01,2.291616040097145035e+00,-1.738262568885514670e+00,-5.640376637325694720e-01,-7.793379741999700849e-01,1.545670694436637627e+00,3.820222616081767053e-01,1.319626291552526143e-01,-2.524465265653232482e+00,2.247720967097500466e+00,-1.898909299259591066e+00,-3.362821396115451833e-01,6.638820720327991420e-01,-1.434106227909710718e+01,-7.219263335710595975e+00,-2.352227008623996252e+00,-6.519960805545844951e-02,1.000022744023710067e-02
1.280000000000000027e-01,6.722854000231314187e-01,2.291863382860522602e+00,-1.743294338373211794e+00,-5.595412475354530901e-01,-7.831087839393673367e-01,1.545001277818452534e+00,3.843601219874290820e-01,1.406283319383954122e-01,-2.532638414747872879e+00,2.246461024485013613e+00,-1.912463057938652788e+00,-3.378234437285683178e-01,6.427835675560671369e-01,-1.411080025637098245e+01,-7.089607553774802007e+00,-2.305077062884932193e+00,-6.562466331129382380e-02,9.907498826414078488e-03
1.300000000000000044e-01,6.730496533695816685e-01,2.292127657867731649e+00,-1.748344391800135567e+00,-5.550451074045459343e-01,-7.869077088207706572e-01,1.544328547970357013e+00,3.865815453824906767e-01,1.494993801632318875e-01,-2.539814760461377663e+00,2.244046767725404123e+00,-1.925498452456791743e+00,-3.392461063996705106e-01,6.217027115455736608e-01,-1.387791623600307389e+01,-6.959484132865022765e+00,-2.257806601688106429e+00,-6.575679332510445119e-02,9.804420534517880800e-03
1.320000000000000062e-01,6.738185758994035268e-01,2.292409275809697000e+00,-1.753410735559431277e+00,-5.505515519680966863e-01,-7.907337121158379833e-01,1.543652742175126047e+00,3.886865317960816468e-01,1.585757738128218131e-01,-2.545994302828861855e+00,2.240478196798787458e+00,-1.938015482821705104e+00,-3.405501275773429315e-01,6.006436984773224630e-01,-1.364242723355661191e+01,-6.828898996282858569e+00,-2.210426685411888137e+00,-6.559141977556157133e-02,9.690855293315626950e-03
1.340000000000000080e-01,6.745919347386321041e-01,2.292708647377285303e+00,-1.758491376044376775e+00,-5.460628898544194199e-01,-7.945857570962564509e-01,1.542974097715702264e+00,3.906750812309935372e-01,1.678575128687258833e-01,-2.551177041882989105e+00,2.235755311681181468e+00,-1.950014149040728562e+00,-3.417355072108283487e-01,5.796104115733425877e-01,-1.340435651084935742e+01,-6.697859017996923292e+00,-2.162948669261200330e+00,-6.512469322081479439e-02,9.566690757038609841e-03
1.360000000000000098e-01,6.753694970133027331e-01,2.293026183261353879e+00,-1.763584319648264787e+00,-5.415814296918358695e-01,-7.984628070337160821e-01,1.542292851875047610e+00,3.925471936900264414e-01,1.773445973123124186e-01,-2.555362977656103318e+00,2.229878112348079089e+00,-1.961494451121146954e+00,-3.428022452489532523e-01,5.586066928757700278e-01,-1.316372812267235837e+01,-6.566371192046467797e+00,-2.115383944882777367e+00,-6.435285773122859099e-02,9.431817771527455097e-03
1.380000000000000115e-01,6.761510298494567417e-01,2.293362294152724079e+00,-1.768687572764455318e+00,-5.371094801087179516e-01,-8.023638251999222204e-01,1.541609241936229502e+00,3.943028691760206983e-01,1.870370271240118232e-01,-2.558552110178859973e+00,2.222846598772709736e+00,-1.972456389069989990e+00,-3.437503416385599975e-01,5.376360837066750387e-01,-1.292056938163746693e+01,-6.434442956939482983e+00,-2.067743975698347558e+00,-6.327261892342708749e-02,9.286142448982362407e-03
1.400000000000000133e-01,6.769363003731458939e-01,2.293717390742151085e+00,-1.773799141786421396e+00,-5.326493497335227367e-01,-8.062877748666056332e-01,1.540923505182493214e+00,3.959421076918853144e-01,1.969348022826267752e-01,-2.560744439478977785e+00,2.214660770924367306e+00,-1.982899962893841961e+00,-3.445797963230484151e-01,5.167016035806099028e-01,-1.267491325330611573e+01,-6.302082522423230415e+00,-2.020040349673145830e+00,-6.188148328612530502e-02,9.129597391692088199e-03
1.420000000000000151e-01,6.777250757104221757e-01,2.294091883720383418e+00,-1.778917033107647372e+00,-5.282033471947170655e-01,-8.102336193054996416e-01,1.540235878897103783e+00,3.974649092405370676e-01,2.070379227667755728e-01,-2.561939965583845957e+00,2.205320628771910041e+00,-1.992825172599234529e+00,-3.452906092454295361e-01,4.958062111499815239e-01,-1.242679332961979455e+01,-6.169298182625411187e+00,-1.972284666863581615e+00,-6.017704781879997661e-02,8.962118186086982449e-03
1.440000000000000169e-01,6.785171229873443455e-01,2.294486183778120747e+00,-1.784039253121679103e+00,-5.237737811208375005e-01,-8.142003217883518884e-01,1.539546600363454365e+00,3.988712738249362566e-01,2.173463885538909901e-01,-2.562138688518884155e+00,2.194826172281749255e+00,-2.002232018192355856e+00,-3.458827803462762307e-01,4.749523887601220795e-01,-1.217624657219629647e+01,-6.036098632886658599e+00,-1.924488508746838411e+00,-5.815748301584808960e-02,8.783658864126931212e-03
1.459999999999999909e-01,6.793122093299812647e-01,2.294900701605993021e+00,-1.789163808222155483e+00,-5.193629601405245211e-01,-8.181868455869326651e-01,1.538855906865128187e+00,4.001612014481092383e-01,2.278601996196358559e-01,-2.561340608306573507e+00,2.183177401416651175e+00,-2.011120499678876516e+00,-3.463563095625221133e-01,4.541419078160461309e-01,-1.192331497226324899e+01,-5.902493167401713592e+00,-1.876663429068572642e+00,-5.582181537545553851e-02,8.594200989738759455e-03
1.479999999999999927e-01,6.801101018644024609e-01,2.295335847894620862e+00,-1.794288704802721846e+00,-5.149731928824291538e-01,-8.221921539730141504e-01,1.538164035685727349e+00,4.013346921130886424e-01,2.385793559394894237e-01,-2.559545724969102043e+00,2.170374316139013882e+00,-2.019490617064415350e+00,-3.467111968307252656e-01,4.333764638545525294e-01,-1.166804102166928381e+01,-5.768491138247323846e+00,-1.828820976099836182e+00,-5.316915953846334392e-02,8.393728947904645007e-03
1.499999999999999944e-01,6.809105677166847892e-01,2.295792033334567162e+00,-1.799411949257080146e+00,-5.106067879752949068e-01,-8.262152102183819569e-01,1.537471224109010048e+00,4.023917458229543942e-01,2.495038574874355042e-01,-2.556754038526757533e+00,2.156416916408660622e+00,-2.027342370354145995e+00,-3.469474420844605445e-01,4.126570750925128706e-01,-1.141047062969786374e+01,-5.634102238765046344e+00,-1.780972575977804784e+00,-5.019932366673248575e-02,8.182248900271475028e-03
1.519999999999999962e-01,6.817133740129152075e-01,2.296269668616315318e+00,-1.804531547979002504e+00,-5.062660540479836380e-01,-8.302549775948397937e-01,1.536777709418934990e+00,4.033323625808475921e-01,2.606337042355341138e-01,-2.552965548997379042e+00,2.141305202182097744e+00,-2.034675759552675878e+00,-3.470650452534643771e-01,3.919838882484502074e-01,-1.115065410279941638e+01,-5.499336601397216917e+00,-1.733129497691653809e+00,-4.691300826619702186e-02,7.959795028224731991e-03
1.539999999999999980e-01,6.825182878791806740e-01,2.296769164430341625e+00,-1.809645507362266370e+00,-5.019532997293694176e-01,-8.343104193741928132e-01,1.536083728899480194e+00,4.041565423899151077e-01,2.719688961556513962e-01,-2.548180256398594246e+00,2.125039173415518512e+00,-2.041490784664552027e+00,-3.470640062670906634e-01,3.713569605419226316e-01,-1.088864215845874917e+01,-5.364204397039912031e+00,-1.685302991505803982e+00,-4.331100184927720587e-02,7.726404257576658004e-03
1.559999999999999998e-01,6.833250764415775835e-01,2.297290931467046882e+00,-1.814751833800696934e+00,-4.976708336484428896e-01,-8.383804988282589354e-01,1.535389519834812422e+00,4.048642852533539949e-01,2.835094332177732768e-01,-2.542398160746640379e+00,2.107618830062414794e+00,-2.047787445693779684e+00,-3.469443250510557131e-01,3.507754505356186492e-01,-1.062448891317360733e+01,-5.228716063421814830e+00,-1.637504073208277955e+00,-3.939491133142998536e-02,7.482138680297005517e-03
1.580000000000000016e-01,6.841335068262108798e-01,2.297835380416751505e+00,-1.819848533688171788e+00,-4.934209644343243717e-01,-8.424641792288684039e-01,1.534695319509307154e+00,4.054555911744168739e-01,2.952553153897971572e-01,-2.535619262056203915e+00,2.089044172073280414e+00,-2.053565742643759684e+00,-3.467060015270360673e-01,3.302375186645204463e-01,-1.035825225868576283e+01,-5.092882334639464048e+00,-1.589743498156892532e+00,-3.516725261882153869e-02,7.227088340113189784e-03
1.600000000000000033e-01,6.849433461591871719e-01,2.298402921969763479e+00,-1.824933613418572964e+00,-4.892060007161477264e-01,-8.465604238478536825e-01,1.534001365207361633e+00,4.059304601563619164e-01,3.072065426394012810e-01,-2.527843560341873186e+00,2.069315199398318761e+00,-2.058825675517831133e+00,-3.463490356162904349e-01,3.097412202597396580e-01,-1.008999043881747859e+01,-4.956713968721248698e+00,-1.542031991739948094e+00,-3.063063322293591018e-02,6.961346072895538764e-03
1.620000000000000051e-01,6.857543615666213954e-01,2.298993966816299750e+00,-1.830005079385825351e+00,-4.850282511231900351e-01,-8.506681959570570051e-01,1.533307894213600253e+00,4.062888922024987526e-01,3.193631149319063889e-01,-2.519071055617804422e+00,2.048431911984870180e+00,-2.063567244318690097e+00,-3.458734272356535633e-01,2.892834770627161212e-01,-9.819765013699695899e+00,-4.820221904815070957e+00,-1.494379929170208010e+00,-2.578860513998449538e-02,6.685033228873314345e-03
1.640000000000000069e-01,6.865663201746388111e-01,2.299608925646489332e+00,-1.835060937983893581e+00,-4.808900242848650475e-01,-8.547864588283293763e-01,1.532615143812862346e+00,4.065308873161870840e-01,3.317250322303713639e-01,-2.509301747897743518e+00,2.026394309777529656e+00,-2.067790449048419354e+00,-3.452791762977165946e-01,2.688601233477028174e-01,-9.547640724841011561e+00,-4.683417255819119163e+00,-1.446797349732527271e+00,-2.064562642255463737e-02,6.398298512467936322e-03
1.660000000000000087e-01,6.873789891093646798e-01,2.300248209150447476e+00,-1.840099195606745619e+00,-4.767936288306024450e-01,-8.589141757335221339e-01,1.531923351290013224e+00,4.066564455007912748e-01,3.442922944975879695e-01,-2.498535637195471892e+00,2.003202392720595526e+00,-2.071495289709027965e+00,-3.445662827145784535e-01,2.484668675476634780e-01,-9.273682631492597750e+00,-4.546311146895689603e+00,-1.399294251534377587e+00,-1.520625537830992691e-02,6.101293623940143296e-03
1.680000000000000104e-01,6.881921354969344762e-01,2.300912228018178407e+00,-1.845117858648392950e+00,-4.727413733900028836e-01,-8.630503099444940540e-01,1.531232753930187762e+00,4.066655667597278700e-01,3.570649016933995501e-01,-2.486772723525693785e+00,1.978856160755250615e+00,-2.074681766301799346e+00,-3.437347463929671942e-01,2.280980440657928709e-01,-8.997958968201231755e+00,-4.408914791365631913e+00,-1.351880169636834328e+00,-9.476118177852713848e-03,5.794201985087194667e-03
1.700000000000000122e-01,6.890055264634932231e-01,2.301601392939591761e+00,-1.850114933502882142e+00,-4.687355665928087944e-01,-8.671938247331087979e-01,1.530543589018744211e+00,4.065582510964568796e-01,3.700428537752073477e-01,-2.474013006903878598e+00,1.953355613820098480e+00,-2.077349878827410734e+00,-3.427845672351610418e-01,2.077468490857606598e-01,-8.720540599866811959e+00,-4.271239475578623157e+00,-1.304564255522345562e+00,-3.461725588665867052e-03,5.477233295209982950e-03
1.720000000000000140e-01,6.898189291351860541e-01,2.302316114604583408e+00,-1.855088426564263759e+00,-4.647785170687812051e-01,-8.713436833712298046e-01,1.529856093841071241e+00,4.063344985144429766e-01,3.832261507000644940e-01,-2.460256487345707566e+00,1.926700751853404059e+00,-2.079499627286460317e+00,-3.417157451428183279e-01,1.874063243399371748e-01,-8.441498693379523743e+00,-4.133296487535028874e+00,-1.257355606863285846e+00,2.830296607660351231e-03,5.150600633251002820e-03
1.740000000000000158e-01,6.906321106381700936e-01,2.303056803702908439e+00,-1.860036344226638549e+00,-4.608725334478819824e-01,-8.754988491307231779e-01,1.529170505682875714e+00,4.059943090172013491e-01,3.966147924213453968e-01,-2.445503164869419876e+00,1.898891574789923764e+00,-2.081131011678746923e+00,-3.405282800110807639e-01,1.670679006898366237e-01,-8.160907401513499693e+00,-3.995097107831419248e+00,-1.210262754865537138e+00,9.392138043874637826e-03,4.814551771832223381e-03
1.759999999999999898e-01,6.914448380986100151e-01,2.303823870924226025e+00,-1.864956692884145228e+00,-4.570199243602166561e-01,-8.796582852834562427e-01,1.528487061830094529e+00,4.055376826082839337e-01,4.102087788897956777e-01,-2.429753039495087030e+00,1.869928082561911564e+00,-2.082244032003498280e+00,-3.392221717304341744e-01,1.467218578898631387e-01,-7.878843010716238382e+00,-3.856652611773730754e+00,-1.163293825945483251e+00,1.621514186340469038e-02,4.469359275222311093e-03
1.779999999999999916e-01,6.922568786426722687e-01,2.304617726958174462e+00,-1.869847478930928064e+00,-4.532229984359146813e-01,-8.838209551012966569e-01,1.527805999568702999e+00,4.049646192912473297e-01,4.240081100556847837e-01,-2.413006111243217955e+00,1.839810275101191106e+00,-2.082838688259852411e+00,-3.377974201905388774e-01,1.263582826467457565e-01,-7.595382106732667005e+00,-3.717974265338912065e+00,-1.116456877840330986e+00,2.329051457326598157e-02,4.115299667454534564e-03
1.799999999999999933e-01,6.930679993965351837e-01,2.305438782494225070e+00,-1.874706708761200824e+00,-4.494840643053386042e-01,-8.879858218561086369e-01,1.527127556185052581e+00,4.042751190696955987e-01,4.380127858646996608e-01,-2.395262380138705627e+00,1.808538152335504634e+00,-2.082914980446104014e+00,-3.362540252731510138e-01,1.059654273009253134e-01,-7.310604036916743098e+00,-3.579073233980887281e+00,-1.069759314571566700e+00,3.060817183445389833e-02,3.752686820288197046e-03
1.819999999999999951e-01,6.938779674863845282e-01,2.306287448221742142e+00,-1.879532388769219242e+00,-4.458054305989935795e-01,-8.921518488197551777e-01,1.526451968965725436e+00,4.034691819472617791e-01,4.522228062597080100e-01,-2.376521846209135091e+00,1.776111714190082846e+00,-2.082472908560030422e+00,-3.345919868551628373e-01,8.553041548555675999e-02,-7.024589847873127901e+00,-3.439960621300561794e+00,-1.023208137921654881e+00,3.815723503513196446e-02,3.381857585980398151e-03
1.839999999999999969e-01,6.946865500384079573e-01,2.307164134830068658e+00,-1.884322525349251487e+00,-4.421894059474172356e-01,-8.963179992640984972e-01,1.525779475197357904e+00,4.025468079275841826e-01,4.666381711829022394e-01,-2.356784509482840573e+00,1.742530960589576905e+00,-2.081512472599306829e+00,-3.328113048123280682e-01,6.504012789454165222e-02,-6.737420891382471133e+00,-3.300647509280775882e+00,-9.768102638421843897e-01,4.592666001481433835e-02,3.003153561712197748e-03
1.859999999999999987e-01,6.954935141788054498e-01,2.308069253008341537e+00,-1.889075124895663649e+00,-4.386382989814143207e-01,-9.004832364609924866e-01,1.525110312167025528e+00,4.015079970143427546e-01,4.812588805707735395e-01,-2.336050369994482345e+00,1.707795891453750770e+00,-2.080033672560756219e+00,-3.309119790108051573e-01,4.447941063237220022e-02,-6.449181038085213480e+00,-3.161144793787889373e+00,-9.305718899156621982e-01,5.390401946121392562e-02,2.616955960036206150e-03
1.880000000000000004e-01,6.962986270337849781e-01,2.309003213445590230e+00,-1.893788193802875108e+00,-4.351544183319320802e-01,-9.046465236822870404e-01,1.524444717162038110e+00,4.003527492112394781e-01,4.960849343568011771e-01,-2.314319427782069560e+00,1.671906506699790018e+00,-2.078036508440753938e+00,-3.288940093116820007e-01,2.383203457232140401e-02,-6.159955489778182525e+00,-3.021463272330216387e+00,-8.844988340839375907e-01,6.207615509982060409e-02,2.223666929269301710e-03
1.900000000000000022e-01,6.971016557295551808e-01,2.309966426830808661e+00,-1.898459738465323676e+00,-4.317400726299592262e-01,-9.088068241998298324e-01,1.523782927469775617e+00,3.990810645219808883e-01,5.111163324734872004e-01,-2.291591682884765557e+00,1.634862806244056221e+00,-2.075520980235560753e+00,-3.267573955744391134e-01,3.081466135331474912e-03,-5.869829765081779449e+00,-2.881613706864164737e+00,-8.385968098467838638e-01,7.042970680488348789e-02,1.823694355342325279e-03
1.920000000000000040e-01,6.979023673923393511e-01,2.310959303852745617e+00,-1.903087765277589050e+00,-4.283975705067918915e-01,-9.129631012854555472e-01,1.523125180378134269e+00,3.976929429503076041e-01,5.263530748462438291e-01,-2.267867135350136731e+00,1.596664789996952161e+00,-2.072487087940618977e+00,-3.245021376468917862e-01,-1.779102992658233851e-02,-5.578891659379200618e+00,-2.741606600408356353e+00,-7.928707761537246990e-01,7.894985597344932049e-02,1.417487570635418085e-03
1.940000000000000058e-01,6.987005291483666669e-01,2.311982255200039305e+00,-1.907670280634314652e+00,-4.251292205938652646e-01,-9.171143182109928738e-01,1.522471713175242547e+00,3.961883844999752324e-01,5.417951613972751268e-01,-2.243145785229550437e+00,1.557312457866184108e+00,-2.068934831551000109e+00,-3.221282353715777536e-01,-3.880518496544957396e-02,-5.287229998132502828e+00,-2.601452338829838062e+00,-7.473253505720950374e-01,8.762112414175542152e-02,1.005514659201729114e-03
1.960000000000000075e-01,6.994959081238686371e-01,2.313035691561276419e+00,-1.912205290930174550e+00,-4.219373315226712662e-01,-9.212594382482671707e-01,1.521822763149325741e+00,3.945673891747430440e-01,5.574425920473586871e-01,-2.217427632576096208e+00,1.516805809758267953e+00,-2.064864211061655297e+00,-3.196356885887361443e-01,-5.998110721904217207e-02,-4.994933940140522388e+00,-2.461161257006673875e+00,-7.019650278582437730e-01,9.642778751619730804e-02,5.882506405143991292e-04
1.980000000000000093e-01,7.002882714450906487e-01,2.314120023624749667e+00,-1.916690802560038431e+00,-4.188242119250529250e-01,-9.253974246690847005e-01,1.521178567589208885e+00,3.928299569783934575e-01,5.732953667084486060e-01,-2.190712677453515056e+00,1.475144845572359031e+00,-2.060275226466794507e+00,-3.170244971243901255e-01,-8.134123180871753733e-02,-4.702094697626758801e+00,-2.320743374470056075e+00,-6.567935450533696207e-01,1.053526079952448041e-01,1.662133401915609726e-04
2.000000000000000111e-01,7.010773862382844168e-01,2.315235662078638512e+00,-1.921124821918853032e+00,-4.157921704329893275e-01,-9.295272407452450647e-01,1.520539363783948161e+00,3.909760879147177182e-01,5.893534852890940368e-01,-2.163000919929658039e+00,1.432329565204775168e+00,-2.055167877760338602e+00,-3.142946607990773078e-01,-1.029088917650161222e-01,-4.408804275200236766e+00,-2.180208589063591162e+00,-6.118143468078558467e-01,1.143777631288422497e-01,-2.600628979047145341e-04
2.020000000000000129e-01,7.018630196297038770e-01,2.316383017611053141e+00,-1.925505355401613716e+00,-4.128435156785360549e-01,-9.336478497485430905e-01,1.519905389022733422e+00,3.890057819875091250e-01,6.056169476957479203e-01,-2.134292360074890205e+00,1.388359968550086698e+00,-2.049542164936094313e+00,-3.114461794300209529e-01,-1.247078780760401684e-01,-4.115155035412065843e+00,-2.039566732298625951e+00,-5.670307397239522373e-01,1.234851349513690771e-01,-6.900353946680182942e-04
2.040000000000000147e-01,7.026449387456178419e-01,2.317562500909749357e+00,-1.929830409403580083e+00,-4.099805562941509218e-01,-9.377582149507502907e-01,1.519276880595448853e+00,3.869190392005706358e-01,6.220857538238652173e-01,-2.104586997972760276e+00,1.343236055493716385e+00,-2.043398087987246203e+00,-3.084790528170617274e-01,-1.467643820920386255e-01,-3.821241215933436131e+00,-1.898827287915371587e+00,-5.224453070750046946e-01,1.326550566221990080e-01,-1.123117784184757143e-03
2.060000000000000164e-01,7.034229107122997871e-01,2.318774522662367055e+00,-1.934097990320096772e+00,-4.072056009124234155e-01,-9.418572996236300732e-01,1.518654075792208680e+00,3.847158595577079288e-01,6.387599035652965496e-01,-2.073884833711137521e+00,1.296957825918085616e+00,-2.036735646906777220e+00,-3.053932807543414119e-01,-1.691053821006079372e-01,-3.527157669176957722e+00,-1.757999625640369157e+00,-4.780603949974208122e-01,1.418673535158323229e-01,-1.558709378210760589e-03
2.080000000000000182e-01,7.041967026560269627e-01,2.320019493556450207e+00,-1.938306104546587250e+00,-4.045209581660469955e-01,-9.459440670389396288e-01,1.518037211903307870e+00,3.823962430627259601e-01,6.556393968087964597e-01,-2.042185867381534070e+00,1.249525279703043168e+00,-2.029554841687570388e+00,-3.021888630311931889e-01,-1.917584019958628039e-01,-3.232999638547600973e+00,-1.617093032527394447e+00,-4.338782023840779822e-01,1.511014994261999922e-01,-1.996199562547225966e-03
2.099999999999999922e-01,7.049660817030910520e-01,2.321297824279119570e+00,-1.942452758478819153e+00,-4.019289366881758085e-01,-9.500174804684093921e-01,1.517426526219848526e+00,3.799601897194230804e-01,6.727242334293801473e-01,-2.009490099091614912e+00,1.200938416717019619e+00,-2.021855672322061093e+00,-2.988657994156042608e-01,-2.147533872493377627e-01,-2.938864102668818479e+00,-1.476116428688342586e+00,-3.899002746777558981e-01,1.603354077212501561e-01,-2.434933668427833719e-03
2.119999999999999940e-01,7.057308149797881791e-01,2.322609925517376883e+00,-1.946535958512654041e+00,-3.994318451120917324e-01,-9.540765031837612486e-01,1.516822256033155680e+00,3.774076995315958638e-01,6.900144132982489742e-01,-1.975797528953527449e+00,1.151197236825272086e+00,-2.013638138802559929e+00,-2.954240896696364582e-01,-2.381209554915278415e-01,-2.644848521809992192e+00,-1.335078632382875385e+00,-3.461279759428745328e-01,1.695465586403183400e-01,-2.874244798826201125e-03
2.139999999999999958e-01,7.064906696124183538e-01,2.323956207958091102e+00,-1.950553711044072491e+00,-3.970319920712175876e-01,-9.581200984567095347e-01,1.516224638634803945e+00,3.747387725030346672e-01,7.075099362820110871e-01,-1.941108157084693087e+00,1.100301739889250063e+00,-2.004902241121318873e+00,-2.918637335483270090e-01,-2.618923535329894525e-01,-2.351050820425074850e+00,-1.193988376840533716e+00,-3.025625281465808003e-01,1.787120194608823875e-01,-3.313454324328056130e-03
2.159999999999999976e-01,7.072454127272966851e-01,2.325337082287625812e+00,-1.954504022469495395e+00,-3.947316861995047166e-01,-9.621472295589386103e-01,1.515633911317301186e+00,3.719534086375055337e-01,7.252108022300360890e-01,-1.905421983622318294e+00,1.048251925756103597e+00,-1.995647979270364081e+00,-2.881847307803460656e-01,-2.861011896017945921e-01,-2.057570665131983834e+00,-1.052854076160216090e+00,-2.592046199455558808e-01,1.878073075446626827e-01,-3.751839581870243696e-03
2.179999999999999993e-01,7.079948114507412793e-01,2.326752959192224690e+00,-1.958384899185445116e+00,-3.925332361310284179e-01,-9.661568597621253973e-01,1.515050311373374203e+00,3.690516079387686776e-01,7.431170109876468199e-01,-1.868739008708252047e+00,9.950477942696256406e-01,-1.985875353241667529e+00,-2.843870810881750644e-01,-3.107816261150309622e-01,-1.764508131391598900e+00,-9.116840695357611990e-01,-2.160548148483303899e-01,1.968075765118619258e-01,-4.188667574333847926e-03
2.200000000000000011e-01,7.087386329090751280e-01,2.328204249357942235e+00,-1.962194347588618326e+00,-3.904389505000555038e-01,-9.701479523379366032e-01,1.514474076096088861e+00,3.660333704105703800e-01,7.612285623933218170e-01,-1.831059232492011413e+00,9.406893452679541134e-01,-1.975584363027216295e+00,-2.804707841839712001e-01,-3.359685519584191815e-01,-1.471963785882994369e+00,-7.704865712441131276e-01,-1.731135439930074349e-01,2.056875039607402589e-01,-4.623191694408115664e-03
2.220000000000000029e-01,7.094766442286358776e-01,2.329691363470231646e+00,-1.965930374076264586e+00,-3.884511379414604670e-01,-9.741194705580084046e-01,1.513905442779592381e+00,3.628986960566131792e-01,7.795454562638034490e-01,-1.792382655147465309e+00,8.851765785712718548e-01,-1.964775008619044083e+00,-2.764358397471055606e-01,-3.616991630604504682e-01,-1.180039755244377542e+00,-6.292693988642643621e-01,-1.303808181495916263e-01,2.144202557890780569e-01,-5.054622112964778091e-03
2.240000000000000047e-01,7.102086125357641722e-01,2.331214712214427554e+00,-1.969590985045742260e+00,-3.865721070902386480e-01,-9.780703776939706495e-01,1.513344648718246255e+00,3.596475848805908981e-01,7.980676924115127635e-01,-1.752709276853324560e+00,8.285094939961904492e-01,-1.953447290009194148e+00,-2.722822474504304480e-01,-3.880111134463666289e-01,-8.888384765814586475e-01,-4.880402914755898047e-01,-8.785656476206936405e-02,2.229786975993139631e-01,-5.482160414219213428e-03
2.260000000000000064e-01,7.109343049568056516e-01,2.332774706275596355e+00,-1.973174186894663729e+00,-3.848041665816459012e-01,-9.819996370174417510e-01,1.512791931206875606e+00,3.562800368861729905e-01,8.167952706385768202e-01,-1.712039097799576970e+00,7.706880913508761255e-01,-1.941601207189849188e+00,-2.680100069514687045e-01,-4.149427739340931787e-01,-5.984633063124017438e-01,-3.468070293344065469e-01,-4.554066829350803675e-02,2.313351491345555233e-01,-5.904992116207949046e-03
2.280000000000000082e-01,7.116534886181200559e-01,2.334371756338085468e+00,-1.976677986021325273e+00,-3.831496250516398527e-01,-9.859062118000092578e-01,1.512247527541558112e+00,3.527960520769645725e-01,8.357281907193794268e-01,-1.670372118206611134e+00,7.117123704207296564e-01,-1.929236760153569596e+00,-2.636191178664215595e-01,-4.425344474848501020e-01,-3.090200788987942926e-01,-2.055775036911234033e-01,-3.432897350191916122e-03,2.394604587522940198e-01,-6.322259429941067335e-03
2.300000000000000100e-01,7.123659306460703444e-01,2.336006273086125962e+00,-1.980100388824139745e+00,-3.816107911362968674e-01,-9.897890653132569438e-01,1.511711675018584167e+00,3.491956304565602132e-01,8.548664524236129214e-01,-1.627708338299956869e+00,6.515823309873028935e-01,-1.916353948892981940e+00,-2.591095798045044418e-01,-4.708267637181749454e-01,-2.061504178347694713e-02,-6.435962179373855285e-02,3.846699944858840425e-02,2.473252269714942830e-01,-6.733097273976714099e-03
2.320000000000000118e-01,7.130713981670241397e-01,2.337678667203568761e+00,-1.983439401701883931e+00,-3.801899734720475821e-01,-9.936471608287549273e-01,1.511184610934876549e+00,3.454787720285168451e-01,8.742100555054747035e-01,-1.584047758321811106e+00,5.902979728195562048e-01,-1.902952773401047182e+00,-2.544813923521026533e-01,-4.998614155617344124e-01,2.666456432251104736e-01,7.683931996496340400e-02,8.015943426706108321e-02,2.548994683355659263e-01,-7.136623838186841907e-03
2.340000000000000135e-01,7.137696583073630530e-01,2.339389349373409033e+00,-1.986693031054178604e+00,-3.788894806961384254e-01,-9.974794616180466811e-01,1.510666572588817980e+00,3.416454767963065242e-01,8.937589996835760831e-01,-1.539390378552660810e+00,5.278592956575318684e-01,-1.889033233671501222e+00,-2.497345550431656347e-01,-5.296825382208176780e-01,5.526560110093778899e-01,2.180134282455324368e-01,1.216451885678531825e-01,2.621518514798562571e-01,-7.531918888871946827e-03
2.360000000000000153e-01,7.144604781934704718e-01,2.341138730278516711e+00,-1.989859283280764890e+00,-3.777116214459331767e-01,-1.001284930952671459e+00,1.510157797279001679e+00,3.376957447633892606e-01,9.135132846713589494e-01,-1.493736199278549837e+00,4.642662992370729658e-01,-1.874595329698192536e+00,-2.448690674040293058e-01,-5.603346063663617871e-01,8.373100813145436527e-01,3.591569877199919381e-01,1.629250893568565672e-01,2.690508509669156667e-01,-7.918056616369410078e-03
2.380000000000000171e-01,7.151436249517366672e-01,2.342927220601235483e+00,-1.992936164781910824e+00,-3.766587043592820594e-01,-1.005062532104157302e+00,1.509658522304892170e+00,3.336295759331715516e-01,9.334729101580497845e-01,-1.447085220811152428e+00,3.995189832745810743e-01,-1.859639061475634181e+00,-2.398849289257414807e-01,-5.918618294425125326e-01,1.120496492700007618e+00,5.002619847271764231e-01,2.039991932387906215e-01,2.755642045379533278e-01,-8.294085697895079920e-03
2.399999999999999911e-01,7.158188657085636786e-01,2.344755231022871644e+00,-1.995921681958918503e+00,-3.757330380749899224e-01,-1.008811228344010491e+00,1.509168984967666161e+00,3.294469703089554780e-01,9.536378757852980170e-01,-1.399437443512497659e+00,3.336173474482624912e-01,-1.844164428999639727e+00,-2.347821390300209587e-01,-6.243078958166318193e-01,1.402093311599373893e+00,6.413158901945575918e-01,2.448660432527069442e-01,2.816582023409957003e-01,-8.659004686409786308e-03
2.419999999999999929e-01,7.164859675903555436e-01,2.346623172224601817e+00,-1.998813841213219922e+00,-3.749369312319816849e-01,-1.012529982943733753e+00,1.508689422568715521e+00,3.251479278940299089e-01,9.740081811887356666e-01,-1.350792867750976400e+00,2.665613914314948207e-01,-1.828171432266190610e+00,-2.295606971298195798e-01,-6.577165014004279220e-01,1.681977579915760357e+00,7.823057751289566042e-01,2.855240388167497589e-01,2.872989607186017813e-01,-9.011806287594983228e-03
2.439999999999999947e-01,7.171446977235226283e-01,2.348531454886856107e+00,-2.001610648947001359e+00,-3.742726924698513424e-01,-1.016217759174821822e+00,1.508220072410634938e+00,3.207324486916112161e-01,9.945838259677222126e-01,-1.301151493932979575e+00,1.983511148690373649e-01,-1.811660071272381822e+00,-2.242206025855767171e-01,-6.921365403648964687e-01,1.960042120571854340e+00,9.232283190362887693e-01,3.259740714498532421e-01,2.924522038478646335e-01,-9.351482643563153660e-03
2.459999999999999964e-01,7.177948232344872892e-01,2.350480489688806962e+00,-2.004310111563721186e+00,-3.737426304293212098e-01,-1.019873520308755888e+00,1.507761171798046584e+00,3.162005327047943681e-01,1.015364809660460388e+00,-1.250513322528966631e+00,1.289865173573895851e-01,-1.794630346017187517e+00,-2.187618546691881827e-01,-7.276256719479995416e-01,2.236206365723508505e+00,1.064096402834015631e+00,3.662212347372804655e-01,2.970829946544132905e-01,-9.677024946162605945e-03
2.479999999999999982e-01,7.184361112496727708e-01,2.352470687309485164e+00,-2.006910235466981440e+00,-3.733490537512405560e-01,-1.023496229617014697e+00,1.507312958035802453e+00,3.115521799366604561e-01,1.036351131797966119e+00,-1.198878354016905678e+00,5.846759848739204596e-02,-1.777082256499805668e+00,-2.131844526421706465e-01,-7.642420460313594788e-01,2.510390840249330680e+00,1.204923672842352245e+00,4.062707914467763026e-01,3.011562918097853703e-01,-9.987422007963348003e-03
2.500000000000000000e-01,7.190683288955094232e-01,2.354502458426844136e+00,-2.009409027061483055e+00,-3.730942710773975102e-01,-1.027084850371076108e+00,1.506875668430446735e+00,3.067873903901967014e-01,1.057542791845412555e+00,-1.146246588942774647e+00,-1.320564220146629164e-02,-1.759015802721590527e+00,-2.074883956719857370e-01,-8.020259894499397468e-01,2.782441904437077618e+00,1.345683678229540714e+00,4.461161217158837733e-01,3.046349997654386743e-01,-1.028154699422240310e-02
2.520000000000000018e-01,7.196912432984380326e-01,2.356576213717275436e+00,-2.011804492753515916e+00,-3.729805910509421674e-01,-1.030638345842415537e+00,1.506449540290982547e+00,3.019061640682541015e-01,1.078939789172424613e+00,-1.092618027951238302e+00,-8.603320524421255444e-02,-1.740430984687025617e+00,-2.016736827896121187e-01,-8.409919660963214305e-01,3.052098298672217602e+00,1.486291783367980956e+00,4.857333628512126578e-01,3.074790421033665178e-01,-1.055810525490409428e-02
2.540000000000000036e-01,7.203046215848996070e-01,2.358692363857003649e+00,-2.014094638949540439e+00,-3.730103223151681191e-01,-1.034155679302508402e+00,1.506034810926670353e+00,2.969085009736693870e-01,1.100542123138860573e+00,-1.037992671697053337e+00,-1.600150911834082312e-01,-1.721327802400915985e+00,-1.957403130120585477e-01,-8.811545252797117200e-01,3.319098454629520134e+00,1.626663339104385875e+00,5.250985806623990060e-01,3.096482367037972083e-01,-1.081579859032301069e-02
2.560000000000000053e-01,7.209082308813431483e-01,2.360851319520707925e+00,-2.016277472057600217e+00,-3.731857735146828503e-01,-1.037635814022840774e+00,1.505631717649154933e+00,2.917944011091625489e-01,1.122349793023501130e+00,-9.823705209188264842e-01,-2.351513006218637625e-01,-1.701706255870817808e+00,-1.896882852398955044e-01,-9.226039600142231789e-01,3.583472214535936562e+00,1.766876737468612513e+00,5.642337419752218031e-01,3.111069956996508346e-01,-1.105367338621111167e-02
2.580000000000000071e-01,7.215018383142259850e-01,2.363053491381134297e+00,-2.018350998487716375e+00,-3.735092532957373090e-01,-1.041077713274910943e+00,1.505240497773058905e+00,2.865638644773065291e-01,1.144362798003673243e+00,-9.257515764600829922e-01,-3.114418342377788251e-01,-1.681566345107725846e+00,-1.835175982279938500e-01,-9.655253412685926850e-01,3.845614062090942475e+00,1.907214383614475928e+00,6.032182494701050501e-01,3.118254800035464291e-01,-1.127120720738105167e-02
2.600000000000000089e-01,7.220852110100063337e-01,2.365299290110813413e+00,-2.020313224650128969e+00,-3.739830703047618554e-01,-1.044480340330219859e+00,1.504861388613332185e+00,2.812168910806600586e-01,1.166581137240169319e+00,-8.681358391812451503e-01,-3.888866927219058467e-01,-1.660908070123193747e+00,-1.772282507078525304e-01,-1.010098217733238712e+00,4.105896413493294261e+00,2.047946603053923287e+00,6.421279688440745259e-01,3.117733670406606650e-01,-1.146784702323505253e-02
2.620000000000000107e-01,7.226581160951500715e-01,2.367589126379840536e+00,-2.022162156957576951e+00,-3.746095331901873049e-01,-1.047842658460305554e+00,1.504494627488587755e+00,2.757534809216402594e-01,1.189004809624870207e+00,-8.095233102154240079e-01,-4.674858769718689411e-01,-1.639731430937799717e+00,-1.708202410347257338e-01,-1.056196742363174179e+00,4.363494922819219468e+00,2.188681229703682618e+00,6.808486391690702355e-01,3.108978677877384245e-01,-1.164150518551228079e-02
2.640000000000000124e-01,7.232203206961291819e-01,2.369923410855675261e+00,-2.023895801825488228e+00,-3.753909506026054110e-01,-1.051163630936744253e+00,1.504140451721391436e+00,2.701736340025107097e-01,1.211633813759143585e+00,-7.499139909903187462e-01,-5.472393881087794787e-01,-1.618036427581867276e+00,-1.642935671574016765e-01,-1.103365141929820270e+00,4.616292353924245973e+00,2.328310392254996586e+00,7.190606012598156349e-01,3.091219221897764102e-01,-1.178843616245797178e-02
2.660000000000000142e-01,7.237715919394175357e-01,2.372302554205483194e+00,-2.025512165669600240e+00,-3.763296311928486237e-01,-1.054442221031119065e+00,1.503799098634754028e+00,2.644773503255199998e-01,1.234468148229315609e+00,-6.893078829491173787e-01,-6.281472272636257070e-01,-1.595823060086245748e+00,-1.576482270030709065e-01,-1.151191431004071841e+00,4.862342101595905852e+00,2.465821099235620650e+00,7.564711783048543303e-01,3.063715076212092936e-01,-1.190510732910748763e-02
2.680000000000000160e-01,7.243116969514951098e-01,2.374726967093067298e+00,-2.027009254909090341e+00,-3.774278836144542293e-01,-1.057677392015075934e+00,1.503470805556678114e+00,2.586646298927521848e-01,1.257507811609823722e+00,-6.277049875518099231e-01,-7.102093955420021310e-01,-1.573091328482556062e+00,-1.508842184710648682e-01,-1.200490006679675314e+00,5.104483833763044487e+00,2.602858526119871119e+00,7.935455238048898519e-01,3.026590760802858604e-01,-1.199400346973015542e-02
2.700000000000000178e-01,7.248404028588482095e-01,2.377197060179095711e+00,-2.028385075966351536e+00,-3.786880165234842166e-01,-1.060868107160323870e+00,1.503155809819828104e+00,2.527354727061384976e-01,1.280752802464013351e+00,-5.651053062740647448e-01,-7.934258940258084314e-01,-1.549841232803141011e+00,-1.440015394347196609e-01,-1.253219608060916146e+00,5.350023307301032816e+00,2.743548193666917268e+00,8.314559254923247211e-01,2.980777693525214489e-01,-1.206322423512571490e-02
2.720000000000000195e-01,7.253574767879632512e-01,2.379713244123648597e+00,-2.029637635264375906e+00,-3.801123385764551554e-01,-1.064013329738584535e+00,1.502854348757718173e+00,2.466898787675922133e-01,1.304203119219705220e+00,-5.015088407277756843e-01,-8.777967239019831558e-01,-1.526072773084833800e+00,-1.370001875800444524e-01,-1.311078059469720225e+00,5.605246989010973735e+00,2.891450199746504968e+00,8.712130529917986310e-01,2.927021238150169791e-01,-1.211958033455008341e-02
2.740000000000000213e-01,7.258626858653335345e-01,2.382275929579295237e+00,-2.030764939233795641e+00,-3.817031584356329055e-01,-1.067112023021781431e+00,1.502566659714671848e+00,2.405278480788360096e-01,1.327858758137807627e+00,-4.369155947002119067e-01,-9.633218880567795406e-01,-1.501785949436074796e+00,-1.298801576043659978e-01,-1.370876101379858714e+00,5.857352155980666275e+00,3.039533660581717367e+00,9.108014214450618207e-01,2.862587450507323439e-01,-1.214576335002017470e-02
2.760000000000000231e-01,7.263557972174566890e-01,2.384885527192553756e+00,-2.031764994311398453e+00,-3.834627847679146218e-01,-1.070163150281997044e+00,1.502292980043718362e+00,2.342493806414389090e-01,1.351719713733471329e+00,-3.713255737312147198e-01,-1.050001390745489482e+00,-1.476980762022990890e+00,-1.226414417972042648e-01,-1.425487236075927422e+00,6.078157039413941476e+00,3.172235156696289859e+00,9.457675499687152598e-01,2.781939311110920299e-01,-1.210503349061035558e-02
2.780000000000000249e-01,7.268365779708306773e-01,2.387542447609285468e+00,-2.032635806934644407e+00,-3.853935262406969486e-01,-1.073165674791332069e+00,1.502033547098843291e+00,2.278544764569507552e-01,1.375785980725050317e+00,-3.047387831582322182e-01,-1.137835236034479003e+00,-1.451657211005151993e+00,-1.152840327236461376e-01,-1.469171088265963876e+00,6.244893156407646195e+00,3.276995655294343113e+00,9.725157259754190209e-01,2.680524543064998766e-01,-1.196748152651615389e-02
2.800000000000000266e-01,7.273047952519590131e-01,2.390247101469104685e+00,-2.033375383547392001e+00,-3.874976915261164057e-01,-1.076118559822049292e+00,1.501788598243146478e+00,2.213431355267305722e-01,1.400057557088169036e+00,-2.371552250693782504e-01,-1.226823425054770267e+00,-1.425815296436518276e+00,-1.078079273808049410e-01,-1.515486780534432087e+00,6.410164232094621717e+00,3.383086828372576349e+00,9.993938247292701860e-01,2.567503983841871729e-01,-1.179831342864899602e-02
2.820000000000000284e-01,7.277602161873478748e-01,2.392999899407282971e+00,-2.033981730597944626e+00,-3.897775892996018232e-01,-1.079020768646523631e+00,1.501558370846062029e+00,2.147153578520044903e-01,1.424534443061522104e+00,-1.685748992952085801e-01,-1.316965956897975021e+00,-1.399455018297674380e+00,-1.002131258450567330e-01,-1.591402252306489906e+00,6.678940749484214123e+00,3.548843293630840279e+00,1.043047832820683585e+00,2.461566005778073885e-01,-1.172881887192813236e-02
2.840000000000000302e-01,7.282026079035048838e-01,2.395801252054625685e+00,-2.034452854539111399e+00,-3.922355282398474197e-01,-1.081871264537271671e+00,1.501343102283268394e+00,2.079711434339697185e-01,1.449216636078321851e+00,-9.899780847528530381e-02,-1.408262832893156125e+00,-1.372576376661286623e+00,-9.249962434106792641e-02,-1.716956985983031814e+00,7.129132027536392968e+00,3.817582684341068955e+00,1.115834999238600744e+00,2.376473964695423047e-01,-1.185612342353887898e-02
2.860000000000000320e-01,7.286317375269422136e-01,2.398651569995924326e+00,-2.034786761870074123e+00,-3.948738170591513108e-01,-1.084669010768269271e+00,1.501143029994715050e+00,2.011104922735458822e-01,1.474104103613717909e+00,-2.842398524307573893e-02,-1.500714078311482957e+00,-1.345179372583100719e+00,-8.466737796930889903e-02,-1.836546726025127363e+00,7.543199254587871216e+00,4.068669660873752925e+00,1.183289273526571872e+00,2.272221550624471675e-01,-1.190436203657392264e-02
2.880000000000000338e-01,7.290473721841744803e-01,2.401551263788454627e+00,-2.034981459117748859e+00,-3.976947644899071488e-01,-1.087412970614364260e+00,1.500958391458782959e+00,1.941334043714861846e-01,1.499196795228024515e+00,4.314651983168559662e-02,-1.594319732741434459e+00,-1.317264007706741458e+00,-7.671631723810196091e-02,-1.849332484491571504e+00,7.526926507406286326e+00,4.083425488894929067e+00,1.182944410125562396e+00,2.076648351885957422e-01,-1.137462237592260818e-02
2.899999999999999800e-01,7.294492790017172990e-01,2.404500743989119727e+00,-2.035034952809423814e+00,-4.007006792647785920e-01,-1.090102107350416683e+00,1.500789424154370666e+00,1.870398797285422188e-01,1.524494660240488297e+00,1.157136559379048080e-01,-1.689079835964147236e+00,-1.288830283683745304e+00,-6.864637232484824270e-02,-1.653866577366617685e+00,6.683720427134881348e+00,3.641852124188120765e+00,1.051957382009284014e+00,1.717161278757632636e-01,-9.764990695798128617e-03
2.919999999999999818e-01,7.298372251060856186e-01,2.407500421154826320e+00,-2.034945249472386308e+00,-4.038938701164299649e-01,-1.092735384251286579e+00,1.500636365560378049e+00,1.798299183454647454e-01,1.549997647970357217e+00,1.892773722644940648e-01,-1.784994427760766333e+00,-1.259878202165646499e+00,-6.045747340694822280e-02,-1.148701320634503142e+00,4.616987654916829165e+00,2.523951522536813208e+00,7.274851621514381028e-01,1.121167241517217888e-01,-6.573553250413539072e-03
2.939999999999999836e-01,7.302109776237943883e-01,2.410550705842478436e+00,-2.034710355633924994e+00,-4.072766457775250371e-01,-1.095311764591833770e+00,1.500499453155703433e+00,1.725035202230051079e-01,1.575705707736877015e+00,2.638376180003594307e-01,-1.882063547912427248e+00,-1.230407764803981285e+00,-5.214955066180296250e-02,-2.323890302794738849e-01,9.301348318953416294e-01,5.097256397245134574e-01,1.466847235257323911e-01,2.160731504424585198e-02,-1.298396293981988114e-03
2.959999999999999853e-01,7.305952458621340906e-01,2.413595948720660189e+00,-2.034570054292001551e+00,-4.106186155098963120e-01,-1.097901443287000456e+00,1.500372909794783327e+00,1.668531918534424119e-01,1.592901275854009979e+00,3.201110665707425640e-01,-1.946213227628514231e+00,-1.210499810275353472e+00,-4.758159616538777670e-02,-9.570577290883952593e-01,-4.101773090847056213e-01,3.271189565257259790e-01,1.455396270878318021e-01,4.480024491977218498e-02,-4.410708833491494736e-03
2.979999999999999871e-01,7.309731121461768844e-01,2.416655919819616472e+00,-2.034367447705168530e+00,-4.140356116452703628e-01,-1.100467866350219204e+00,1.500248248461097056e+00,1.619114559934186626e-01,1.608822023276081703e+00,3.696417416807505907e-01,-2.000603593174659522e+00,-1.193763271198864606e+00,-4.298847414542274897e-02,-8.689478671795070053e-01,-3.818077477843149214e-01,3.219562430690433019e-01,1.449479541663230564e-01,4.739046817196668898e-02,-4.246675649720968969e-03
2.999999999999999889e-01,7.313393107824838202e-01,2.419742810027130098e+00,-2.034051410820379324e+00,-4.175735802008417319e-01,-1.102997041803723821e+00,1.500126982970354295e+00,1.572815909793816302e-01,1.625588877759434503e+00,4.167774849820071736e-01,-2.053121362468129707e+00,-1.177881635649616232e+00,-3.739562041544671617e-02,-7.857998996801300873e-01,-3.739783364870830629e-01,3.116728324680652640e-01,1.425529423584952216e-01,4.874568867253081805e-02,-4.051118492197232010e-03
3.019999999999999907e-01,7.316943320619129221e-01,2.422857972290295425e+00,-2.033625811987672893e+00,-4.212293411125319076e-01,-1.105490131508922058e+00,1.500010695525830329e+00,1.529517372561999544e-01,1.643175584788324928e+00,4.616019045766901474e-01,-2.103817531445030919e+00,-1.162805226400338787e+00,-3.084048575243461890e-02,-7.074369616894864432e-01,-3.836226035977781668e-01,2.973868922570349627e-01,1.386940854658272881e-01,4.894752816546998897e-02,-3.829202761257724259e-03
3.039999999999999925e-01,7.320386662753232132e-01,2.426002759556209032e+00,-2.033094519557091751e+00,-4.249997143162635993e-01,-1.107948297327225218e+00,1.499900968330803552e+00,1.489100352687425521e-01,1.661555889847009748e+00,5.041986085669774020e-01,-2.152743096041473514e+00,-1.148484366223764264e+00,-2.336052093336146371e-02,-6.336821883067995653e-01,-4.076740775211688539e-01,2.802165899701959395e-01,1.337108772897983855e-01,4.807760839478968790e-02,-3.586093857239899558e-03
3.059999999999999942e-01,7.323728037135734947e-01,2.429178524771969272e+00,-2.032461401878677520e+00,-4.288815197479587948e-01,-1.110372701120042604e+00,1.499799383588551915e+00,1.451446254618783127e-01,1.680703538419746623e+00,5.446512050550470496e-01,-2.199949052193566068e+00,-1.134869377892623987e+00,-1.499317673520224499e-02,-5.643587146312927239e-01,-4.430662866620236340e-01,2.612800931417915140e-01,1.279428116318874764e-01,4.621755110449537324e-02,-3.326957180481204812e-03
3.079999999999999960e-01,7.326972346675222347e-01,2.432386620884668726e+00,-2.031730327302470496e+00,-4.328715773435395375e-01,-1.112764504748784189e+00,1.499707523502351814e+00,1.416436482804758756e-01,1.700592275990791435e+00,5.830433021430770912e-01,-2.245486395837417160e+00,-1.121910584179649506e+00,-5.775903934931927650e-03,-4.992896757621884118e-01,-4.867327594251110168e-01,2.416955693060649779e-01,1.217293822935736902e-01,4.344897803859248259e-02,-3.056958131319086926e-03
3.099999999999999978e-01,7.330124494280279013e-01,2.435628400841404417e+00,-2.030905164178511857e+00,-4.369667070389278707e-01,-1.115124870074858610e+00,1.499626970275480087e+00,1.383952441694040747e-01,1.721195848044401400e+00,6.194585079332448618e-01,-2.289406122909134034e+00,-1.109558307857571036e+00,4.253846690474501722e-03,-4.382982067987092334e-01,-5.356070242151991234e-01,2.225811859972595397e-01,1.154100830763359342e-01,3.985351094108646741e-02,-2.781262110090992803e-03
3.119999999999999996e-01,7.333189382859494065e-01,2.438905217589273366e+00,-2.029989780856841897e+00,-4.411637287700460042e-01,-1.117454958959676725e+00,1.499559306111214907e+00,1.353875535735317714e-01,1.742488000064832843e+00,6.539804305277288066e-01,-2.331759229344827489e+00,-1.097762871699120568e+00,1.505862436404207388e-02,-3.812074428400785142e-01,-5.866226094370569077e-01,2.050551107496184633e-01,1.093244077816533655e-01,3.551277155598277224e-02,-2.505034517134372384e-03
3.140000000000000013e-01,7.336171915321453296e-01,2.442218424075370820e+00,-2.028988045687502684e+00,-4.454594624728161478e-01,-1.119755933264647840e+00,1.499506113212832892e+00,1.326087169377277719e-01,1.764442477536343867e+00,6.866926780287069265e-01,-2.372596711080604326e+00,-1.086474598477029652e+00,2.660097830879578490e-02,-3.278405189855191360e-01,-6.367130434954523244e-01,1.902355110973853458e-01,1.038118502110049746e-01,3.050838162728688324e-02,-2.233440752786671271e-03
3.160000000000000031e-01,7.339076994574744717e-01,2.445569373246792466e+00,-2.027903827020535399e+00,-4.498507280831602340e-01,-1.122028954851181703e+00,1.499468973783611547e+00,1.300468747068608266e-01,1.787033025943189912e+00,7.176788585383566677e-01,-2.411969564052573567e+00,-1.075643810964028724e+00,3.884345774776061522e-02,-2.780205703342540913e-01,-6.828118547951540496e-01,1.792405545748032292e-01,9.921190416586982141e-02,2.492196289900425882e-02,-1.971646217385339406e-03
3.180000000000000049e-01,7.341909523527951897e-01,2.448959418050634440e+00,-2.026740993205980779e+00,-4.543343455370005834e-01,-1.124275185580687841e+00,1.499449470026828601e+00,1.276901673257997694e-01,1.810233390769628414e+00,7.470225801588563641e-01,-2.449928784196844678e+00,-1.065220831932849999e+00,5.174861190396165544e-02,-2.315707319855060675e-01,-7.218525717409305376e-01,1.731884087161155716e-01,9.586406344772691046e-02,1.883513711514031574e-02,-1.724816311267823908e-03
3.200000000000000067e-01,7.344674405089665070e-01,2.452389911433993319e+00,-2.025503412593879560e+00,-4.589071347702591841e-01,-1.126495787314576225e+00,1.499449184145760450e+00,1.255267352394133507e-01,1.834017317499916366e+00,7.748074509923837949e-01,-2.486525367449524904e+00,-1.055155984156224136e+00,6.527899000042390598e-02,-1.883141390384980851e-01,-7.507687227375502426e-01,1.731972410555656094e-01,9.410782185805527389e-02,1.232952601970052110e-02,-1.498116434771571467e-03
3.220000000000000084e-01,7.347376542168467806e-01,2.455862206343964793e+00,-2.024194953534273811e+00,-4.635659157188583013e-01,-1.128691921914256380e+00,1.499469698343684598e+00,1.235447188925704459e-01,1.858358551618310539e+00,8.011170791411170722e-01,-2.521810309746724155e+00,-1.045399590406882684e+00,7.939714126017234641e-02,-1.480739265924530534e-01,-7.664938361897817298e-01,1.803852191273967454e-01,9.428267319833398552e-02,5.486751356690345444e-03,-1.296711988234032021e-03
3.239999999999999547e-01,7.350020837672948115e-01,2.459377655727644996e+00,-2.022819484377203825e+00,-4.683075083187199228e-01,-1.130864751241138499e+00,1.499512594823878775e+00,1.217322587301398196e-01,1.883230838609066815e+00,8.260350727072337529e-01,-2.555834607024550564e+00,-1.035901973457557190e+00,9.406561490623197019e-02,-1.106732297465940762e-01,-7.659614405023935646e-01,1.958705104658521323e-01,9.672811127004207754e-02,-1.611565129884738948e-03,-1.125768371992652474e-03
3.259999999999999565e-01,7.352612194511694010e-01,2.462937612532129172e+00,-2.021380873472710782e+00,-4.731287325057662585e-01,-1.133015437156631666e+00,1.499579455789620042e+00,1.200774951969902637e-01,1.908607923956443742e+00,8.496450397929119491e-01,-2.588649255219112710e+00,-1.026613456080978315e+00,1.092469601616279096e-01,-7.593518360014367419e-02,-7.461050640801537570e-01,2.207712826051753119e-01,1.017836298746585544e-01,-8.883801696019343053e-03,-9.904509863848799493e-04
3.279999999999999583e-01,7.355155515593287952e-01,2.466543429704514789e+00,-2.019882989170836307e+00,-4.780264082159193517e-01,-1.135145141522145629e+00,1.499671863444185682e+00,1.185685687379906261e-01,1.934463553144696979e+00,8.720305885003296620e-01,-2.620305250266519614e+00,-1.017484361049877828e+00,1.249037262493851164e-01,-4.368292325232504825e-02,-7.038582353278308723e-01,2.562057030796094925e-01,1.097887228136625315e-01,-1.624833659770796856e-02,-8.959252317481633011e-04
3.299999999999999600e-01,7.357655703826320170e-01,2.470196460191895760e+00,-2.018329699821620249e+00,-4.829973553851013568e-01,-1.137255026199090358e+00,1.499791399990852092e+00,1.171936197980096572e-01,1.960771471658083298e+00,8.932753269316647815e-01,-2.650853588102878966e+00,-1.008465011136986611e+00,1.409984623925285563e-01,-1.373958380236105226e-02,-6.361544826501935868e-01,3.032919394233978272e-01,1.210828838885329717e-01,-2.362354809094515534e-02,-8.473565084199497595e-04
3.319999999999999618e-01,7.360117662063100363e-01,2.473898056934258349e+00,-2.016724873733078294e+00,-4.880383939744951660e-01,-1.139346253023955091e+00,1.499939647614619620e+00,1.159407889374780565e-01,1.987505425486322919e+00,9.134628623769506239e-01,-2.680345264189698984e+00,-9.995057296423977000e-01,1.574937184371502930e-01,1.407168252024005098e-02,-5.399279518532198452e-01,3.631479074323368250e-01,1.360055302443343994e-01,-3.092782830071239691e-02,-8.499089186680150541e-04
3.339999999999999636e-01,7.362545759872640705e-01,2.477649505477530489e+00,-2.015071980956573139e+00,-4.931465833214089822e-01,-1.141419747678100949e+00,1.500118015290429430e+00,1.147993118125662376e-01,2.014643950521316729e+00,9.326691060208623929e-01,-2.708826776535736780e+00,-9.905618372857920573e-01,1.743579485817745300e-01,3.976539222900250109e-02,-4.179634510126328251e-01,4.345059807093297199e-01,1.541696619319716521e-01,-3.821099565508924434e-02,-8.964457024639156495e-04
3.359999999999999654e-01,7.364942527855877774e-01,2.481451858966748691e+00,-2.013373118199750511e+00,-4.983198082250677730e-01,-1.143475621488228899e+00,1.500327314697629255e+00,1.137622003951679062e-01,2.042182100099305231e+00,9.509434298856878076e-01,-2.736329114184724354e+00,-9.816058878318563163e-01,1.915799675268582969e-01,6.279628057285359388e-02,-2.932211455892687058e-01,5.078722562274113894e-01,1.726833105373080102e-01,-4.597607755450040801e-02,-9.374119458114793480e-04
3.379999999999999671e-01,7.367310100509625315e-01,2.485306120489010784e+00,-2.011630086359186276e+00,-5.035561312848861881e-01,-1.145513810373295360e+00,1.500568228861212994e+00,1.128232800558790494e-01,2.070118485327851587e+00,9.683294895966155780e-01,-2.762879925630252309e+00,-9.726141469532511019e-01,2.091529755187350736e-01,8.249850883722965877e-02,-1.930068677509685915e-01,5.719809338977378532e-01,1.881149505096048058e-01,-5.482372024719769921e-02,-9.141160856851497044e-04
3.399999999999999689e-01,7.369650612330691519e-01,2.489213293131413263e+00,-2.009844686331456742e+00,-5.088536151002784891e-01,-1.147534250252255861e+00,1.500841440806173654e+00,1.119763761652955575e-01,2.098451717314516518e+00,9.848709407788338588e-01,-2.788506859365909030e+00,-9.635628803226360395e-01,2.270701728037381462e-01,9.820623830756698702e-02,-1.446264496655729759e-01,6.155662136314646871e-01,1.970330562981233435e-01,-6.535456998143288065e-02,-7.678665590593725500e-04
3.419999999999999707e-01,7.371966197815884581e-01,2.493174379981052180e+00,-2.008018719013136888e+00,-5.142103222706591037e-01,-1.149536877044065486e+00,1.501147633557504024e+00,1.112153140940133761e-01,2.127180407166864740e+00,1.000611439057531138e+00,-2.813237563885284676e+00,-9.544283536126709766e-01,2.453247596282010501e-01,1.092536302693020295e-01,-1.753857235009220750e-01,6.273622953397479662e-01,1.960061023521251222e-01,-7.816927300545779833e-02,-4.399718029085895963e-04
3.439999999999999725e-01,7.374258991462018242e-01,2.497190384125024476e+00,-2.006153985300802134e+00,-5.196243153954426264e-01,-1.151521626667681097e+00,1.501487490140198444e+00,1.105339192126284648e-01,2.156303165992456972e+00,1.015594640057895903e+00,-2.837099687681968074e+00,-9.451868324960162049e-01,2.639099362384572101e-01,1.149748460078711537e-01,-3.125905214248578812e-01,5.961033789337433220e-01,1.816025631208714186e-01,-9.386847556752427046e-02,1.282597457927540843e-04
3.459999999999999742e-01,7.376531127765901807e-01,2.501262308650427091e+00,-2.004252286091029234e+00,-5.250936570740432074e-01,-1.153488435042058224e+00,1.501861693579248813e+00,1.099260168917367275e-01,2.185818604898857487e+00,1.029864199405116532e+00,-2.860120879249548942e+00,-9.358145826453315719e-01,2.828189028808399952e-01,1.147040468087105747e-01,-5.835466756052211101e-01,5.105236643246067185e-01,1.503909130536235095e-01,-1.130528239158840598e-01,9.955196500702153707e-04
3.479999999999999760e-01,7.378784741224341248e-01,2.505391156644356077e+00,-2.002315422280391832e+00,-5.306164099058753303e-01,-1.155437238086152618e+00,1.502270926899649250e+00,1.093854325019341101e-01,2.215725334993627449e+00,1.043463772724381622e+00,-2.882328787081616106e+00,-9.262878697332770361e-01,3.020448598016828301e-01,1.077753939572567987e-01,-1.015560018209851645e+00,3.593573514234935651e-01,9.893962659964281037e-02,-1.363229642987889845e-01,2.220499472949350600e-03
3.499999999999999778e-01,7.381021966334152529e-01,2.509577931193909706e+00,-2.000345194765467127e+00,-5.361906364903535893e-01,-1.157367971718920252e+00,1.502715873126392765e+00,1.089059914138165303e-01,2.246021967384330686e+00,1.056437015640879551e+00,-2.903751059671759283e+00,-9.165829594325126672e-01,3.215810072473190839e-01,9.352304873894620729e-02,-1.635936381406588591e+00,1.313386401415610472e-01,2.381717820819101439e-02,-1.642795429644907657e-01,3.861890777455707219e-03
3.519999999999999796e-01,7.383244876860782790e-01,2.513823580613714803e+00,-1.998343384800029598e+00,-5.418144160648055152e-01,-1.159280561770860363e+00,1.503197213107745345e+00,1.084816309354207364e-01,2.276696164856476745e+00,1.068822132195909491e+00,-2.924412707414474788e+00,-9.066791463105313698e-01,3.414212639247367065e-01,7.139455502594622971e-02,-2.468031868020477138e+00,-1.832375020795147247e-01,-7.792456730101776641e-02,-1.974132084991735425e-01,5.969509790558599066e-03
3.539999999999999813e-01,7.385454850945802896e-01,2.518128425848321417e+00,-1.996311548646980238e+00,-5.474860184391144857e-01,-1.161174818518144747e+00,1.503715602759495562e+00,1.081075705189931679e-01,2.307610186866515090e+00,1.080594883367337111e+00,-2.944308523616456785e+00,-8.965904182415913581e-01,3.615677778711751111e-01,4.213615376630581999e-02,-3.489961930650641975e+00,-5.761988985505299699e-01,-2.036969366907184220e-01,-2.349546837261711763e-01,8.491513628106066303e-03
3.559999999999999831e-01,7.387652822820468534e-01,2.522492387487923704e+00,-1.994251098991963289e+00,-5.532038350364731905e-01,-1.163050478496294060e+00,1.504271682086843143e+00,1.077798478132911270e-01,2.338546267109736565e+00,1.091691182277971572e+00,-2.963414018639765501e+00,-8.863529025303897857e-01,3.820279486464774332e-01,7.322845581218428990e-03,-4.650971835622296879e+00,-1.027965084716028432e+00,-3.473779589133934032e-01,-2.753306735936734140e-01,1.131118594679260576e-02
3.579999999999999849e-01,7.389839719533686235e-01,2.526915379645093829e+00,-1.992163446197582344e+00,-5.589662592477439018e-01,-1.164907277047725120e+00,1.504866090837560400e+00,1.074945137052676358e-01,2.369285344486508293e+00,1.102046297323225676e+00,-2.981704390853692654e+00,-8.760030846915539682e-01,4.028092607786867285e-01,-3.145695980328164221e-02,-5.899839737542909468e+00,-1.518771013043110685e+00,-5.027884951293331017e-01,-3.169548742605536873e-01,1.431076076848688573e-02
3.599999999999999867e-01,7.392016468134358087e-01,2.531397316432404843e+00,-1.990050000626438997e+00,-5.647716844637892253e-01,-1.166744949514855412e+00,1.505499468759418313e+00,1.072476190818757447e-01,2.399608357897193400e+00,1.111595496898511559e+00,-2.999154838627525965e+00,-8.655774502397102221e-01,4.239191987958455532e-01,-7.261485266115963455e-02,-7.185343791019931814e+00,-2.028851635998872194e+00,-6.637494064988261888e-01,-3.582409818856851502e-01,1.737247211505752592e-02
3.619999999999999885e-01,7.394183995671398391e-01,2.535938111962427577e+00,-1.987912172641137731e+00,-5.706185040754716553e-01,-1.168563231240101752e+00,1.506172455600189197e+00,1.070352148300685174e-01,2.429296246242158119e+00,1.120274049399242910e+00,-3.015740560330556708e+00,-8.551124846894857523e-01,4.453652472259966855e-01,-1.145624232663809972e-01,-8.456262150660819543e+00,-2.538441906050409536e+00,-8.240815541821613355e-01,-3.976026926279409013e-01,2.037855400837318073e-02
3.639999999999999902e-01,7.396343229193709234e-01,2.540537680347734639e+00,-1.985751372604280807e+00,-5.765051114736536864e-01,-1.170361857565880737e+00,1.506885691107644254e+00,1.068533518367989626e-01,2.458129948421766908e+00,1.128017223220831866e+00,-3.031436754332074379e+00,-8.446446735555073193e-01,4.671548905971826815e-01,-1.557112618929109571e-01,-9.661372971073022953e+00,-3.027776775664817066e+00,-9.776057993396267687e-01,-4.334537026461939280e-01,2.321124047030246468e-02
3.659999999999999920e-01,7.398495095750199368e-01,2.545195935700898193e+00,-1.983569010878472039e+00,-5.824299000491981460e-01,-1.172140563834610516e+00,1.507639815029555352e+00,1.066980809890201720e-01,2.485890403336384669e+00,1.134760286758692116e+00,-3.046218619001371586e+00,-8.342105023524017948e-01,4.892956134374464305e-01,-1.944729588147151023e-01,-1.074945440686401099e+01,-3.477091197309194914e+00,-1.118143003131512936e+00,-4.642077080993178284e-01,2.575276552271404257e-02
3.679999999999999938e-01,7.400640522389779763e-01,2.549912792134490847e+00,-1.981366497826315021e+00,-5.883912631929675285e-01,-1.173899085388707908e+00,1.508435467113694584e+00,1.065654531736852373e-01,2.512358549886377190e+00,1.140438508408235796e+00,-3.060061352707736937e+00,-8.238464565947967166e-01,5.117949002748309884e-01,-2.292591043057587430e-01,-1.166928461264123484e+01,-3.866620123450639657e+00,-1.239514026718108175e+00,-4.882784051461855901e-01,2.788536318747655146e-02
3.699999999999999956e-01,7.402780436161350286e-01,2.554688163761082986e+00,-1.979145243810411792e+00,-5.943875942958238845e-01,-1.175637157570589508e+00,1.509273287107832706e+00,1.064515192777470837e-01,2.537315326972108043e+00,1.144987156564875708e+00,-3.072940153820459930e+00,-8.135890217973179572e-01,5.346602356373781895e-01,-2.584812886400068566e-01,-1.236964174301213859e+01,-4.176598506556241652e+00,-1.335539731259699936e+00,-5.040794899456700895e-01,2.949126748645860066e-02
3.719999999999999973e-01,7.404915764113824128e-01,2.559521964693248108e+00,-1.976906659193366611e+00,-6.004172867486303744e-01,-1.177354515722672801e+00,1.510153914759742033e+00,1.063523301881588862e-01,2.560541673493943904e+00,1.148341499624025097e+00,-3.084830220708833171e+00,-8.034746834745929434e-01,5.578991040531317003e-01,-2.805511020914256415e-01,-1.279930395258420006e+01,-4.387261299093106359e+00,-1.400040977916580109e+00,-5.100246586566450357e-01,3.045271244152887580e-02
3.739999999999999991e-01,7.407047433296106709e-01,2.564414109043558820e+00,-1.974652154337781962e+00,-6.064787339422491597e-01,-1.179050895187375270e+00,1.511077989817194211e+00,1.062639367918736533e-01,2.581818528352249231e+00,1.150436805981096766e+00,-3.095706751742144824e+00,-7.935399271412486577e-01,5.815189900501339659e-01,-2.938801349339800750e-01,-1.290704939596486689e+01,-4.478843453528327245e+00,-1.426838627849036367e+00,-5.045276074379835274e-01,3.065193207455600005e-02
3.760000000000000009e-01,7.409176370757105667e-01,2.569364510924585954e+00,-1.972383139606261437e+00,-6.125703292675429568e-01,-1.180726031307113288e+00,1.512046152027961110e+00,1.061823899758443934e-01,2.600926830447388038e+00,1.151208344031503072e+00,-3.105544945289686165e+00,-7.838212383119116389e-01,6.055273781564274316e-01,-2.968799774416354120e-01,-1.264165622776159381e+01,-4.431579922328999999e+00,-1.409753542217357047e+00,-4.860020324485584964e-01,2.997116040740860007e-02
3.780000000000000027e-01,7.411303503545725313e-01,2.574373084448901672e+00,-1.970101025361407743e+00,-6.186904661153741491e-01,-1.182379659424304341e+00,1.513059041139813488e+00,1.061037406270241984e-01,2.617647518679726559e+00,1.150591382170656818e+00,-3.114319999720746246e+00,-7.743551025012089806e-01,6.299317529000552085e-01,-2.879622198883570738e-01,-1.195190260258183201e+01,-4.225705657962222084e+00,-1.342606582181831376e+00,-4.528616298472430968e-01,2.829263146195531639e-02
3.800000000000000044e-01,7.413429758710876616e-01,2.579439743729079026e+00,-1.967807221965824915e+00,-6.248375378766055643e-01,-1.184011514881365912e+00,1.514117296900524101e+00,1.060240396323661460e-01,2.631761531949629251e+00,1.148521188793971692e+00,-3.122007113404617673e+00,-7.651780052237676655e-01,6.547395988090598529e-01,-2.655384525481107039e-01,-1.078656667503304867e+01,-3.841455612895088745e+00,-1.219218608902748802e+00,-4.035200957929107046e-01,2.549857926006480341e-02
3.820000000000000062e-01,7.415556063301464995e-01,2.584564402877689293e+00,-1.965503139782114994e+00,-6.310099379420993637e-01,-1.185621333020714152e+00,1.515221559057863931e+00,1.059393378788232032e-01,2.643049809157461461e+00,1.144933032296859832e+00,-3.128581484710588168e+00,-7.563264319942144542e-01,6.799584004114840319e-01,-2.280202656948613626e-01,-9.094426599722693183e+00,-3.259064739594698334e+00,-1.033410483540397884e+00,-3.363911264444344740e-01,2.147123782360569125e-02
3.840000000000000080e-01,7.417683344366399201e-01,2.589746976007304635e+00,-1.963190189172882238e+00,-6.372060597027183748e-01,-1.187208849184767212e+00,1.516372467359604848e+00,1.058456862533485032e-01,2.651293289203588088e+00,1.139762181074734038e+00,-3.134018312007949447e+00,-7.478368683271762185e-01,7.055956422353704127e-01,-1.738192496025750544e-01,-6.824260531258241613e+00,-2.458767990528152758e+00,-7.790030672550697366e-01,-2.498884179606881972e-01,1.609284117444666554e-02
3.860000000000000098e-01,7.419812528954583541e-01,2.594987377230497660e+00,-1.960869780500728909e+00,-6.434242965493248700e-01,-1.188773798715941465e+00,1.517570661553518718e+00,1.057391356428950269e-01,2.656272910988373592e+00,1.132943903523007334e+00,-3.138292793665991010e+00,-7.397457997372798300e-01,7.316588088087619957e-01,-1.013469945452163262e-01,-3.924846624247118054e+00,-1.420800318162537934e+00,-4.498172212070495335e-01,-1.424256665005438349e-01,9.245623334456278333e-03
3.880000000000000115e-01,7.421944544114926767e-01,2.600285520659839200e+00,-1.958543324128258378e+00,-6.496630418727816769e-01,-1.190315916956654174e+00,1.518816781387376524e+00,1.056157369344158520e-01,2.657769613412183318e+00,1.124413468037092301e+00,-3.141380128054003684e+00,-7.320897117391521602e-01,7.581553846597012258e-01,-9.015090796750927296e-03,-3.449630332967928426e-01,-1.253966749649555734e-01,-3.967380655662801348e-02,-1.241656822287511182e-02,8.118183255032186295e-04
3.900000000000000133e-01,7.424074260242466972e-01,2.605673319699382429e+00,-1.956232314537618144e+00,-6.559567256353081577e-01,-1.191825484897524712e+00,1.520201242010413178e+00,1.051646282261683440e-01,2.638107510759156060e+00,1.107849140396649723e+00,-3.137507568404777736e+00,-7.200073399735521518e-01,7.921437072813557467e-01,-6.807222786259505831e-01,-3.317811120959414950e+01,-1.292449557477028321e+01,-3.987423738681523222e+00,-7.446456657470877927e-01,6.753139326392597341e-02
3.920000000000000151e-01,7.426194288920775488e-01,2.611024544009977078e+00,-1.953956916407669109e+00,-6.622470071195735164e-01,-1.193308496850731037e+00,1.521666551067826001e+00,1.046697379479214207e-01,2.615944536520437236e+00,1.090467975480928109e+00,-3.132888913166751887e+00,-7.076917865196344914e-01,8.257164920555859489e-01,-6.708775341451421736e-01,-3.316107247174743122e+01,-1.291358729057551358e+01,-3.983417599374955653e+00,-7.275320101255552396e-01,6.632237974117143053e-02
3.940000000000000169e-01,7.428304523108076873e-01,2.616331527945710000e+00,-1.951716740475588185e+00,-6.685288700758953429e-01,-1.194766152823011574e+00,1.523202983480281381e+00,1.041643920196210077e-01,2.593304482363739893e+00,1.073032400357092575e+00,-3.128088944174068686e+00,-6.955942390388921703e-01,8.581326456093057997e-01,-6.569829841749840194e-01,-3.295331156971623443e+01,-1.281979838505263558e+01,-3.954501562911933554e+00,-7.088517533532023851e-01,6.473908544268737464e-02
3.960000000000000187e-01,7.430404876646029555e-01,2.621594063688090781e+00,-1.949511584888004245e+00,-6.748018578945658152e-01,-1.196198877143637151e+00,1.524808224587272054e+00,1.036524668227505053e-01,2.570422646707752889e+00,1.055640360893115304e+00,-3.123078031736711946e+00,-6.837110143437100662e-01,8.893917271751875520e-01,-6.399190964383130176e-01,-3.258688225333349209e+01,-1.265691656703086387e+01,-3.904865305602392755e+00,-6.890553882682224351e-01,6.284940626664206609e-02
3.980000000000000204e-01,7.432495263376294181e-01,2.626811943418626782e+00,-1.947341247791546159e+00,-6.810655139658774448e-01,-1.197607094141877049e+00,1.526479959728289426e+00,1.031378387387933276e-01,2.547534327971163304e+00,1.038389802956968477e+00,-3.117826546164665480e+00,-6.720384292464730569e-01,9.194932959859033472e-01,-6.205663386579662877e-01,-3.209383827243215848e+01,-1.243872954533941666e+01,-3.838698503756267755e+00,-6.685934077088079297e-01,6.072123811120375830e-02
4.000000000000000222e-01,7.434575597140532510e-01,2.631984959318827144e+00,-1.945205527332843909e+00,-6.873193816801226319e-01,-1.198991228147002541e+00,1.528215874242826677e+00,1.026243841492328890e-01,2.524874824572662213e+00,1.021378672416625388e+00,-3.112304857767913990e+00,-6.605728005595662422e-01,9.484369112741264374e-01,-5.998051785567813932e-01,-3.150623337684516301e+01,-1.217902502880752458e+01,-3.760190833683498379e+00,-6.479163045131519638e-01,5.842247687454070471e-02
4.020000000000000240e-01,7.436645791780409631e-01,2.637112903570200118e+00,-1.943104221658526587e+00,-6.935630044275935546e-01,-1.200351703488283572e+00,1.530013653470375878e+00,1.021159794355525896e-01,2.502679434930936697e+00,1.004704915140057331e+00,-3.106483336856440403e+00,-6.493104450953743889e-01,9.762221322725289641e-01,-5.785160838575954534e-01,-3.085612131640544575e+01,-1.189159072626439695e+01,-3.673531971694018239e+00,-6.274745715194476325e-01,5.602101845482113790e-02
4.040000000000000258e-01,7.438705761137585082e-01,2.642195568354253510e+00,-1.941037128915223953e+00,-6.997959255985826132e-01,-1.201688944494990530e+00,1.531870982750428878e+00,1.016165009792358714e-01,2.481183457464676945e+00,9.884664769952373753e-01,-3.100332353740230751e+00,-6.382476796662825969e-01,1.002848518213783846e+00,-5.575795222832458098e-01,-3.017555584094596455e+01,-1.159021434653926619e+01,-3.582911594097764940e+00,-6.077187015658875868e-01,5.358475875021333212e-02
4.060000000000000275e-01,7.440755419058334708e-01,2.647232745880510940e+00,-1.939004047237903761e+00,-7.060176885798545854e-01,-1.203003375495955041e+00,1.533785547422425566e+00,1.011298251097583617e-01,2.460622187435708597e+00,9.727613025360538623e-01,-3.093822279126771324e+00,-6.273808211340908825e-01,1.028315628336478715e+00,-5.378759493712929052e-01,-2.949659026927677274e+01,-1.128868341353846105e+01,-3.492519321019886824e+00,-5.890991812421806362e-01,5.118159275124422453e-02
4.080000000000000293e-01,7.442794761108570967e-01,2.652224724401023526e+00,-1.937004568277714833e+00,-7.122277742945737344e-01,-1.204295413055326058e+00,1.535755031896606226e+00,1.006589072674049373e-01,2.441175022277166207e+00,9.576640681326232807e-01,-3.086930522259078824e+00,-6.167070613489477049e-01,1.052623126615080285e+00,-5.200700587400522990e-01,-2.884364589652391331e+01,-1.099751106368183251e+01,-3.405549921338002051e+00,-5.719558566501078412e-01,4.886334405084584442e-02
4.100000000000000311e-01,7.444824072922120450e-01,2.657173552895538027e+00,-1.935037550761193881e+00,-7.184254419482397624e-01,-1.205565446176120714e+00,1.537777117284966577e+00,1.002034341503527659e-01,2.422822947291599416e+00,9.431668585763758328e-01,-3.079659476013025365e+00,-6.062266979757764407e-01,1.075771048789283757e+00,-5.040606863153979100e-01,-2.821405376913660845e+01,-1.071558783171173346e+01,-3.321666889813234658e+00,-5.562358499618922369e-01,4.662479001470368895e-02
